;FLAVOR:Marlin
;TIME:6666
;Filament used: 0m
;Layer height: 0.1

;Generated with Cura_SteamEngine 4.0.0
M104 S215
M105
M109 S215
M82 ;absolute extrusion mode
G28 ;Home
G1 Z15.0 F6000 ;Move the platform down 15mm
;Prime the extruder
G92 E0
G1 F200 E3
G92 E0
G92 E0
G1 F1500 E-6.5
;LAYER_COUNT:350
;LAYER:0
M107
G0 F3600 X40.72 Y34.398 Z0.3
;TYPE:SKIRT
G1 F1500 E0
G1 F1800 X41.228 Y33.793 E0.01486
G1 X41.794 Y33.242 E0.02972
G1 X42.413 Y32.752 E0.04457
G1 X43.078 Y32.327 E0.05941
G1 X43.783 Y31.971 E0.07427
G1 X44.52 Y31.688 E0.08912
G1 X45.282 Y31.481 E0.10397
G1 X46.062 Y31.353 E0.11884
G1 X46.516 Y31.325 E0.1274
G1 X47.097 Y31.099 E0.13913
G1 X47.859 Y30.89 E0.15399
G1 X48.637 Y30.759 E0.16883
G1 X49.425 Y30.707 E0.18368
G1 X50.17 Y30.731 E0.19771
G1 X50.294 Y30.741 E0.20005
G1 X51.077 Y30.844 E0.2149
G1 X51.845 Y31.026 E0.22975
G1 X52.492 Y31.251 E0.24263
G1 X53.239 Y31.35 E0.25681
G1 X54.008 Y31.533 E0.27168
G1 X54.753 Y31.792 E0.28651
G1 X55.469 Y32.126 E0.30137
G1 X56.148 Y32.53 E0.31624
G1 X56.782 Y33.001 E0.33109
G1 X57.099 Y33.291 E0.33918
G1 X57.148 Y33.242 E0.34048
G1 X57.759 Y32.742 E0.35533
G1 X58.418 Y32.306 E0.37019
G1 X59.117 Y31.939 E0.38504
G1 X59.85 Y31.644 E0.39991
G1 X60.608 Y31.425 E0.41475
G1 X61.385 Y31.284 E0.4296
G1 X61.711 Y31.258 E0.43576
G1 X62.157 Y31.09 E0.44472
G1 X62.92 Y30.886 E0.45958
G1 X64.043 Y30.731 E0.4809
G1 X64.167 Y30.723 E0.48324
G1 X64.956 Y30.712 E0.49808
G1 X65.743 Y30.781 E0.51294
G1 X66.519 Y30.93 E0.52781
G1 X67.275 Y31.155 E0.54264
G1 X67.674 Y31.32 E0.55076
G1 X67.84 Y31.324 E0.55389
G1 X68.623 Y31.421 E0.56873
G1 X69.393 Y31.597 E0.58359
G1 X70.141 Y31.851 E0.59845
G1 X70.86 Y32.178 E0.6133
G1 X71.541 Y32.576 E0.62814
G1 X72.179 Y33.042 E0.643
G1 X72.767 Y33.569 E0.65786
G1 X73.298 Y34.153 E0.6727
G1 X73.768 Y34.788 E0.68756
G1 X74.171 Y35.467 E0.70242
G1 X74.613 Y36.473 E0.72309
G1 X75.119 Y37.887 E0.75134
G1 X75.218 Y38.051 E0.75494
G1 X75.554 Y38.766 E0.7698
G1 X75.844 Y39.607 E0.78653
G1 X77.633 Y45.952 E0.91054
G1 X77.809 Y46.722 E0.9254
G1 X77.906 Y47.506 E0.94026
G1 X77.911 Y47.755 E0.94494
G1 X78.366 Y48.011 E0.95476
G1 X78.429 Y48.051 E0.95617
G1 X79.073 Y48.508 E0.97102
G1 X79.668 Y49.027 E0.98587
G1 X80.208 Y49.604 E1.00074
G1 X80.686 Y50.232 E1.01558
G1 X81.098 Y50.906 E1.03044
G1 X81.44 Y51.617 E1.04528
G1 X81.709 Y52.36 E1.06015
G1 X81.9 Y53.126 E1.075
G1 X82.014 Y53.908 E1.08986
G1 X82.048 Y54.696 E1.1047
G1 X82.002 Y55.485 E1.11957
G1 X81.876 Y56.264 E1.13441
G1 X81.701 Y56.937 E1.14749
G1 X80.069 Y62.222 E1.25154
G1 X80.018 Y62.548 E1.25774
G1 X79.817 Y63.311 E1.27259
G1 X79.54 Y64.051 E1.28745
G1 X79.19 Y64.759 E1.30231
G1 X78.77 Y65.428 E1.31716
G1 X78.285 Y66.051 E1.33202
G1 X77.739 Y66.621 E1.34686
G1 X77.138 Y67.134 E1.36173
G1 X76.746 Y67.416 E1.37081
G1 X69.054 Y72.607 E1.54537
G1 X68.378 Y73.015 E1.56022
G1 X67.664 Y73.353 E1.57508
G1 X66.92 Y73.617 E1.58993
G1 X66.153 Y73.804 E1.60478
G1 X65.371 Y73.912 E1.61963
G1 X64.581 Y73.941 E1.6345
G1 X63.793 Y73.89 E1.64935
G1 X62.646 Y73.669 E1.67133
G1 X57.106 Y72.164 E1.77931
G1 X51.565 Y73.669 E1.88732
G1 X50.793 Y73.837 E1.90218
G1 X50.009 Y73.927 E1.91702
G1 X49.219 Y73.936 E1.93189
G1 X48.433 Y73.866 E1.94673
G1 X47.657 Y73.716 E1.9616
G1 X46.901 Y73.489 E1.97644
G1 X46.171 Y73.187 E1.99131
G1 X45.155 Y72.607 E2.01331
G1 X37.465 Y67.415 E2.18785
G1 X36.834 Y66.94 E2.2027
G1 X36.254 Y66.404 E2.21756
G1 X35.731 Y65.813 E2.2324
G1 X35.271 Y65.171 E2.24726
G1 X34.878 Y64.486 E2.26212
G1 X34.556 Y63.765 E2.27697
G1 X34.308 Y63.015 E2.29183
G1 X34.138 Y62.244 E2.30668
G1 X34.129 Y62.177 E2.30795
G1 X32.51 Y56.938 E2.4111
G1 X32.315 Y56.172 E2.42597
G1 X32.199 Y55.391 E2.44082
G1 X32.162 Y54.602 E2.45568
G1 X32.205 Y53.814 E2.47052
G1 X32.328 Y53.034 E2.48538
G1 X32.529 Y52.27 E2.50024
G1 X32.806 Y51.531 E2.51508
G1 X33.157 Y50.823 E2.52995
G1 X33.577 Y50.155 E2.54479
G1 X34.063 Y49.532 E2.55965
G1 X34.609 Y48.962 E2.5745
G1 X35.21 Y48.449 E2.58936
G1 X35.98 Y47.928 E2.60685
G1 X36.044 Y47.89 E2.60825
G1 X36.301 Y47.755 E2.61371
G1 X36.313 Y47.403 E2.62034
G1 X36.42 Y46.621 E2.63518
G1 X36.577 Y45.952 E2.64811
G1 X38.367 Y39.606 E2.77214
G1 X38.62 Y38.858 E2.78699
G1 X38.946 Y38.139 E2.80184
G1 X39.089 Y37.893 E2.8072
G1 X39.597 Y36.475 E2.83553
G1 X39.901 Y35.746 E2.85039
G1 X40.276 Y35.051 E2.86524
G1 X40.72 Y34.398 E2.8801
G0 F3600 X41.075 Y34.591
G1 F1800 X41.575 Y34.007 E2.89456
G1 X42.133 Y33.478 E2.90902
G1 X42.743 Y33.009 E2.92349
G1 X43.398 Y32.606 E2.93796
G1 X44.092 Y32.273 E2.95244
G1 X44.816 Y32.015 E2.9669
G1 X45.563 Y31.832 E2.98136
G1 X46.326 Y31.729 E2.99585
G1 X46.598 Y31.721 E3.00097
G1 X46.652 Y31.694 E3.0021
G1 X47.375 Y31.431 E3.01657
G1 X48.121 Y31.244 E3.03104
G1 X48.883 Y31.136 E3.04552
G1 X49.651 Y31.107 E3.05997
G1 X50.138 Y31.13 E3.06914
G1 X50.262 Y31.14 E3.07149
G1 X51.024 Y31.242 E3.08595
G1 X51.772 Y31.422 E3.10042
G1 X52.415 Y31.65 E3.11325
G1 X52.563 Y31.657 E3.11604
G1 X53.324 Y31.774 E3.13052
G1 X54.068 Y31.969 E3.14499
G1 X54.787 Y32.241 E3.15945
G1 X55.475 Y32.585 E3.17392
G1 X56.123 Y32.999 E3.18838
G1 X56.725 Y33.478 E3.20285
G1 X57.104 Y33.85 E3.21284
G1 X57.537 Y33.432 E3.22417
G1 X58.143 Y32.958 E3.23864
G1 X58.795 Y32.55 E3.25311
G1 X59.486 Y32.212 E3.26757
G1 X60.208 Y31.948 E3.28204
G1 X60.954 Y31.76 E3.29651
G1 X61.715 Y31.65 E3.31097
G1 X61.801 Y31.647 E3.31259
G1 X62.451 Y31.417 E3.32556
G1 X63.199 Y31.238 E3.34003
G1 X64.069 Y31.13 E3.35652
G1 X64.193 Y31.122 E3.35885
G1 X64.962 Y31.113 E3.37332
G1 X65.728 Y31.183 E3.38779
G1 X66.482 Y31.333 E3.40225
G1 X67.217 Y31.56 E3.41672
G1 X67.591 Y31.72 E3.42437
G1 X67.93 Y31.732 E3.43075
G1 X68.691 Y31.841 E3.44521
G1 X69.438 Y32.028 E3.4597
G1 X70.16 Y32.291 E3.47415
G1 X70.852 Y32.628 E3.48863
G1 X71.505 Y33.034 E3.5031
G1 X72.112 Y33.507 E3.51757
G1 X72.666 Y34.039 E3.53202
G1 X73.163 Y34.627 E3.5465
G1 X73.596 Y35.263 E3.56097
G1 X73.96 Y35.94 E3.57543
G1 X74.237 Y36.608 E3.58904
G1 X74.76 Y38.067 E3.61819
G1 X74.912 Y38.328 E3.62387
G1 X75.229 Y39.029 E3.63834
G1 X75.459 Y39.716 E3.65197
G1 X77.248 Y46.061 E3.77598
G1 X77.418 Y46.811 E3.79044
G1 X77.509 Y47.575 E3.80492
G1 X77.516 Y47.993 E3.81278
G1 X77.608 Y48.035 E3.81468
G1 X78.151 Y48.349 E3.82648
G1 X78.214 Y48.389 E3.82789
G1 X78.841 Y48.834 E3.84235
G1 X79.419 Y49.342 E3.85682
G1 X79.94 Y49.908 E3.87129
G1 X80.4 Y50.524 E3.88576
G1 X80.794 Y51.185 E3.90023
G1 X81.117 Y51.883 E3.9147
G1 X81.366 Y52.611 E3.92917
G1 X81.537 Y53.361 E3.94364
G1 X81.63 Y54.124 E3.9581
G1 X81.644 Y54.893 E3.97257
G1 X81.577 Y55.66 E3.98705
G1 X81.431 Y56.415 E4.00152
G1 X81.319 Y56.819 E4.0094
G1 X79.677 Y62.136 E4.11408
G1 X79.622 Y62.485 E4.12072
G1 X79.424 Y63.229 E4.13521
G1 X79.149 Y63.947 E4.14967
G1 X78.802 Y64.633 E4.16413
G1 X78.385 Y65.28 E4.17861
G1 X77.903 Y65.879 E4.19307
G1 X77.362 Y66.426 E4.20754
G1 X76.522 Y67.085 E4.22763
G1 X68.83 Y72.276 E4.40218
G1 X68.171 Y72.672 E4.41665
G1 X67.475 Y72.998 E4.4311
G1 X66.748 Y73.25 E4.44558
G1 X65.999 Y73.425 E4.46004
G1 X65.236 Y73.522 E4.47451
G1 X64.467 Y73.539 E4.48898
G1 X63.7 Y73.475 E4.50346
G1 X62.751 Y73.283 E4.52167
G1 X57.106 Y71.749 E4.63171
G1 X51.46 Y73.283 E4.74176
G1 X50.708 Y73.446 E4.75624
G1 X49.944 Y73.53 E4.7707
G1 X49.175 Y73.534 E4.78516
G1 X48.409 Y73.458 E4.79964
G1 X47.656 Y73.303 E4.8141
G1 X46.923 Y73.071 E4.82856
G1 X46.217 Y72.764 E4.84305
G1 X45.379 Y72.275 E4.8613
G1 X37.689 Y67.083 E5.03583
G1 X37.075 Y66.62 E5.0503
G1 X36.512 Y66.096 E5.06477
G1 X36.007 Y65.516 E5.07923
G1 X35.564 Y64.887 E5.0937
G1 X35.189 Y64.215 E5.10818
G1 X34.886 Y63.508 E5.12265
G1 X34.658 Y62.774 E5.13711
G1 X34.553 Y62.195 E5.14817
G1 X32.892 Y56.819 E5.25402
G1 X32.703 Y56.074 E5.26847
G1 X32.593 Y55.313 E5.28294
G1 X32.563 Y54.544 E5.29741
G1 X32.612 Y53.776 E5.31189
G1 X32.741 Y53.018 E5.32635
G1 X32.948 Y52.277 E5.34083
G1 X33.23 Y51.562 E5.35528
G1 X33.586 Y50.88 E5.36976
G1 X34.01 Y50.238 E5.38423
G1 X34.498 Y49.644 E5.39869
G1 X35.046 Y49.104 E5.41316
G1 X35.647 Y48.624 E5.42763
G1 X36.184 Y48.272 E5.43971
G1 X36.248 Y48.234 E5.44111
G1 X36.686 Y48.004 E5.45041
G1 X36.685 Y47.966 E5.45113
G1 X36.735 Y47.199 E5.46559
G1 X36.866 Y46.441 E5.48006
G1 X36.962 Y46.061 E5.48743
G1 X38.752 Y39.715 E5.61146
G1 X38.999 Y38.987 E5.62592
G1 X39.32 Y38.288 E5.64039
G1 X39.455 Y38.06 E5.64537
G1 X39.974 Y36.61 E5.67434
G1 X40.27 Y35.9 E5.68881
G1 X40.639 Y35.225 E5.70328
G1 X41.075 Y34.591 E5.71776
G0 F3600 X41.43 Y34.787
G1 F1800 X41.922 Y34.223 E5.73183
G1 X42.472 Y33.716 E5.7459
G1 X43.072 Y33.269 E5.75998
G1 X43.717 Y32.89 E5.77405
G1 X44.398 Y32.581 E5.78812
G1 X45.109 Y32.347 E5.8022
G1 X45.84 Y32.19 E5.81626
G1 X46.584 Y32.112 E5.83033
G1 X46.714 Y32.112 E5.83278
G1 X46.941 Y32.007 E5.83748
G1 X47.65 Y31.767 E5.85156
G1 X48.38 Y31.603 E5.86564
G1 X49.123 Y31.519 E5.8797
G1 X50.106 Y31.529 E5.8982
G1 X50.23 Y31.539 E5.90054
G1 X50.971 Y31.639 E5.9146
G1 X51.698 Y31.817 E5.92868
G1 X52.338 Y32.049 E5.94148
G1 X52.666 Y32.071 E5.94767
G1 X53.403 Y32.201 E5.96175
G1 X54.121 Y32.409 E5.97581
G1 X54.814 Y32.692 E5.98989
G1 X55.472 Y33.047 E6.00395
G1 X56.088 Y33.471 E6.01802
G1 X56.656 Y33.958 E6.03209
G1 X57.109 Y34.439 E6.04452
G1 X57.374 Y34.135 E6.05211
G1 X57.924 Y33.628 E6.06618
G1 X58.525 Y33.182 E6.08026
G1 X59.17 Y32.803 E6.09433
G1 X59.852 Y32.495 E6.10841
G1 X60.562 Y32.262 E6.12246
G1 X61.294 Y32.105 E6.13654
G1 X61.895 Y32.043 E6.14791
G1 X62.031 Y31.982 E6.15071
G1 X62.742 Y31.751 E6.16478
G1 X63.474 Y31.597 E6.17885
G1 X64.094 Y31.53 E6.19058
G1 X64.218 Y31.522 E6.19291
G1 X64.966 Y31.513 E6.20699
G1 X65.711 Y31.585 E6.22106
G1 X66.444 Y31.736 E6.23514
G1 X67.156 Y31.964 E6.24921
G1 X67.497 Y32.115 E6.25622
G1 X68.017 Y32.143 E6.26602
G1 X68.755 Y32.262 E6.28008
G1 X69.477 Y32.46 E6.29416
G1 X70.173 Y32.733 E6.30822
G1 X70.836 Y33.079 E6.32229
G1 X71.459 Y33.494 E6.33637
G1 X72.033 Y33.973 E6.35043
G1 X72.553 Y34.511 E6.36451
G1 X73.013 Y35.101 E6.37858
G1 X73.407 Y35.737 E6.39266
G1 X73.86 Y36.743 E6.41341
G1 X74.394 Y38.235 E6.44322
G1 X74.603 Y38.603 E6.45118
G1 X74.9 Y39.289 E6.46524
G1 X75.074 Y39.824 E6.47582
G1 X76.863 Y46.169 E6.59983
G1 X77.028 Y46.899 E6.61391
G1 X77.113 Y47.642 E6.62797
G1 X77.118 Y48.25 E6.63941
G1 X77.568 Y48.468 E6.64882
G1 X77.937 Y48.687 E6.65689
G1 X78 Y48.727 E6.65829
G1 X78.609 Y49.161 E6.67236
G1 X79.169 Y49.657 E6.68643
G1 X79.672 Y50.211 E6.70051
G1 X80.113 Y50.815 E6.71457
G1 X80.487 Y51.463 E6.72865
G1 X80.79 Y52.147 E6.74272
G1 X81.019 Y52.859 E6.75679
G1 X81.17 Y53.592 E6.77087
G1 X81.242 Y54.336 E6.78493
G1 X81.234 Y55.084 E6.799
G1 X81.146 Y55.827 E6.81307
G1 X80.936 Y56.701 E6.82998
G1 X79.289 Y62.034 E6.93497
G1 X79.227 Y62.423 E6.94238
G1 X79.03 Y63.144 E6.95644
G1 X78.758 Y63.841 E6.97052
G1 X78.414 Y64.505 E6.98458
G1 X78 Y65.128 E6.99865
G1 X77.522 Y65.704 E7.01273
G1 X76.986 Y66.225 E7.02679
G1 X76.299 Y66.753 E7.04309
G1 X68.607 Y71.944 E7.21765
G1 X67.965 Y72.329 E7.23173
G1 X67.286 Y72.643 E7.2458
G1 X66.578 Y72.883 E7.25986
G1 X65.848 Y73.046 E7.27393
G1 X65.104 Y73.13 E7.28802
G1 X64.356 Y73.134 E7.30209
G1 X63.612 Y73.058 E7.31616
G1 X62.856 Y72.897 E7.3307
G1 X57.106 Y71.335 E7.44278
G1 X51.355 Y72.897 E7.55488
G1 X50.624 Y73.054 E7.56894
G1 X49.88 Y73.133 E7.58301
G1 X49.132 Y73.131 E7.59708
G1 X48.388 Y73.05 E7.61116
G1 X47.658 Y72.89 E7.62522
G1 X46.948 Y72.652 E7.63931
G1 X46.268 Y72.341 E7.65337
G1 X45.603 Y71.944 E7.66794
G1 X37.913 Y66.752 E7.84248
G1 X37.316 Y66.3 E7.85656
G1 X36.771 Y65.788 E7.87063
G1 X36.284 Y65.221 E7.88469
G1 X35.86 Y64.604 E7.89877
G1 X35.504 Y63.946 E7.91284
G1 X35.22 Y63.254 E7.92691
G1 X35.012 Y62.536 E7.94097
G1 X34.932 Y62.067 E7.94992
G1 X33.274 Y56.701 E8.05557
G1 X33.092 Y55.976 E8.06963
G1 X32.988 Y55.235 E8.0837
G1 X32.964 Y54.487 E8.09778
G1 X33.019 Y53.741 E8.11185
G1 X33.154 Y53.006 E8.12591
G1 X33.367 Y52.288 E8.14
G1 X33.655 Y51.598 E8.15406
G1 X34.015 Y50.942 E8.16814
G1 X34.443 Y50.329 E8.1822
G1 X34.934 Y49.765 E8.19627
G1 X35.483 Y49.256 E8.21035
G1 X36.388 Y48.616 E8.2312
G1 X36.452 Y48.578 E8.2326
G1 X37.095 Y48.241 E8.24626
G1 X37.091 Y47.746 E8.25557
G1 X37.166 Y47.002 E8.26963
G1 X37.347 Y46.17 E8.28565
G1 X39.137 Y39.824 E8.40968
G1 X39.378 Y39.116 E8.42375
G1 X39.694 Y38.437 E8.43784
G1 X39.817 Y38.233 E8.44232
G1 X40.35 Y36.744 E8.47207
G1 X40.64 Y36.054 E8.48615
G1 X41.001 Y35.399 E8.50021
G1 X41.43 Y34.787 E8.51427
G0 F3600 X41.784 Y34.984
G1 F1800 X42.268 Y34.442 E8.52794
G1 X42.809 Y33.957 E8.54161
G1 X43.399 Y33.534 E8.55526
G1 X44.033 Y33.178 E8.56894
G1 X44.701 Y32.895 E8.58259
G1 X45.397 Y32.686 E8.59626
G1 X46.112 Y32.555 E8.60993
G1 X46.817 Y32.505 E8.62323
G1 X47.228 Y32.325 E8.63167
G1 X47.921 Y32.108 E8.64533
G1 X48.634 Y31.969 E8.65899
G1 X49.357 Y31.909 E8.67264
G1 X50.074 Y31.927 E8.68613
G1 X50.198 Y31.937 E8.68847
G1 X50.917 Y32.035 E8.70212
G1 X51.622 Y32.212 E8.71579
G1 X52.24 Y32.442 E8.7282
G1 X52.764 Y32.488 E8.73809
G1 X53.476 Y32.631 E8.75175
G1 X54.168 Y32.851 E8.76541
G1 X54.832 Y33.147 E8.77908
G1 X55.459 Y33.513 E8.79274
G1 X56.042 Y33.946 E8.8064
G1 X56.574 Y34.441 E8.82007
G1 X57.048 Y34.991 E8.83373
G1 X57.107 Y35.077 E8.83569
G1 X57.275 Y34.846 E8.84106
G1 X57.765 Y34.31 E8.85472
G1 X58.31 Y33.83 E8.86838
G1 X58.905 Y33.413 E8.88205
G1 X59.542 Y33.064 E8.89571
G1 X60.214 Y32.788 E8.90938
G1 X60.912 Y32.586 E8.92305
G1 X61.628 Y32.463 E8.93671
G1 X61.99 Y32.441 E8.94354
G1 X62.333 Y32.297 E8.95053
G1 X63.029 Y32.091 E8.96419
G1 X63.744 Y31.964 E8.97785
G1 X64.12 Y31.929 E8.98495
G1 X64.244 Y31.921 E8.98729
G1 X64.97 Y31.914 E9.00095
G1 X65.693 Y31.987 E9.01461
G1 X66.403 Y32.139 E9.02827
G1 X67.093 Y32.368 E9.04195
G1 X67.391 Y32.505 E9.04812
G1 X68.1 Y32.555 E9.06149
G1 X68.814 Y32.686 E9.07514
G1 X69.51 Y32.895 E9.08881
G1 X70.179 Y33.178 E9.10248
G1 X70.812 Y33.534 E9.11614
G1 X71.402 Y33.957 E9.12979
G1 X71.943 Y34.442 E9.14346
G1 X72.427 Y34.984 E9.15713
G1 X72.848 Y35.575 E9.17078
G1 X73.202 Y36.21 E9.18445
G1 X73.484 Y36.878 E9.19809
G1 X74.027 Y38.394 E9.22838
G1 X74.291 Y38.876 E9.23872
G1 X74.568 Y39.547 E9.25238
G1 X74.689 Y39.933 E9.25999
G1 X76.478 Y46.278 E9.38399
G1 X76.637 Y46.987 E9.39766
G1 X76.716 Y47.709 E9.41132
G1 X76.716 Y48.435 E9.42498
G1 X76.708 Y48.505 E9.4263
G1 X76.875 Y48.569 E9.42967
G1 X77.723 Y49.024 E9.44777
G1 X77.786 Y49.064 E9.44917
G1 X78.377 Y49.487 E9.46285
G1 X78.917 Y49.972 E9.4765
G1 X79.402 Y50.513 E9.49017
G1 X79.824 Y51.104 E9.50383
G1 X80.178 Y51.738 E9.51748
G1 X80.46 Y52.407 E9.53114
G1 X80.668 Y53.104 E9.54482
G1 X80.797 Y53.818 E9.55847
G1 X80.847 Y54.543 E9.57214
G1 X80.818 Y55.269 E9.58581
G1 X80.708 Y55.987 E9.59947
G1 X80.554 Y56.583 E9.61105
G1 X78.898 Y61.947 E9.71665
G1 X78.831 Y62.359 E9.7245
G1 X78.637 Y63.059 E9.73817
G1 X78.368 Y63.734 E9.75183
G1 X78.026 Y64.374 E9.76548
G1 X77.615 Y64.974 E9.77917
G1 X77.142 Y65.524 E9.79281
G1 X76.61 Y66.02 E9.80649
G1 X76.075 Y66.422 E9.81908
G1 X68.383 Y71.613 E9.99364
G1 X67.759 Y71.985 E10.0073
G1 X67.099 Y72.287 E10.02096
G1 X66.409 Y72.515 E10.03463
G1 X65.698 Y72.665 E10.04829
G1 X64.975 Y72.736 E10.06196
G1 X64.249 Y72.727 E10.07562
G1 X63.528 Y72.639 E10.08928
G1 X62.96 Y72.511 E10.10023
G1 X57.105 Y70.92 E10.21436
G1 X51.25 Y72.511 E10.32849
G1 X50.54 Y72.663 E10.34215
G1 X49.817 Y72.735 E10.35582
G1 X49.091 Y72.728 E10.36947
G1 X48.37 Y72.641 E10.38313
G1 X47.663 Y72.475 E10.3968
G1 X46.978 Y72.233 E10.41046
G1 X46.324 Y71.917 E10.42412
G1 X45.827 Y71.612 E10.43509
G1 X38.137 Y66.42 E10.60963
G1 X37.558 Y65.981 E10.6233
G1 X37.031 Y65.481 E10.63696
G1 X36.562 Y64.926 E10.65063
G1 X36.157 Y64.323 E10.66429
G1 X35.821 Y63.68 E10.67794
G1 X35.557 Y63.003 E10.69161
G1 X35.37 Y62.301 E10.70527
G1 X35.314 Y61.95 E10.71196
G1 X33.656 Y56.583 E10.81762
G1 X33.48 Y55.879 E10.83128
G1 X33.383 Y55.159 E10.84494
G1 X33.365 Y54.433 E10.8586
G1 X33.427 Y53.709 E10.87227
G1 X33.569 Y52.996 E10.88595
G1 X33.787 Y52.304 E10.89959
G1 X34.081 Y51.639 E10.91327
G1 X34.446 Y51.011 E10.92693
G1 X34.877 Y50.427 E10.94059
G1 X35.371 Y49.894 E10.95426
G1 X35.919 Y49.418 E10.96791
G1 X36.592 Y48.96 E10.98322
G1 X36.656 Y48.922 E10.98462
G1 X37.3 Y48.586 E10.99829
G1 X37.508 Y48.505 E11.00249
G1 X37.487 Y48.26 E11.00711
G1 X37.506 Y47.534 E11.02077
G1 X37.605 Y46.814 E11.03444
G1 X37.732 Y46.278 E11.04481
G1 X39.522 Y39.932 E11.16884
G1 X39.757 Y39.245 E11.18249
G1 X40.067 Y38.588 E11.19616
G1 X40.183 Y38.398 E11.20035
G1 X40.727 Y36.879 E11.2307
G1 X41.009 Y36.21 E11.24435
G1 X41.363 Y35.575 E11.25803
G1 X41.784 Y34.984 E11.27168
G0 F3600 X42.138 Y35.183
G1 F1800 X42.613 Y34.664 E11.28491
G1 X43.144 Y34.202 E11.29815
G1 X43.724 Y33.803 E11.31139
G1 X44.346 Y33.472 E11.32465
G1 X45.001 Y33.214 E11.33789
G1 X45.681 Y33.032 E11.35113
G1 X46.377 Y32.929 E11.36437
G1 X46.872 Y32.912 E11.37368
G1 X47.511 Y32.649 E11.38668
G1 X48.188 Y32.456 E11.39992
G1 X48.882 Y32.341 E11.41316
G1 X49.585 Y32.306 E11.4264
G1 X50.041 Y32.326 E11.43498
G1 X50.165 Y32.336 E11.43732
G1 X50.863 Y32.432 E11.45057
G1 X51.545 Y32.607 E11.46382
G1 X52.126 Y32.829 E11.47552
G1 X52.157 Y32.829 E11.4761
G1 X52.857 Y32.907 E11.48935
G1 X53.543 Y33.064 E11.50259
G1 X54.207 Y33.298 E11.51583
G1 X54.84 Y33.605 E11.52907
G1 X55.435 Y33.982 E11.54232
G1 X55.983 Y34.424 E11.55556
G1 X56.477 Y34.926 E11.56881
G1 X56.911 Y35.48 E11.58204
G1 X57.104 Y35.795 E11.58899
G1 X57.243 Y35.56 E11.59413
G1 X57.669 Y34.999 E11.60738
G1 X58.155 Y34.49 E11.62062
G1 X58.696 Y34.039 E11.63387
G1 X59.284 Y33.653 E11.6471
G1 X59.912 Y33.335 E11.66034
G1 X60.573 Y33.091 E11.67359
G1 X61.256 Y32.923 E11.68682
G1 X61.955 Y32.834 E11.70008
G1 X62.079 Y32.832 E11.70241
G1 X62.631 Y32.618 E11.71355
G1 X63.312 Y32.439 E11.72679
G1 X64.146 Y32.328 E11.74262
G1 X64.27 Y32.32 E11.74496
G1 X64.974 Y32.314 E11.7582
G1 X65.674 Y32.389 E11.77144
G1 X66.361 Y32.542 E11.78468
G1 X67.026 Y32.773 E11.79792
G1 X67.312 Y32.91 E11.80389
G1 X67.477 Y32.906 E11.80699
G1 X68.178 Y32.97 E11.82023
G1 X68.868 Y33.112 E11.83349
G1 X69.536 Y33.332 E11.84672
G1 X70.176 Y33.626 E11.85996
G1 X70.778 Y33.991 E11.87321
G1 X71.335 Y34.422 E11.88645
G1 X71.84 Y34.913 E11.8997
G1 X72.285 Y35.458 E11.91294
G1 X72.666 Y36.05 E11.92618
G1 X72.977 Y36.681 E11.93941
G1 X73.107 Y37.013 E11.94612
G1 X73.651 Y38.531 E11.97645
G1 X73.976 Y39.147 E11.98955
G1 X74.304 Y40.041 E12.00747
G1 X76.093 Y46.386 E12.13147
G1 X76.246 Y47.074 E12.14473
G1 X76.319 Y47.774 E12.15797
G1 X76.313 Y48.478 E12.17121
G1 X76.277 Y48.764 E12.17664
G1 X76.85 Y48.998 E12.18828
G1 X77.508 Y49.362 E12.20242
G1 X77.571 Y49.402 E12.20383
G1 X78.143 Y49.812 E12.21707
G1 X78.665 Y50.285 E12.23032
G1 X79.13 Y50.814 E12.24356
G1 X79.531 Y51.392 E12.2568
G1 X79.865 Y52.012 E12.27004
G1 X80.126 Y52.665 E12.28327
G1 X80.312 Y53.345 E12.29653
G1 X80.419 Y54.04 E12.30976
G1 X80.447 Y54.744 E12.32301
G1 X80.395 Y55.446 E12.33626
G1 X80.172 Y56.465 E12.35588
G1 X78.508 Y61.855 E12.46199
G1 X78.436 Y62.295 E12.47037
G1 X78.244 Y62.972 E12.48361
G1 X77.977 Y63.624 E12.49686
G1 X77.638 Y64.241 E12.51011
G1 X77.231 Y64.815 E12.52334
G1 X76.762 Y65.34 E12.53659
G1 X76.236 Y65.808 E12.54983
G1 X75.851 Y66.09 E12.55881
G1 X68.159 Y71.281 E12.73336
G1 X67.554 Y71.641 E12.74661
G1 X66.912 Y71.93 E12.75985
G1 X66.242 Y72.145 E12.77309
G1 X65.551 Y72.282 E12.78634
G1 X64.85 Y72.34 E12.79957
G1 X64.146 Y72.318 E12.81282
G1 X63.45 Y72.216 E12.82605
G1 X63.065 Y72.125 E12.83349
G1 X57.106 Y70.506 E12.94965
G1 X51.146 Y72.125 E13.06582
G1 X50.457 Y72.271 E13.07907
G1 X49.756 Y72.338 E13.09231
G1 X49.052 Y72.324 E13.10556
G1 X48.354 Y72.231 E13.11881
G1 X47.671 Y72.06 E13.13205
G1 X47.012 Y71.812 E13.14529
G1 X46.386 Y71.491 E13.15853
G1 X46.051 Y71.28 E13.16597
G1 X38.361 Y66.088 E13.34051
G1 X37.801 Y65.662 E13.35375
G1 X37.292 Y65.175 E13.367
G1 X36.843 Y64.633 E13.38024
G1 X36.457 Y64.044 E13.39348
G1 X36.141 Y63.415 E13.40672
G1 X35.898 Y62.754 E13.41997
G1 X35.732 Y62.07 E13.43321
G1 X35.698 Y61.837 E13.43764
G1 X34.038 Y56.465 E13.54341
G1 X33.869 Y55.782 E13.55664
G1 X33.778 Y55.084 E13.56988
G1 X33.767 Y54.38 E13.58313
G1 X33.836 Y53.679 E13.59638
G1 X33.984 Y52.991 E13.60961
G1 X34.209 Y52.324 E13.62285
G1 X34.508 Y51.687 E13.63609
G1 X34.877 Y51.087 E13.64934
G1 X35.312 Y50.534 E13.66258
G1 X35.807 Y50.033 E13.67582
G1 X36.356 Y49.592 E13.68907
G1 X36.797 Y49.304 E13.69898
G1 X36.861 Y49.266 E13.70038
G1 X37.485 Y48.941 E13.71361
G1 X37.926 Y48.773 E13.72249
G1 X37.92 Y48.734 E13.72323
G1 X37.884 Y48.031 E13.73647
G1 X37.928 Y47.329 E13.7497
G1 X38.117 Y46.387 E13.76778
G1 X39.907 Y40.041 E13.89181
G1 X40.136 Y39.375 E13.90505
G1 X40.439 Y38.74 E13.91829
G1 X40.549 Y38.564 E13.92219
G1 X41.104 Y37.014 E13.95316
G1 X41.378 Y36.366 E13.9664
G1 X41.724 Y35.753 E13.97964
G1 X42.138 Y35.183 E13.99289
G0 F3600 X42.49 Y35.384
G1 F1800 X42.957 Y34.888 E14.0057
G1 X43.478 Y34.45 E14.01851
G1 X44.047 Y34.076 E14.03132
G1 X44.656 Y33.772 E14.04412
G1 X45.297 Y33.541 E14.05694
G1 X45.96 Y33.387 E14.06974
G1 X46.637 Y33.311 E14.08255
G1 X46.978 Y33.313 E14.08897
G1 X47.154 Y33.221 E14.0927
G1 X47.79 Y32.977 E14.10552
G1 X48.45 Y32.81 E14.11832
G1 X49.125 Y32.721 E14.13113
G1 X50.009 Y32.725 E14.14776
G1 X50.133 Y32.735 E14.1501
G1 X50.808 Y32.829 E14.16292
G1 X51.466 Y33.002 E14.17572
G1 X52.055 Y33.233 E14.18762
G1 X52.269 Y33.237 E14.19164
G1 X52.944 Y33.33 E14.20446
G1 X53.603 Y33.5 E14.21726
G1 X54.237 Y33.747 E14.23006
G1 X54.839 Y34.067 E14.24289
G1 X55.398 Y34.455 E14.25569
G1 X55.909 Y34.905 E14.26849
G1 X56.363 Y35.413 E14.28131
G1 X56.754 Y35.97 E14.29411
G1 X57.078 Y36.569 E14.30692
G1 X57.108 Y36.644 E14.30844
G1 X57.281 Y36.271 E14.31618
G1 X57.639 Y35.691 E14.329
G1 X58.061 Y35.157 E14.3418
G1 X58.544 Y34.677 E14.35461
G1 X59.079 Y34.256 E14.36741
G1 X59.66 Y33.901 E14.38022
G1 X60.279 Y33.617 E14.39303
G1 X60.926 Y33.406 E14.40583
G1 X61.594 Y33.274 E14.41864
G1 X62.175 Y33.228 E14.42961
G1 X62.284 Y33.174 E14.43189
G1 X62.925 Y32.946 E14.44469
G1 X63.589 Y32.794 E14.4575
G1 X64.172 Y32.727 E14.46854
G1 X64.296 Y32.719 E14.47088
G1 X64.976 Y32.715 E14.48367
G1 X65.653 Y32.791 E14.49649
G1 X66.316 Y32.946 E14.50929
G1 X66.957 Y33.177 E14.52211
G1 X67.228 Y33.313 E14.52781
G1 X67.575 Y33.311 E14.53434
G1 X68.252 Y33.387 E14.54716
G1 X68.915 Y33.541 E14.55996
G1 X69.556 Y33.772 E14.57278
G1 X70.165 Y34.077 E14.58559
G1 X70.734 Y34.451 E14.5984
G1 X71.255 Y34.889 E14.6112
G1 X71.721 Y35.385 E14.624
G1 X72.126 Y35.932 E14.63681
G1 X72.465 Y36.523 E14.64962
G1 X72.73 Y37.147 E14.66237
G1 X73.295 Y38.723 E14.69387
G1 X73.35 Y38.807 E14.69576
G1 X73.658 Y39.415 E14.70858
G1 X73.919 Y40.15 E14.72325
G1 X75.708 Y46.495 E14.84725
G1 X75.854 Y47.16 E14.86006
G1 X75.921 Y47.838 E14.87288
G1 X75.909 Y48.518 E14.88567
G1 X75.836 Y49.046 E14.8957
G1 X76.194 Y49.155 E14.90274
G1 X76.818 Y49.428 E14.91555
G1 X77.294 Y49.7 E14.92586
G1 X77.357 Y49.74 E14.92726
G1 X77.909 Y50.138 E14.94006
G1 X78.411 Y50.598 E14.95287
G1 X78.856 Y51.113 E14.96568
G1 X79.237 Y51.678 E14.97849
G1 X79.549 Y52.283 E14.9913
G1 X79.788 Y52.92 E15.0041
G1 X79.951 Y53.581 E15.0169
G1 X80.036 Y54.257 E15.02972
G1 X80.04 Y54.938 E15.04253
G1 X79.965 Y55.614 E15.05532
G1 X79.79 Y56.347 E15.0695
G1 X78.117 Y61.766 E15.17618
G1 X78.04 Y62.23 E15.18503
G1 X77.851 Y62.884 E15.19783
G1 X77.587 Y63.512 E15.21065
G1 X77.251 Y64.104 E15.22345
G1 X76.848 Y64.653 E15.23626
G1 X76.384 Y65.15 E15.24905
G1 X75.627 Y65.759 E15.26733
G1 X67.935 Y70.95 E15.44189
G1 X67.35 Y71.297 E15.45468
G1 X66.727 Y71.573 E15.4675
G1 X66.077 Y71.774 E15.4803
G1 X65.407 Y71.898 E15.49311
G1 X64.728 Y71.942 E15.50591
G1 X64.048 Y71.906 E15.51872
G1 X63.17 Y71.739 E15.53553
G1 X57.106 Y70.091 E15.65374
G1 X51.041 Y71.739 E15.77196
G1 X50.374 Y71.879 E15.78478
G1 X49.696 Y71.939 E15.79758
G1 X49.015 Y71.92 E15.8104
G1 X48.342 Y71.821 E15.82319
G1 X47.684 Y71.644 E15.83601
G1 X47.052 Y71.391 E15.84882
G1 X46.275 Y70.949 E15.86563
G1 X38.585 Y65.757 E16.04017
G1 X38.044 Y65.343 E16.05298
G1 X37.555 Y64.869 E16.06579
G1 X37.125 Y64.341 E16.0786
G1 X36.76 Y63.767 E16.0914
G1 X36.465 Y63.153 E16.10421
G1 X36.243 Y62.509 E16.11702
G1 X36.109 Y61.815 E16.13032
G1 X34.42 Y56.347 E16.23797
G1 X34.258 Y55.686 E16.25077
G1 X34.174 Y55.01 E16.26359
G1 X34.17 Y54.329 E16.2764
G1 X34.246 Y53.653 E16.28919
G1 X34.4 Y52.99 E16.302
G1 X34.631 Y52.349 E16.31481
G1 X34.936 Y51.74 E16.32763
G1 X35.31 Y51.171 E16.34043
G1 X35.748 Y50.65 E16.35324
G1 X36.244 Y50.183 E16.36605
G1 X37.001 Y49.648 E16.38349
G1 X37.065 Y49.61 E16.38489
G1 X37.67 Y49.297 E16.3977
G1 X38.307 Y49.058 E16.4105
G1 X38.372 Y49.042 E16.41176
G1 X38.299 Y48.491 E16.42221
G1 X38.29 Y47.81 E16.43503
G1 X38.36 Y47.133 E16.44783
G1 X38.502 Y46.495 E16.46012
G1 X40.292 Y40.149 E16.58415
G1 X40.515 Y39.506 E16.59695
G1 X40.812 Y38.893 E16.60977
G1 X40.912 Y38.737 E16.61325
G1 X41.48 Y37.149 E16.64498
G1 X41.747 Y36.522 E16.6578
G1 X42.085 Y35.931 E16.6706
G1 X42.49 Y35.384 E16.68341
G0 F3600 X42.445 Y36.111
G1 F1800 X42.842 Y35.588 E16.69576
G1 X43.299 Y35.116 E16.70812
G1 X43.81 Y34.703 E16.72047
G1 X44.368 Y34.356 E16.73283
G1 X44.963 Y34.078 E16.74519
G1 X45.588 Y33.875 E16.75755
G1 X46.233 Y33.75 E16.76991
G1 X46.888 Y33.703 E16.78226
G1 X47.076 Y33.713 E16.7858
G1 X47.446 Y33.53 E16.79357
G1 X48.066 Y33.312 E16.80593
G1 X48.708 Y33.171 E16.81829
G1 X49.362 Y33.109 E16.83065
G1 X49.977 Y33.123 E16.84222
G1 X50.101 Y33.133 E16.84456
G1 X50.751 Y33.226 E16.85691
G1 X51.386 Y33.397 E16.86928
G1 X51.967 Y33.632 E16.88107
G1 X52.376 Y33.649 E16.88877
G1 X53.024 Y33.756 E16.90113
G1 X53.655 Y33.941 E16.9135
G1 X54.258 Y34.201 E16.92585
G1 X54.825 Y34.533 E16.93821
G1 X55.348 Y34.931 E16.95057
G1 X55.818 Y35.389 E16.96292
G1 X56.23 Y35.901 E16.97528
G1 X56.576 Y36.46 E16.98764
G1 X56.851 Y37.056 E16.99999
G1 X57.053 Y37.682 E17.01236
G1 X57.105 Y37.955 E17.01759
G1 X57.181 Y37.593 E17.02455
G1 X57.392 Y36.971 E17.0369
G1 X57.678 Y36.38 E17.04925
G1 X58.033 Y35.827 E17.06162
G1 X58.453 Y35.322 E17.07397
G1 X58.931 Y34.871 E17.08633
G1 X59.461 Y34.482 E17.0987
G1 X60.033 Y34.16 E17.11105
G1 X60.641 Y33.91 E17.12341
G1 X61.274 Y33.735 E17.13577
G1 X61.924 Y33.639 E17.14813
G1 X62.267 Y33.63 E17.15458
G1 X62.589 Y33.482 E17.16125
G1 X63.215 Y33.281 E17.17361
G1 X63.861 Y33.159 E17.18598
G1 X64.197 Y33.126 E17.19233
G1 X64.321 Y33.118 E17.19467
G1 X64.978 Y33.116 E17.20703
G1 X65.631 Y33.193 E17.2194
G1 X66.269 Y33.349 E17.23175
G1 X66.883 Y33.582 E17.2441
G1 X67.128 Y33.711 E17.24931
G1 X67.669 Y33.718 E17.25949
G1 X68.32 Y33.806 E17.27185
G1 X68.956 Y33.973 E17.28422
G1 X69.566 Y34.216 E17.29657
G1 X70.143 Y34.531 E17.30893
G1 X70.677 Y34.913 E17.32128
G1 X71.16 Y35.358 E17.33364
G1 X71.586 Y35.858 E17.34599
G1 X71.948 Y36.406 E17.35835
G1 X72.354 Y37.282 E17.37651
G1 X72.94 Y38.917 E17.40918
G1 X73.05 Y39.089 E17.41302
G1 X73.335 Y39.681 E17.42538
G1 X73.534 Y40.259 E17.43688
G1 X75.323 Y46.604 E17.56088
G1 X75.463 Y47.246 E17.57324
G1 X75.523 Y47.9 E17.5856
G1 X75.504 Y48.556 E17.59794
G1 X75.405 Y49.206 E17.61031
G1 X75.374 Y49.316 E17.61246
G1 X75.408 Y49.344 E17.61329
G1 X75.561 Y49.374 E17.61622
G1 X76.185 Y49.58 E17.62858
G1 X76.779 Y49.86 E17.64094
G1 X77.079 Y50.037 E17.64749
G1 X77.142 Y50.077 E17.64889
G1 X77.675 Y50.462 E17.66126
G1 X78.156 Y50.909 E17.67361
G1 X78.58 Y51.412 E17.68599
G1 X78.939 Y51.961 E17.69833
G1 X79.229 Y52.551 E17.71069
G1 X79.446 Y53.171 E17.72305
G1 X79.585 Y53.813 E17.7354
G1 X79.645 Y54.467 E17.74776
G1 X79.626 Y55.124 E17.76012
G1 X79.527 Y55.774 E17.77249
G1 X79.408 Y56.229 E17.78134
G1 X77.727 Y61.673 E17.88851
G1 X77.645 Y62.164 E17.89788
G1 X77.459 Y62.794 E17.91023
G1 X77.197 Y63.397 E17.9226
G1 X76.865 Y63.963 E17.93494
G1 X76.466 Y64.485 E17.9473
G1 X76.006 Y64.955 E17.95967
G1 X75.404 Y65.427 E17.97406
G1 X67.712 Y70.618 E18.14862
G1 X67.146 Y70.952 E18.16098
G1 X66.544 Y71.214 E18.17333
G1 X65.914 Y71.402 E18.1857
G1 X65.266 Y71.511 E18.19806
G1 X64.61 Y71.541 E18.21041
G1 X63.955 Y71.492 E18.22277
G1 X63.275 Y71.353 E18.23582
G1 X57.106 Y69.677 E18.35607
G1 X50.936 Y71.353 E18.47634
G1 X50.292 Y71.486 E18.48871
G1 X49.638 Y71.541 E18.50105
G1 X48.981 Y71.515 E18.51342
G1 X48.333 Y71.41 E18.52577
G1 X47.702 Y71.227 E18.53813
G1 X47.098 Y70.968 E18.55049
G1 X46.498 Y70.617 E18.56357
G1 X38.808 Y65.425 E18.7381
G1 X38.287 Y65.025 E18.75046
G1 X37.819 Y64.565 E18.7628
G1 X37.409 Y64.051 E18.77517
G1 X37.065 Y63.491 E18.78753
G1 X36.792 Y62.894 E18.79988
G1 X36.593 Y62.268 E18.81224
G1 X36.487 Y61.679 E18.82349
G1 X34.803 Y56.229 E18.93079
G1 X34.647 Y55.591 E18.94315
G1 X34.571 Y54.938 E18.95551
G1 X34.574 Y54.281 E18.96787
G1 X34.656 Y53.63 E18.98022
G1 X34.818 Y52.993 E18.99258
G1 X35.055 Y52.38 E19.00494
G1 X35.365 Y51.801 E19.0173
G1 X35.744 Y51.264 E19.02966
G1 X36.184 Y50.777 E19.04201
G1 X36.681 Y50.346 E19.05438
G1 X37.205 Y49.992 E19.06628
G1 X37.269 Y49.954 E19.06768
G1 X37.853 Y49.653 E19.08003
G1 X38.47 Y49.426 E19.0924
G1 X38.789 Y49.351 E19.09856
G1 X38.807 Y49.332 E19.09906
G1 X38.838 Y49.308 E19.09979
G1 X38.75 Y48.909 E19.10748
G1 X38.687 Y48.255 E19.11984
G1 X38.705 Y47.598 E19.1322
G1 X38.802 Y46.948 E19.14456
G1 X38.887 Y46.604 E19.15123
G1 X40.677 Y40.258 E19.27526
G1 X40.893 Y39.638 E19.28761
G1 X41.183 Y39.048 E19.29998
G1 X41.276 Y38.906 E19.30317
G1 X41.857 Y37.283 E19.3356
G1 X42.115 Y36.68 E19.34793
G1 X42.445 Y36.111 E19.36031
G0 F3600 X42.805 Y36.293
G1 F1800 X43.193 Y35.794 E19.3722
G1 X43.64 Y35.347 E19.38409
G1 X44.14 Y34.961 E19.39597
G1 X44.685 Y34.641 E19.40786
G1 X45.266 Y34.392 E19.41975
G1 X45.874 Y34.218 E19.43164
G1 X46.499 Y34.123 E19.44354
G1 X47.131 Y34.107 E19.45543
G1 X47.161 Y34.11 E19.45599
G1 X47.734 Y33.845 E19.46787
G1 X48.337 Y33.654 E19.47977
G1 X48.959 Y33.54 E19.49166
G1 X49.59 Y33.506 E19.50355
G1 X49.945 Y33.522 E19.51023
G1 X50.069 Y33.532 E19.51257
G1 X50.695 Y33.623 E19.52447
G1 X51.304 Y33.791 E19.53636
G1 X51.849 Y34.02 E19.54748
G1 X52.477 Y34.063 E19.55932
G1 X53.098 Y34.186 E19.57123
G1 X53.697 Y34.385 E19.5831
G1 X54.267 Y34.659 E19.595
G1 X54.798 Y35.003 E19.6069
G1 X55.281 Y35.41 E19.61878
G1 X55.709 Y35.876 E19.63068
G1 X56.074 Y36.391 E19.64255
G1 X56.372 Y36.949 E19.65445
G1 X56.597 Y37.54 E19.66635
G1 X56.745 Y38.154 E19.67823
G1 X56.82 Y38.899 E19.69231
G1 X56.823 Y39.024 E19.69467
G1 X57.243 Y39.009 E19.70257
G1 X57.387 Y39.022 E19.70529
G1 X57.39 Y38.9 E19.70759
G1 X57.445 Y38.27 E19.71948
G1 X57.579 Y37.653 E19.73136
G1 X57.79 Y37.057 E19.74325
G1 X58.075 Y36.492 E19.75516
G1 X58.428 Y35.968 E19.76704
G1 X58.844 Y35.493 E19.77892
G1 X59.318 Y35.073 E19.79083
G1 X59.84 Y34.717 E19.80272
G1 X60.403 Y34.43 E19.8146
G1 X60.998 Y34.216 E19.8265
G1 X61.615 Y34.079 E19.83839
G1 X62.245 Y34.021 E19.85029
G1 X62.352 Y34.025 E19.8523
G1 X62.891 Y33.796 E19.86332
G1 X63.5 Y33.625 E19.87522
G1 X64.223 Y33.525 E19.88894
G1 X64.347 Y33.517 E19.89128
G1 X64.979 Y33.517 E19.90317
G1 X65.606 Y33.596 E19.91506
G1 X66.219 Y33.753 E19.92696
G1 X66.806 Y33.987 E19.93885
G1 X67.035 Y34.113 E19.94376
G1 X67.127 Y34.105 E19.9455
G1 X67.759 Y34.127 E19.9574
G1 X68.383 Y34.228 E19.96929
G1 X68.989 Y34.408 E19.98118
G1 X69.568 Y34.662 E19.99307
G1 X70.11 Y34.988 E20.00497
G1 X70.606 Y35.379 E20.01685
G1 X71.049 Y35.829 E20.02873
G1 X71.432 Y36.333 E20.04064
G1 X71.749 Y36.88 E20.05253
G1 X71.977 Y37.417 E20.0635
G1 X72.577 Y39.093 E20.09699
G1 X72.747 Y39.368 E20.10307
G1 X73.009 Y39.943 E20.11496
G1 X73.149 Y40.367 E20.12335
G1 X74.938 Y46.712 E20.24736
G1 X75.071 Y47.33 E20.25925
G1 X75.125 Y47.96 E20.27115
G1 X75.099 Y48.592 E20.28304
G1 X74.993 Y49.215 E20.29493
G1 X74.919 Y49.458 E20.29971
G1 X75.227 Y49.716 E20.30727
G1 X75.574 Y49.793 E20.31395
G1 X76.169 Y50.007 E20.32585
G1 X76.865 Y50.375 E20.34066
G1 X76.928 Y50.415 E20.34206
G1 X77.439 Y50.787 E20.35395
G1 X77.899 Y51.22 E20.36583
G1 X78.301 Y51.708 E20.37773
G1 X78.638 Y52.243 E20.38962
G1 X78.905 Y52.816 E20.40151
G1 X79.097 Y53.418 E20.4134
G1 X79.212 Y54.04 E20.4253
G1 X79.248 Y54.671 E20.43718
G1 X79.204 Y55.302 E20.44908
G1 X79.025 Y56.111 E20.46467
G1 X77.34 Y61.567 E20.57208
G1 X77.25 Y62.098 E20.58221
G1 X77.066 Y62.703 E20.59411
G1 X76.808 Y63.279 E20.60598
G1 X76.479 Y63.819 E20.61787
G1 X76.084 Y64.313 E20.62977
G1 X75.63 Y64.753 E20.64167
G1 X75.18 Y65.096 E20.65231
G1 X67.488 Y70.287 E20.82687
G1 X66.943 Y70.606 E20.83874
G1 X66.361 Y70.855 E20.85065
G1 X65.753 Y71.028 E20.86254
G1 X65.128 Y71.123 E20.87443
G1 X64.497 Y71.138 E20.88631
G1 X63.868 Y71.074 E20.8982
G1 X63.38 Y70.967 E20.9076
G1 X57.106 Y69.262 E21.0299
G1 X50.831 Y70.967 E21.15221
G1 X50.212 Y71.094 E21.1641
G1 X49.581 Y71.142 E21.176
G1 X48.95 Y71.109 E21.18789
G1 X48.328 Y70.998 E21.19977
G1 X47.725 Y70.809 E21.21166
G1 X47.15 Y70.545 E21.22356
G1 X46.722 Y70.286 E21.23297
G1 X39.032 Y65.094 E21.40751
G1 X38.532 Y64.708 E21.41939
G1 X38.084 Y64.262 E21.43128
G1 X37.696 Y63.762 E21.44318
G1 X37.374 Y63.218 E21.45508
G1 X37.124 Y62.638 E21.46696
G1 X36.948 Y62.031 E21.47884
G1 X36.872 Y61.572 E21.4876
G1 X35.185 Y56.111 E21.59511
G1 X35.037 Y55.496 E21.60701
G1 X34.967 Y54.868 E21.6189
G1 X34.978 Y54.236 E21.63079
G1 X35.068 Y53.61 E21.64268
G1 X35.236 Y53.001 E21.65457
G1 X35.48 Y52.418 E21.66645
G1 X35.796 Y51.87 E21.67835
G1 X36.178 Y51.367 E21.69023
G1 X36.621 Y50.915 E21.70214
G1 X37.117 Y50.523 E21.71403
G1 X37.409 Y50.336 E21.72055
G1 X37.473 Y50.298 E21.72195
G1 X38.036 Y50.01 E21.73385
G1 X38.631 Y49.796 E21.74574
G1 X38.996 Y49.714 E21.75278
G1 X39.164 Y49.551 E21.75718
G1 X39.289 Y49.457 E21.76013
G1 X39.232 Y49.279 E21.76364
G1 X39.119 Y48.657 E21.77553
G1 X39.084 Y48.026 E21.78742
G1 X39.13 Y47.396 E21.7993
G1 X39.272 Y46.713 E21.81243
G1 X41.062 Y40.367 E21.93646
G1 X41.271 Y39.77 E21.94835
G1 X41.555 Y39.205 E21.96025
G1 X41.638 Y39.082 E21.96304
G1 X42.233 Y37.418 E21.99628
G1 X42.484 Y36.838 E22.00817
G1 X42.805 Y36.293 E22.02007
G0 F3600 X43.164 Y36.477
G1 F1800 X43.542 Y36.003 E22.03147
G1 X43.979 Y35.583 E22.04287
G1 X44.468 Y35.224 E22.05428
G1 X45 Y34.933 E22.06569
G1 X45.565 Y34.714 E22.07709
G1 X46.154 Y34.571 E22.08849
G1 X46.757 Y34.507 E22.0999
G1 X47.266 Y34.52 E22.10947
G1 X47.461 Y34.404 E22.11374
G1 X48.018 Y34.166 E22.12514
G1 X48.602 Y34.003 E22.13654
G1 X49.203 Y33.919 E22.14796
G1 X49.913 Y33.921 E22.16131
G1 X50.037 Y33.931 E22.16365
G1 X50.637 Y34.019 E22.17506
G1 X51.22 Y34.186 E22.18647
G1 X51.776 Y34.428 E22.19787
G1 X51.777 Y34.429 E22.1979
G1 X51.969 Y34.422 E22.20151
G1 X52.572 Y34.482 E22.21291
G1 X53.162 Y34.62 E22.22431
G1 X53.729 Y34.835 E22.23572
G1 X54.263 Y35.122 E22.24712
G1 X54.755 Y35.477 E22.25853
G1 X55.195 Y35.893 E22.26992
G1 X55.577 Y36.364 E22.28133
G1 X55.894 Y36.881 E22.29274
G1 X56.14 Y37.436 E22.30416
G1 X56.31 Y38.017 E22.31554
G1 X56.42 Y38.909 E22.33245
G1 X56.433 Y39.467 E22.34295
G1 X56.725 Y39.423 E22.3485
G1 X57.331 Y39.413 E22.35991
G1 X57.777 Y39.464 E22.36835
G1 X57.79 Y38.91 E22.37877
G1 X57.845 Y38.306 E22.39018
G1 X57.978 Y37.714 E22.4016
G1 X58.188 Y37.146 E22.41299
G1 X58.471 Y36.609 E22.4244
G1 X58.822 Y36.115 E22.4358
G1 X59.235 Y35.671 E22.44721
G1 X59.702 Y35.285 E22.45861
G1 X60.217 Y34.964 E22.47002
G1 X60.769 Y34.714 E22.48142
G1 X61.349 Y34.538 E22.49282
G1 X61.947 Y34.44 E22.50422
G1 X62.458 Y34.425 E22.51384
G1 X62.622 Y34.336 E22.51735
G1 X63.188 Y34.12 E22.52874
G1 X63.778 Y33.979 E22.54015
G1 X64.249 Y33.925 E22.54907
G1 X64.373 Y33.917 E22.55141
G1 X64.979 Y33.917 E22.56281
G1 X65.58 Y33.998 E22.57422
G1 X66.165 Y34.157 E22.58562
G1 X66.724 Y34.392 E22.59703
G1 X66.95 Y34.524 E22.60195
G1 X67.238 Y34.503 E22.60738
G1 X67.843 Y34.539 E22.61878
G1 X68.438 Y34.654 E22.63018
G1 X69.013 Y34.846 E22.64158
G1 X69.558 Y35.112 E22.65299
G1 X70.063 Y35.448 E22.6644
G1 X70.519 Y35.847 E22.6758
G1 X70.919 Y36.303 E22.68721
G1 X71.256 Y36.807 E22.69861
G1 X71.601 Y37.552 E22.71406
G1 X72.213 Y39.262 E22.74822
G1 X72.44 Y39.644 E22.75658
G1 X72.764 Y40.476 E22.77337
G1 X74.553 Y46.821 E22.89738
G1 X74.679 Y47.414 E22.90878
G1 X74.726 Y48.018 E22.92018
G1 X74.692 Y48.624 E22.9316
G1 X74.58 Y49.219 E22.94299
G1 X74.453 Y49.603 E22.95059
G1 X74.533 Y49.654 E22.95238
G1 X74.995 Y50.046 E22.96378
G1 X75.021 Y50.075 E22.96451
G1 X75.582 Y50.213 E22.97538
G1 X76.146 Y50.435 E22.98678
G1 X76.651 Y50.713 E22.99762
G1 X76.714 Y50.753 E22.99903
G1 X77.203 Y51.111 E23.01043
G1 X77.641 Y51.53 E23.02183
G1 X78.02 Y52.003 E23.03323
G1 X78.333 Y52.522 E23.04463
G1 X78.576 Y53.078 E23.05604
G1 X78.743 Y53.66 E23.06743
G1 X78.833 Y54.26 E23.07885
G1 X78.842 Y54.866 E23.09025
G1 X78.772 Y55.469 E23.10166
G1 X78.643 Y55.993 E23.11182
G1 X76.952 Y61.471 E23.21966
G1 X76.855 Y62.03 E23.23033
G1 X76.674 Y62.609 E23.24174
G1 X76.419 Y63.159 E23.25314
G1 X76.093 Y63.67 E23.26455
G1 X75.703 Y64.135 E23.27596
G1 X75.256 Y64.544 E23.28736
G1 X74.956 Y64.764 E23.29436
G1 X67.264 Y69.955 E23.46891
G1 X66.74 Y70.26 E23.48032
G1 X66.181 Y70.494 E23.49172
G1 X65.596 Y70.652 E23.50312
G1 X64.995 Y70.732 E23.51452
G1 X64.388 Y70.732 E23.52594
G1 X63.787 Y70.652 E23.53734
G1 X63.485 Y70.581 E23.54318
G1 X57.106 Y68.848 E23.66752
G1 X50.726 Y70.581 E23.79188
G1 X50.132 Y70.701 E23.80328
G1 X49.527 Y70.742 E23.81469
G1 X48.922 Y70.703 E23.82609
G1 X48.327 Y70.585 E23.8375
G1 X47.753 Y70.389 E23.84891
G1 X47.21 Y70.12 E23.86031
G1 X46.946 Y69.954 E23.86618
G1 X39.256 Y64.762 E24.04071
G1 X38.777 Y64.391 E24.05211
G1 X38.351 Y63.959 E24.06352
G1 X37.985 Y63.476 E24.07492
G1 X37.687 Y62.948 E24.08633
G1 X37.46 Y62.386 E24.09773
G1 X37.309 Y61.799 E24.10913
G1 X37.262 Y61.478 E24.11523
G1 X35.567 Y55.993 E24.22322
G1 X35.427 Y55.403 E24.23463
G1 X35.365 Y54.8 E24.24603
G1 X35.383 Y54.194 E24.25743
G1 X35.481 Y53.596 E24.26883
G1 X35.657 Y53.015 E24.28025
G1 X35.907 Y52.463 E24.29165
G1 X36.228 Y51.949 E24.30305
G1 X36.614 Y51.481 E24.31446
G1 X37.058 Y51.068 E24.32587
G1 X37.614 Y50.68 E24.33862
G1 X37.678 Y50.642 E24.34002
G1 X38.218 Y50.367 E24.35142
G1 X38.79 Y50.166 E24.36283
G1 X39.187 Y50.083 E24.37045
G1 X39.52 Y49.775 E24.37899
G1 X39.751 Y49.612 E24.3843
G1 X39.745 Y49.597 E24.38461
G1 X39.582 Y49.013 E24.39601
G1 X39.497 Y48.413 E24.40741
G1 X39.492 Y47.807 E24.41881
G1 X39.566 Y47.205 E24.43022
G1 X39.657 Y46.821 E24.43765
G1 X41.447 Y40.475 E24.56167
G1 X41.649 Y39.904 E24.57307
G1 X41.926 Y39.364 E24.58448
G1 X42.001 Y39.256 E24.58696
G1 X42.61 Y37.553 E24.62098
G1 X42.851 Y36.997 E24.63238
G1 X43.164 Y36.477 E24.64379
G0 F3600 X43.522 Y36.663
G1 F1800 X43.89 Y36.216 E24.65469
G1 X44.317 Y35.824 E24.66559
G1 X44.793 Y35.494 E24.67648
G1 X45.31 Y35.233 E24.68738
G1 X45.858 Y35.045 E24.69828
G1 X46.427 Y34.935 E24.70918
G1 X47.005 Y34.903 E24.72007
G1 X47.349 Y34.932 E24.72656
G1 X47.758 Y34.704 E24.73537
G1 X48.298 Y34.495 E24.74626
G1 X48.862 Y34.362 E24.75716
G1 X49.438 Y34.307 E24.76804
G1 X49.881 Y34.32 E24.77638
G1 X50.005 Y34.33 E24.77872
G1 X50.577 Y34.416 E24.7896
G1 X51.133 Y34.58 E24.80051
G1 X51.661 Y34.819 E24.81141
G1 X51.68 Y34.831 E24.81183
G1 X52.084 Y34.828 E24.81943
G1 X52.659 Y34.904 E24.83034
G1 X53.217 Y35.059 E24.84123
G1 X53.749 Y35.289 E24.85214
G1 X54.244 Y35.589 E24.86302
G1 X54.693 Y35.955 E24.87392
G1 X55.087 Y36.38 E24.88482
G1 X55.42 Y36.854 E24.89572
G1 X55.683 Y37.37 E24.90661
G1 X55.874 Y37.917 E24.91751
G1 X55.987 Y38.485 E24.92841
G1 X56.02 Y38.918 E24.93657
G1 X56.044 Y39.928 E24.95558
G1 X56.134 Y39.928 E24.95727
G1 X56.261 Y39.893 E24.95975
G1 X56.835 Y39.816 E24.97064
G1 X57.415 Y39.818 E24.98155
G1 X57.988 Y39.901 E24.99244
G1 X58.081 Y39.928 E24.99427
G1 X58.166 Y39.928 E24.99586
G1 X58.19 Y38.919 E25.01485
G1 X58.244 Y38.342 E25.02575
G1 X58.376 Y37.778 E25.03665
G1 X58.585 Y37.238 E25.04754
G1 X58.867 Y36.732 E25.05844
G1 X59.215 Y36.269 E25.06933
G1 X59.623 Y35.858 E25.08022
G1 X60.085 Y35.508 E25.09113
G1 X60.59 Y35.224 E25.10203
G1 X61.129 Y35.012 E25.11292
G1 X61.692 Y34.877 E25.12381
G1 X62.269 Y34.821 E25.13472
G1 X62.543 Y34.832 E25.13987
G1 X62.931 Y34.638 E25.14803
G1 X63.48 Y34.452 E25.15894
G1 X64.275 Y34.324 E25.17408
G1 X64.399 Y34.316 E25.17642
G1 X64.978 Y34.318 E25.18731
G1 X65.551 Y34.401 E25.1982
G1 X66.108 Y34.561 E25.20911
G1 X66.637 Y34.797 E25.22
G1 X66.849 Y34.929 E25.2247
G1 X67.344 Y34.904 E25.23402
G1 X67.921 Y34.954 E25.24492
G1 X68.486 Y35.083 E25.25582
G1 X69.027 Y35.288 E25.2667
G1 X69.535 Y35.566 E25.27759
G1 X70 Y35.912 E25.2885
G1 X70.414 Y36.318 E25.2994
G1 X70.767 Y36.777 E25.3103
G1 X71.054 Y37.28 E25.32119
G1 X71.224 Y37.687 E25.32949
G1 X71.841 Y39.408 E25.36388
G1 X71.844 Y39.413 E25.36399
G1 X72.129 Y39.918 E25.37489
G1 X72.379 Y40.584 E25.38828
G1 X74.168 Y46.929 E25.51228
G1 X74.287 Y47.496 E25.52318
G1 X74.326 Y48.074 E25.53408
G1 X74.285 Y48.652 E25.54498
G1 X74.166 Y49.219 E25.55588
G1 X73.969 Y49.764 E25.56678
G1 X73.968 Y49.766 E25.56682
G1 X74.315 Y49.991 E25.5746
G1 X74.753 Y50.37 E25.58549
G1 X74.827 Y50.455 E25.58761
G1 X75.024 Y50.481 E25.59135
G1 X75.582 Y50.635 E25.60224
G1 X76.114 Y50.865 E25.61314
G1 X76.436 Y51.05 E25.62013
G1 X76.499 Y51.09 E25.62153
G1 X76.966 Y51.434 E25.63244
G1 X77.38 Y51.838 E25.64332
G1 X77.736 Y52.296 E25.65423
G1 X78.025 Y52.798 E25.66513
G1 X78.241 Y53.335 E25.67602
G1 X78.382 Y53.897 E25.68692
G1 X78.445 Y54.473 E25.69782
G1 X78.427 Y55.052 E25.70871
G1 X78.261 Y55.875 E25.72451
G1 X76.561 Y61.379 E25.83287
G1 X76.56 Y61.391 E25.83309
G1 X76.46 Y61.961 E25.84398
G1 X76.282 Y62.513 E25.85489
G1 X76.03 Y63.034 E25.86577
G1 X75.709 Y63.516 E25.87667
G1 X75.324 Y63.949 E25.88757
G1 X74.732 Y64.432 E25.90194
G1 X67.04 Y69.623 E26.0765
G1 X66.539 Y69.914 E26.08739
G1 X66.002 Y70.132 E26.0983
G1 X65.441 Y70.274 E26.10918
G1 X64.865 Y70.338 E26.12008
G1 X64.286 Y70.322 E26.13098
G1 X63.59 Y70.195 E26.14429
G1 X57.106 Y68.433 E26.27068
G1 X50.621 Y70.195 E26.39709
G1 X50.053 Y70.308 E26.40798
G1 X49.475 Y70.342 E26.41887
G1 X48.897 Y70.296 E26.42978
G1 X48.332 Y70.17 E26.44067
G1 X47.789 Y69.968 E26.45157
G1 X47.17 Y69.623 E26.4649
G1 X39.48 Y64.431 E26.63943
G1 X39.023 Y64.074 E26.65034
G1 X38.62 Y63.658 E26.66123
G1 X38.278 Y63.191 E26.67212
G1 X38.003 Y62.681 E26.68302
G1 X37.801 Y62.138 E26.69392
G1 X37.655 Y61.409 E26.70791
G1 X37.653 Y61.39 E26.70826
G1 X35.949 Y55.875 E26.81684
G1 X35.817 Y55.311 E26.82774
G1 X35.763 Y54.734 E26.83864
G1 X35.789 Y54.155 E26.84954
G1 X35.895 Y53.586 E26.86043
G1 X36.078 Y53.036 E26.87133
G1 X36.335 Y52.517 E26.88223
G1 X36.661 Y52.038 E26.89313
G1 X37.05 Y51.609 E26.90402
G1 X37.494 Y51.237 E26.91492
G1 X37.818 Y51.024 E26.92221
G1 X37.882 Y50.986 E26.92361
G1 X38.399 Y50.725 E26.9345
G1 X38.947 Y50.538 E26.9454
G1 X39.38 Y50.454 E26.95369
G1 X39.437 Y50.388 E26.95533
G1 X39.873 Y50.006 E26.96624
G1 X40.248 Y49.768 E26.97459
G1 X40.074 Y49.318 E26.98367
G1 X39.94 Y48.754 E26.99457
G1 X39.885 Y48.177 E27.00547
G1 X39.911 Y47.598 E27.01638
G1 X40.042 Y46.93 E27.02918
G1 X41.832 Y40.584 E27.15321
G1 X42.027 Y40.038 E27.16412
G1 X42.296 Y39.525 E27.17501
G1 X42.363 Y39.431 E27.17718
G1 X42.987 Y37.688 E27.21201
G1 X43.219 Y37.157 E27.22291
G1 X43.522 Y36.663 E27.23381
G0 F3600 X43.879 Y36.852
G1 F1800 X44.237 Y36.433 E27.24418
G1 X44.652 Y36.07 E27.25455
G1 X45.114 Y35.771 E27.2649
G1 X45.615 Y35.542 E27.27526
G1 X46.144 Y35.387 E27.28563
G1 X46.69 Y35.311 E27.296
G1 X47.241 Y35.315 E27.30637
G1 X47.446 Y35.346 E27.31027
G1 X47.561 Y35.264 E27.31292
G1 X48.051 Y35.011 E27.3233
G1 X48.572 Y34.832 E27.33366
G1 X49.113 Y34.73 E27.34401
G1 X49.848 Y34.718 E27.35784
G1 X49.972 Y34.728 E27.36018
G1 X50.517 Y34.812 E27.37055
G1 X51.044 Y34.974 E27.38093
G1 X51.541 Y35.21 E27.39128
G1 X51.574 Y35.232 E27.39202
G1 X51.643 Y35.224 E27.39333
G1 X52.194 Y35.238 E27.4037
G1 X52.737 Y35.332 E27.41406
G1 X53.26 Y35.503 E27.42441
G1 X53.754 Y35.748 E27.43478
G1 X54.207 Y36.062 E27.44515
G1 X54.609 Y36.438 E27.45551
G1 X54.953 Y36.869 E27.46588
G1 X55.232 Y37.344 E27.47624
G1 X55.438 Y37.855 E27.48661
G1 X55.568 Y38.39 E27.49696
G1 X55.62 Y38.928 E27.50713
G1 X55.654 Y40.326 E27.53343
G1 X56.191 Y40.328 E27.54354
G1 X56.395 Y40.274 E27.54751
G1 X56.942 Y40.211 E27.55786
G1 X57.493 Y40.227 E27.56823
G1 X58.035 Y40.322 E27.57858
G1 X58.053 Y40.328 E27.57894
G1 X58.557 Y40.326 E27.58842
G1 X58.59 Y38.929 E27.61471
G1 X58.643 Y38.38 E27.62508
G1 X58.775 Y37.845 E27.63545
G1 X58.983 Y37.335 E27.64581
G1 X59.262 Y36.86 E27.65617
G1 X59.607 Y36.43 E27.66654
G1 X60.011 Y36.055 E27.67691
G1 X60.464 Y35.743 E27.68725
G1 X60.958 Y35.499 E27.69762
G1 X61.482 Y35.329 E27.70798
G1 X62.026 Y35.236 E27.71836
G1 X62.577 Y35.224 E27.72873
G1 X62.644 Y35.232 E27.73
G1 X62.733 Y35.175 E27.73199
G1 X63.235 Y34.948 E27.74235
G1 X63.765 Y34.796 E27.75272
G1 X64.3 Y34.723 E27.76288
G1 X64.424 Y34.715 E27.76522
G1 X64.975 Y34.719 E27.77558
G1 X65.52 Y34.803 E27.78595
G1 X66.047 Y34.965 E27.79633
G1 X66.544 Y35.202 E27.80668
G1 X66.759 Y35.345 E27.81154
G1 X66.893 Y35.322 E27.8141
G1 X67.444 Y35.307 E27.82447
G1 X67.991 Y35.372 E27.83483
G1 X68.523 Y35.516 E27.84519
G1 X69.029 Y35.735 E27.85557
G1 X69.498 Y36.024 E27.86593
G1 X69.919 Y36.379 E27.87629
G1 X70.286 Y36.791 E27.88667
G1 X70.588 Y37.251 E27.89702
G1 X70.847 Y37.822 E27.90881
G1 X71.488 Y39.611 E27.94456
G1 X71.554 Y39.701 E27.94666
G1 X71.813 Y40.188 E27.95703
G1 X71.994 Y40.693 E27.96712
G1 X73.783 Y47.038 E28.09113
G1 X73.894 Y47.578 E28.1015
G1 X73.926 Y48.128 E28.11186
G1 X73.877 Y48.677 E28.12223
G1 X73.75 Y49.213 E28.13259
G1 X73.546 Y49.725 E28.14296
G1 X73.432 Y49.922 E28.14724
G1 X73.552 Y49.979 E28.14974
G1 X73.635 Y50.025 E28.15153
G1 X74.096 Y50.327 E28.16189
G1 X74.509 Y50.692 E28.17226
G1 X74.625 Y50.829 E28.17564
G1 X75.049 Y50.896 E28.18371
G1 X75.576 Y51.06 E28.19409
G1 X76.222 Y51.388 E28.20772
G1 X76.285 Y51.428 E28.20913
G1 X76.727 Y51.756 E28.21948
G1 X77.118 Y52.145 E28.22986
G1 X77.448 Y52.586 E28.24022
G1 X77.711 Y53.071 E28.25059
G1 X77.901 Y53.588 E28.26096
G1 X78.014 Y54.127 E28.27131
G1 X78.048 Y54.677 E28.28168
G1 X78.002 Y55.226 E28.29204
G1 X77.879 Y55.757 E28.3023
G1 X76.167 Y61.301 E28.41144
G1 X76.162 Y61.349 E28.41235
G1 X76.065 Y61.891 E28.42271
G1 X75.89 Y62.414 E28.43308
G1 X75.642 Y62.906 E28.44344
G1 X75.325 Y63.356 E28.4538
G1 X74.946 Y63.756 E28.46416
G1 X74.509 Y64.101 E28.47464
G1 X66.817 Y69.292 E28.64919
G1 X66.339 Y69.566 E28.65956
G1 X65.826 Y69.768 E28.66993
G1 X65.29 Y69.895 E28.68029
G1 X64.741 Y69.942 E28.69065
G1 X64.191 Y69.909 E28.70102
G1 X63.695 Y69.809 E28.71054
G1 X57.106 Y68.019 E28.83897
G1 X50.516 Y69.809 E28.96743
G1 X49.975 Y69.915 E28.9778
G1 X49.425 Y69.941 E28.98815
G1 X48.877 Y69.887 E28.99851
G1 X48.342 Y69.755 E29.00888
G1 X47.832 Y69.546 E29.01924
G1 X47.394 Y69.291 E29.02878
G1 X39.704 Y64.099 E29.20331
G1 X39.271 Y63.759 E29.21367
G1 X38.891 Y63.359 E29.22405
G1 X38.574 Y62.909 E29.2344
G1 X38.325 Y62.417 E29.24477
G1 X38.149 Y61.895 E29.25514
G1 X38.053 Y61.366 E29.26525
G1 X38.047 Y61.311 E29.26629
G1 X36.331 Y55.757 E29.37564
G1 X36.207 Y55.22 E29.386
G1 X36.162 Y54.671 E29.39637
G1 X36.197 Y54.121 E29.40673
G1 X36.311 Y53.582 E29.4171
G1 X36.502 Y53.065 E29.42746
G1 X36.765 Y52.581 E29.43783
G1 X37.096 Y52.14 E29.4482
G1 X37.487 Y51.752 E29.45856
G1 X38.022 Y51.368 E29.47095
G1 X38.086 Y51.33 E29.47235
G1 X38.579 Y51.083 E29.48272
G1 X39.102 Y50.911 E29.49308
G1 X39.587 Y50.826 E29.50234
G1 X39.798 Y50.595 E29.50822
G1 X40.224 Y50.245 E29.51859
G1 X40.67 Y49.973 E29.52842
G1 X40.755 Y49.929 E29.53022
G1 X40.774 Y49.921 E29.53061
G1 X40.59 Y49.565 E29.53815
G1 X40.411 Y49.044 E29.54851
G1 X40.309 Y48.502 E29.55888
G1 X40.286 Y47.952 E29.56924
G1 X40.343 Y47.404 E29.5796
G1 X40.427 Y47.038 E29.58667
G1 X42.217 Y40.692 E29.7107
G1 X42.404 Y40.174 E29.72105
G1 X42.665 Y39.689 E29.73141
G1 X42.723 Y39.61 E29.73326
G1 X43.363 Y37.823 E29.76896
G1 X43.586 Y37.319 E29.77933
G1 X43.879 Y36.852 E29.7897
G0 F3600 X44.235 Y37.044
G1 F1800 X44.582 Y36.655 E29.79951
G1 X44.984 Y36.323 E29.80931
G1 X45.432 Y36.056 E29.81912
G1 X45.915 Y35.861 E29.82892
G1 X46.422 Y35.743 E29.83871
G1 X46.942 Y35.703 E29.84852
G1 X47.462 Y35.743 E29.85833
G1 X47.547 Y35.763 E29.85998
G1 X47.867 Y35.548 E29.86723
G1 X48.339 Y35.326 E29.87704
G1 X48.839 Y35.18 E29.88684
G1 X49.355 Y35.111 E29.89663
G1 X49.816 Y35.117 E29.9053
G1 X49.94 Y35.127 E29.90764
G1 X50.455 Y35.209 E29.91745
G1 X50.951 Y35.368 E29.92725
G1 X51.417 Y35.601 E29.93705
G1 X51.481 Y35.647 E29.93853
G1 X51.774 Y35.62 E29.94407
G1 X52.295 Y35.653 E29.95389
G1 X52.804 Y35.765 E29.96369
G1 X53.289 Y35.953 E29.97348
G1 X53.741 Y36.214 E29.9833
G1 X54.147 Y36.54 E29.99309
G1 X54.499 Y36.925 E30.0029
G1 X54.788 Y37.359 E30.01271
G1 X55.007 Y37.832 E30.02252
G1 X55.151 Y38.332 E30.0323
G1 X55.22 Y38.938 E30.04378
G1 X55.263 Y40.725 E30.0774
G1 X56.242 Y40.729 E30.09582
G1 X56.525 Y40.657 E30.10131
G1 X57.044 Y40.608 E30.11111
G1 X57.564 Y40.638 E30.12091
G1 X57.982 Y40.728 E30.12896
G1 X58.948 Y40.725 E30.14713
G1 X58.99 Y38.938 E30.18075
G1 X59.042 Y38.42 E30.19054
G1 X59.173 Y37.915 E30.20036
G1 X59.38 Y37.437 E30.21015
G1 X59.657 Y36.995 E30.21997
G1 X59.998 Y36.602 E30.22975
G1 X60.396 Y36.265 E30.23956
G1 X60.84 Y35.992 E30.24937
G1 X61.321 Y35.791 E30.25917
G1 X61.827 Y35.666 E30.26898
G1 X62.346 Y35.619 E30.27878
G1 X62.738 Y35.645 E30.28617
G1 X63.049 Y35.462 E30.29296
G1 X63.533 Y35.269 E30.30276
G1 X64.041 Y35.153 E30.31256
G1 X64.326 Y35.122 E30.31796
G1 X64.45 Y35.114 E30.32029
G1 X64.971 Y35.12 E30.33009
G1 X65.485 Y35.206 E30.3399
G1 X65.98 Y35.37 E30.34971
G1 X66.444 Y35.607 E30.35951
G1 X66.664 Y35.766 E30.36461
G1 X67.017 Y35.712 E30.37133
G1 X67.539 Y35.714 E30.38115
G1 X68.053 Y35.795 E30.39094
G1 X68.55 Y35.953 E30.40075
G1 X69.016 Y36.186 E30.41055
G1 X69.442 Y36.487 E30.42036
G1 X69.816 Y36.849 E30.43015
G1 X70.13 Y37.265 E30.43995
G1 X70.471 Y37.957 E30.45447
G1 X71.134 Y39.809 E30.49147
G1 X71.259 Y39.986 E30.49554
G1 X71.491 Y40.453 E30.50535
G1 X71.609 Y40.801 E30.51226
G1 X73.398 Y47.146 E30.63627
G1 X73.501 Y47.657 E30.64608
G1 X73.524 Y48.178 E30.65589
G1 X73.468 Y48.696 E30.66569
G1 X73.333 Y49.199 E30.67548
G1 X73.122 Y49.676 E30.68529
G1 X72.845 Y50.109 E30.69496
G1 X73.116 Y50.207 E30.70038
G1 X73.358 Y50.329 E30.70548
G1 X73.441 Y50.375 E30.70727
G1 X73.876 Y50.662 E30.71707
G1 X74.262 Y51.012 E30.72687
G1 X74.424 Y51.212 E30.73171
G1 X74.556 Y51.216 E30.7342
G1 X75.068 Y51.313 E30.744
G1 X75.559 Y51.486 E30.75379
G1 X76.007 Y51.726 E30.76335
G1 X76.07 Y51.766 E30.76476
G1 X76.488 Y52.078 E30.77457
G1 X76.852 Y52.45 E30.78436
G1 X77.156 Y52.874 E30.79417
G1 X77.391 Y53.339 E30.80397
G1 X77.552 Y53.835 E30.81378
G1 X77.636 Y54.349 E30.82358
G1 X77.64 Y54.87 E30.83338
G1 X77.564 Y55.386 E30.84319
G1 X77.497 Y55.639 E30.84811
G1 X75.773 Y61.222 E30.95803
G1 X75.764 Y61.307 E30.95963
G1 X75.67 Y61.82 E30.96944
G1 X75.499 Y62.312 E30.97924
G1 X75.254 Y62.772 E30.98905
G1 X74.942 Y63.189 E30.99884
G1 X74.57 Y63.554 E31.00865
G1 X74.285 Y63.769 E31.01536
G1 X66.593 Y68.96 E31.18992
G1 X66.14 Y69.218 E31.19972
G1 X65.653 Y69.403 E31.20952
G1 X65.143 Y69.512 E31.21933
G1 X64.623 Y69.541 E31.22913
G1 X64.104 Y69.491 E31.23894
G1 X63.799 Y69.423 E31.24482
G1 X57.105 Y67.604 E31.3753
G1 X50.411 Y69.423 E31.50578
G1 X49.9 Y69.521 E31.51557
G1 X49.379 Y69.539 E31.52538
G1 X48.861 Y69.478 E31.53519
G1 X48.359 Y69.338 E31.54499
G1 X47.884 Y69.123 E31.5548
G1 X47.617 Y68.96 E31.56068
G1 X39.927 Y63.768 E31.73522
G1 X39.519 Y63.444 E31.74502
G1 X39.165 Y63.062 E31.75482
G1 X38.874 Y62.629 E31.76463
G1 X38.652 Y62.158 E31.77442
G1 X38.505 Y61.658 E31.78423
G1 X38.45 Y61.322 E31.79063
G1 X38.439 Y61.222 E31.79253
G1 X36.714 Y55.639 E31.90244
G1 X36.598 Y55.13 E31.91226
G1 X36.562 Y54.611 E31.92205
G1 X36.606 Y54.091 E31.93187
G1 X36.728 Y53.585 E31.94166
G1 X36.927 Y53.103 E31.95147
G1 X37.197 Y52.657 E31.96127
G1 X37.531 Y52.258 E31.97106
G1 X37.923 Y51.914 E31.98087
G1 X38.226 Y51.711 E31.98773
G1 X38.29 Y51.673 E31.98913
G1 X38.757 Y51.443 E31.99892
G1 X39.254 Y51.286 E32.00873
G1 X39.769 Y51.207 E32.01853
G1 X39.778 Y51.207 E32.0187
G1 X39.795 Y51.183 E32.01925
G1 X40.157 Y50.808 E32.02906
G1 X40.572 Y50.492 E32.03887
G1 X40.854 Y50.329 E32.04499
G1 X40.939 Y50.285 E32.04679
G1 X41.366 Y50.103 E32.05553
G1 X41.127 Y49.748 E32.06358
G1 X40.905 Y49.276 E32.07339
G1 X40.758 Y48.776 E32.08319
G1 X40.689 Y48.26 E32.09298
G1 X40.7 Y47.739 E32.10279
G1 X40.812 Y47.147 E32.11412
G1 X42.602 Y40.801 E32.23815
G1 X42.781 Y40.312 E32.24794
G1 X43.033 Y39.856 E32.25774
G1 X43.084 Y39.79 E32.25931
G1 X43.74 Y37.957 E32.29594
G1 X43.953 Y37.482 E32.30573
G1 X44.235 Y37.044 E32.31553
G0 F3600 X44.59 Y37.239
G1 F1800 X44.925 Y36.882 E32.32474
G1 X45.313 Y36.583 E32.33395
G1 X45.744 Y36.352 E32.34315
G1 X46.207 Y36.194 E32.35235
G1 X46.69 Y36.114 E32.36156
G1 X47.18 Y36.113 E32.37078
G1 X47.65 Y36.189 E32.37973
G1 X47.753 Y36.098 E32.38232
G1 X48.169 Y35.839 E32.39154
G1 X48.621 Y35.651 E32.40074
G1 X49.097 Y35.539 E32.40994
G1 X49.784 Y35.516 E32.42287
G1 X49.908 Y35.526 E32.42521
G1 X50.391 Y35.605 E32.43442
G1 X50.855 Y35.761 E32.44363
G1 X51.287 Y35.991 E32.45283
G1 X51.373 Y36.056 E32.45486
G1 X51.41 Y36.048 E32.45557
G1 X51.899 Y36.021 E32.46479
G1 X52.386 Y36.074 E32.474
G1 X52.857 Y36.205 E32.4832
G1 X53.301 Y36.411 E32.4924
G1 X53.706 Y36.686 E32.50161
G1 X54.06 Y37.024 E32.51082
G1 X54.355 Y37.414 E32.52002
G1 X54.583 Y37.848 E32.52924
G1 X54.736 Y38.312 E32.53843
G1 X54.82 Y38.947 E32.55048
G1 X54.873 Y41.124 E32.59144
G1 X56.286 Y41.129 E32.61802
G1 X56.652 Y41.042 E32.6251
G1 X57.14 Y41.007 E32.6343
G1 X57.628 Y41.053 E32.64352
G1 X57.915 Y41.128 E32.6491
G1 X59.338 Y41.124 E32.67587
G1 X59.39 Y38.948 E32.71681
G1 X59.441 Y38.461 E32.72602
G1 X59.571 Y37.989 E32.73523
G1 X59.776 Y37.545 E32.74443
G1 X60.051 Y37.139 E32.75365
G1 X60.388 Y36.784 E32.76286
G1 X60.778 Y36.488 E32.77207
G1 X61.211 Y36.26 E32.78128
G1 X61.675 Y36.105 E32.79048
G1 X62.158 Y36.028 E32.79968
G1 X62.648 Y36.03 E32.8089
G1 X62.832 Y36.061 E32.81241
G1 X62.928 Y35.988 E32.81468
G1 X63.36 Y35.759 E32.82387
G1 X63.824 Y35.603 E32.83308
G1 X64.352 Y35.521 E32.84313
G1 X64.476 Y35.513 E32.84547
G1 X64.965 Y35.522 E32.85467
G1 X65.447 Y35.61 E32.86389
G1 X65.908 Y35.775 E32.8731
G1 X66.335 Y36.012 E32.88228
G1 X66.564 Y36.194 E32.88778
G1 X66.651 Y36.168 E32.88949
G1 X67.136 Y36.106 E32.89869
G1 X67.625 Y36.124 E32.90789
G1 X68.105 Y36.222 E32.91711
G1 X68.563 Y36.396 E32.92633
G1 X68.986 Y36.642 E32.93553
G1 X69.363 Y36.954 E32.94474
G1 X69.685 Y37.323 E32.95395
G1 X69.942 Y37.739 E32.96315
G1 X70.094 Y38.091 E32.97036
G1 X70.774 Y39.99 E33.0083
G1 X70.96 Y40.268 E33.01459
G1 X71.224 Y40.91 E33.02765
G1 X73.013 Y47.255 E33.15166
G1 X73.107 Y47.735 E33.16086
G1 X73.122 Y48.225 E33.17008
G1 X73.057 Y48.71 E33.17928
G1 X72.914 Y49.178 E33.18849
G1 X72.696 Y49.616 E33.19769
G1 X72.41 Y50.014 E33.20691
G1 X72.09 Y50.334 E33.21542
G1 X72.185 Y50.341 E33.21722
G1 X72.661 Y50.458 E33.22644
G1 X73.164 Y50.679 E33.23677
G1 X73.247 Y50.725 E33.23856
G1 X73.655 Y50.996 E33.24777
G1 X74.012 Y51.331 E33.25698
G1 X74.222 Y51.603 E33.26344
G1 X74.601 Y51.625 E33.27058
G1 X75.078 Y51.732 E33.27978
G1 X75.532 Y51.916 E33.28899
G1 X75.793 Y52.063 E33.29463
G1 X75.856 Y52.103 E33.29603
G1 X76.246 Y52.399 E33.30524
G1 X76.584 Y52.753 E33.31445
G1 X76.859 Y53.158 E33.32366
G1 X77.064 Y53.602 E33.33286
G1 X77.195 Y54.074 E33.34207
G1 X77.247 Y54.561 E33.35128
G1 X77.219 Y55.05 E33.3605
G1 X77.114 Y55.521 E33.36957
G1 X75.381 Y61.134 E33.48007
G1 X75.367 Y61.265 E33.48255
G1 X75.276 Y61.746 E33.49176
G1 X75.108 Y62.206 E33.50097
G1 X74.868 Y62.632 E33.51017
G1 X74.561 Y63.014 E33.51939
G1 X74.061 Y63.438 E33.53172
G1 X66.369 Y68.629 E33.70628
G1 X65.942 Y68.869 E33.71549
G1 X65.482 Y69.036 E33.7247
G1 X65.001 Y69.126 E33.7339
G1 X64.512 Y69.137 E33.7431
G1 X63.904 Y69.037 E33.75469
G1 X57.106 Y67.19 E33.8872
G1 X50.307 Y69.037 E34.01973
G1 X49.825 Y69.126 E34.02895
G1 X49.336 Y69.136 E34.03815
G1 X48.851 Y69.067 E34.04737
G1 X48.385 Y68.919 E34.05656
G1 X47.841 Y68.628 E34.06817
G1 X40.151 Y63.436 E34.2427
G1 X39.769 Y63.13 E34.25191
G1 X39.442 Y62.766 E34.26112
G1 X39.179 Y62.354 E34.27031
G1 X38.986 Y61.904 E34.27952
G1 X38.848 Y61.278 E34.29158
G1 X38.833 Y61.144 E34.29412
G1 X37.096 Y55.521 E34.40482
G1 X36.99 Y55.043 E34.41403
G1 X36.963 Y54.554 E34.42324
G1 X37.016 Y54.067 E34.43246
G1 X37.148 Y53.596 E34.44166
G1 X37.354 Y53.152 E34.45086
G1 X37.63 Y52.748 E34.46007
G1 X37.968 Y52.394 E34.46927
G1 X38.43 Y52.055 E34.48005
G1 X38.494 Y52.017 E34.48145
G1 X38.934 Y51.803 E34.49066
G1 X39.403 Y51.662 E34.49987
G1 X39.889 Y51.6 E34.50909
G1 X39.988 Y51.604 E34.51095
G1 X40.162 Y51.37 E34.51643
G1 X40.513 Y51.029 E34.52564
G1 X41.038 Y50.684 E34.53746
G1 X41.123 Y50.64 E34.53926
G1 X41.574 Y50.451 E34.54846
G1 X42.051 Y50.338 E34.55768
G1 X42.127 Y50.333 E34.55911
G1 X42.001 Y50.229 E34.56218
G1 X41.677 Y49.861 E34.57141
G1 X41.418 Y49.446 E34.58061
G1 X41.23 Y48.994 E34.58982
G1 X41.118 Y48.518 E34.59901
G1 X41.084 Y48.029 E34.60823
G1 X41.131 Y47.542 E34.61744
G1 X41.197 Y47.256 E34.62296
G1 X42.987 Y40.91 E34.74699
G1 X43.158 Y40.451 E34.7562
G1 X43.401 Y40.026 E34.76541
G1 X43.442 Y39.976 E34.76663
G1 X44.116 Y38.092 E34.80427
G1 X44.318 Y37.646 E34.81348
G1 X44.59 Y37.239 E34.82268
G0 F3600 X44.943 Y37.439
G1 F1800 X45.265 Y37.116 E34.83126
G1 X45.637 Y36.853 E34.83983
G1 X46.05 Y36.66 E34.84841
G1 X46.49 Y36.542 E34.85698
G1 X46.944 Y36.503 E34.86555
G1 X47.398 Y36.543 E34.87412
G1 X47.74 Y36.636 E34.88079
G1 X48.069 Y36.364 E34.88882
G1 X48.465 Y36.14 E34.89738
G1 X48.895 Y35.988 E34.90596
G1 X49.345 Y35.914 E34.91453
G1 X49.752 Y35.914 E34.92219
G1 X49.876 Y35.924 E34.92453
G1 X50.325 Y36.001 E34.9331
G1 X50.754 Y36.154 E34.94167
G1 X51.15 Y36.38 E34.95024
G1 X51.278 Y36.487 E34.95338
G1 X51.559 Y36.433 E34.95876
G1 X52.014 Y36.427 E34.96732
G1 X52.464 Y36.501 E34.9759
G1 X52.894 Y36.652 E34.98448
G1 X53.291 Y36.875 E34.99304
G1 X53.643 Y37.165 E35.00162
G1 X53.939 Y37.511 E35.01018
G1 X54.169 Y37.904 E35.01875
G1 X54.328 Y38.331 E35.02732
G1 X54.42 Y38.957 E35.03922
G1 X54.482 Y41.522 E35.08749
G1 X56.323 Y41.529 E35.12212
G1 X56.33 Y41.526 E35.12226
G1 X56.775 Y41.428 E35.13083
G1 X57.23 Y41.41 E35.1394
G1 X57.682 Y41.472 E35.14798
G1 X57.838 Y41.529 E35.1511
G1 X59.729 Y41.523 E35.18667
G1 X59.79 Y38.957 E35.23496
G1 X59.84 Y38.504 E35.24353
G1 X59.969 Y38.067 E35.2521
G1 X60.173 Y37.66 E35.26066
G1 X60.444 Y37.294 E35.26923
G1 X60.775 Y36.981 E35.2778
G1 X61.156 Y36.73 E35.28638
G1 X61.574 Y36.55 E35.29494
G1 X62.018 Y36.446 E35.30352
G1 X62.473 Y36.42 E35.31209
G1 X62.925 Y36.475 E35.32066
G1 X62.937 Y36.479 E35.3209
G1 X63.251 Y36.26 E35.3281
G1 X63.665 Y36.069 E35.33667
G1 X64.105 Y35.952 E35.34524
G1 X64.378 Y35.92 E35.35041
G1 X64.502 Y35.912 E35.35275
G1 X64.957 Y35.923 E35.36131
G1 X65.404 Y36.013 E35.36988
G1 X65.828 Y36.18 E35.37846
G1 X66.216 Y36.418 E35.38702
G1 X66.465 Y36.639 E35.39328
G1 X66.795 Y36.547 E35.39972
G1 X67.249 Y36.503 E35.4083
G1 X67.703 Y36.539 E35.41687
G1 X68.144 Y36.654 E35.42544
G1 X68.558 Y36.844 E35.43401
G1 X68.932 Y37.104 E35.44258
G1 X69.256 Y37.425 E35.45116
G1 X69.518 Y37.797 E35.45972
G1 X69.718 Y38.226 E35.46862
G1 X70.408 Y40.154 E35.50714
G1 X70.413 Y40.159 E35.50728
G1 X70.655 Y40.546 E35.51586
G1 X70.839 Y41.018 E35.52539
G1 X72.628 Y47.363 E35.6494
G1 X72.713 Y47.811 E35.65797
G1 X72.718 Y48.267 E35.66655
G1 X72.644 Y48.716 E35.67511
G1 X72.492 Y49.146 E35.68369
G1 X72.268 Y49.542 E35.69225
G1 X71.978 Y49.894 E35.70083
G1 X71.631 Y50.189 E35.7094
G1 X71.236 Y50.42 E35.718
G1 X70.83 Y50.612 E35.72645
G1 X70.932 Y50.692 E35.72889
G1 X71.03 Y50.802 E35.73166
G1 X71.338 Y50.73 E35.73761
G1 X71.793 Y50.704 E35.74618
G1 X72.246 Y50.759 E35.75477
G1 X72.682 Y50.891 E35.76334
G1 X72.97 Y51.029 E35.76934
G1 X73.053 Y51.075 E35.77113
G1 X73.431 Y51.33 E35.77971
G1 X73.758 Y51.647 E35.78827
G1 X74.021 Y52.01 E35.7967
G1 X74.185 Y51.996 E35.7998
G1 X74.639 Y52.036 E35.80837
G1 X75.079 Y52.154 E35.81694
G1 X75.579 Y52.401 E35.82743
G1 X75.642 Y52.441 E35.82884
G1 X76.003 Y52.718 E35.8374
G1 X76.311 Y53.054 E35.84597
G1 X76.556 Y53.438 E35.85454
G1 X76.729 Y53.86 E35.86312
G1 X76.827 Y54.305 E35.87169
G1 X76.845 Y54.76 E35.88025
G1 X76.732 Y55.403 E35.89253
G1 X74.987 Y61.055 E36.0038
G1 X74.969 Y61.223 E36.00698
G1 X74.881 Y61.67 E36.01555
G1 X74.718 Y62.095 E36.02411
G1 X74.482 Y62.485 E36.03269
G1 X74.182 Y62.828 E36.04126
G1 X73.837 Y63.106 E36.04959
G1 X66.145 Y68.297 E36.22415
G1 X65.747 Y68.518 E36.23272
G1 X65.316 Y68.666 E36.24129
G1 X64.866 Y68.736 E36.24985
G1 X64.41 Y68.727 E36.25843
G1 X64.009 Y68.651 E36.26611
G1 X57.106 Y66.775 E36.40067
G1 X50.202 Y68.651 E36.53525
G1 X49.753 Y68.732 E36.54383
G1 X49.298 Y68.732 E36.55239
G1 X48.849 Y68.654 E36.56096
G1 X48.421 Y68.498 E36.56953
G1 X48.065 Y68.297 E36.57722
G1 X40.375 Y63.105 E36.75176
G1 X40.021 Y62.818 E36.76033
G1 X39.723 Y62.473 E36.7689
G1 X39.489 Y62.082 E36.77747
G1 X39.328 Y61.656 E36.78604
G1 X39.246 Y61.234 E36.79413
G1 X39.227 Y61.065 E36.79733
G1 X37.478 Y55.403 E36.9088
G1 X37.382 Y54.957 E36.91738
G1 X37.365 Y54.502 E36.92594
G1 X37.429 Y54.051 E36.93451
G1 X37.569 Y53.617 E36.94309
G1 X37.784 Y53.215 E36.95167
G1 X38.065 Y52.857 E36.96023
G1 X38.405 Y52.553 E36.96881
G1 X38.635 Y52.399 E36.97401
G1 X38.699 Y52.361 E36.97541
G1 X39.109 Y52.164 E36.98397
G1 X39.548 Y52.041 E36.99255
G1 X40.002 Y51.997 E37.00113
G1 X40.194 Y52.012 E37.00475
G1 X40.243 Y51.921 E37.00669
G1 X40.526 Y51.564 E37.01526
G1 X40.866 Y51.261 E37.02383
G1 X41.222 Y51.039 E37.03172
G1 X41.307 Y50.995 E37.03352
G1 X41.728 Y50.822 E37.04208
G1 X42.173 Y50.725 E37.05065
G1 X42.629 Y50.707 E37.05923
G1 X43.08 Y50.769 E37.0678
G1 X43.183 Y50.802 E37.06983
G1 X43.313 Y50.661 E37.07344
G1 X43.378 Y50.612 E37.07497
G1 X42.974 Y50.421 E37.08338
G1 X42.581 Y50.191 E37.09194
G1 X42.234 Y49.897 E37.1005
G1 X41.943 Y49.545 E37.10909
G1 X41.719 Y49.149 E37.11765
G1 X41.566 Y48.72 E37.12621
G1 X41.492 Y48.27 E37.13479
G1 X41.497 Y47.815 E37.14335
G1 X41.582 Y47.364 E37.15198
G1 X43.372 Y41.018 E37.27601
G1 X43.533 Y40.592 E37.28458
G1 X43.767 Y40.201 E37.29315
G1 X43.8 Y40.162 E37.29411
G1 X44.493 Y38.227 E37.33278
G1 X44.684 Y37.813 E37.34135
G1 X44.943 Y37.439 E37.34991
G0 F3600 X45.295 Y37.644
G1 F1800 X45.601 Y37.358 E37.35779
G1 X45.956 Y37.136 E37.36566
G1 X46.347 Y36.985 E37.37355
G1 X46.76 Y36.91 E37.38144
G1 X47.179 Y36.916 E37.38933
G1 X47.589 Y37.001 E37.3972
G1 X47.849 Y37.115 E37.40254
G1 X48.047 Y36.893 E37.40814
G1 X48.38 Y36.638 E37.41603
G1 X48.755 Y36.452 E37.4239
G1 X49.159 Y36.34 E37.43179
G1 X49.72 Y36.313 E37.44235
G1 X49.844 Y36.323 E37.44469
G1 X50.256 Y36.396 E37.45256
G1 X50.648 Y36.547 E37.46047
G1 X51.003 Y36.768 E37.46833
G1 X51.173 Y36.926 E37.4727
G1 X51.285 Y36.886 E37.47493
G1 X51.7 Y36.823 E37.48283
G1 X52.118 Y36.84 E37.4907
G1 X52.526 Y36.936 E37.49858
G1 X52.909 Y37.108 E37.50648
G1 X53.252 Y37.349 E37.51437
G1 X53.543 Y37.65 E37.52224
G1 X53.771 Y38.001 E37.53012
G1 X53.929 Y38.39 E37.53801
G1 X54.02 Y38.967 E37.549
G1 X54.092 Y41.935 E37.60485
G1 X54.199 Y41.921 E37.60688
G1 X56.403 Y41.929 E37.64834
G1 X56.481 Y41.898 E37.64991
G1 X56.893 Y41.817 E37.65781
G1 X57.312 Y41.817 E37.66569
G1 X57.723 Y41.895 E37.67356
G1 X57.807 Y41.929 E37.67527
G1 X60.012 Y41.922 E37.71675
G1 X60.12 Y41.932 E37.71879
G1 X60.19 Y38.967 E37.77457
G1 X60.239 Y38.551 E37.78245
G1 X60.367 Y38.152 E37.79034
G1 X60.568 Y37.784 E37.79822
G1 X60.836 Y37.461 E37.80612
G1 X61.159 Y37.195 E37.81399
G1 X61.527 Y36.995 E37.82187
G1 X61.927 Y36.868 E37.82976
G1 X62.343 Y36.819 E37.83764
G1 X62.761 Y36.851 E37.84553
G1 X63.038 Y36.926 E37.85093
G1 X63.213 Y36.764 E37.85541
G1 X63.569 Y36.543 E37.86329
G1 X63.961 Y36.394 E37.87118
G1 X64.403 Y36.32 E37.87961
G1 X64.527 Y36.312 E37.88195
G1 X64.946 Y36.325 E37.88983
G1 X65.355 Y36.417 E37.89772
G1 X65.739 Y36.585 E37.9056
G1 X66.084 Y36.822 E37.91348
G1 X66.366 Y37.108 E37.92103
G1 X66.528 Y37.032 E37.9244
G1 X66.934 Y36.929 E37.93228
G1 X67.353 Y36.905 E37.94017
G1 X67.768 Y36.96 E37.94805
G1 X68.165 Y37.093 E37.95592
G1 X68.53 Y37.3 E37.96382
G1 X68.849 Y37.571 E37.97169
G1 X69.111 Y37.899 E37.97959
G1 X69.341 Y38.361 E37.98929
G1 X70.06 Y40.368 E38.0294
G1 X70.134 Y40.454 E38.03153
G1 X70.342 Y40.818 E38.03942
G1 X70.454 Y41.127 E38.0456
G1 X72.243 Y47.472 E38.16961
G1 X72.318 Y47.884 E38.17748
G1 X72.313 Y48.303 E38.18537
G1 X72.229 Y48.714 E38.19326
G1 X72.069 Y49.101 E38.20113
G1 X71.838 Y49.451 E38.20902
G1 X71.545 Y49.75 E38.2169
G1 X71.065 Y50.059 E38.22763
G1 X69.998 Y50.563 E38.24983
G1 X70.255 Y50.682 E38.25516
G1 X70.596 Y50.927 E38.26306
G1 X70.883 Y51.232 E38.27094
G1 X70.905 Y51.266 E38.2717
G1 X71.052 Y51.204 E38.2747
G1 X71.462 Y51.117 E38.28258
G1 X71.881 Y51.11 E38.29047
G1 X72.294 Y51.182 E38.29835
G1 X72.776 Y51.379 E38.30815
G1 X72.859 Y51.425 E38.30993
G1 X73.205 Y51.662 E38.31782
G1 X73.499 Y51.96 E38.32569
G1 X73.732 Y52.309 E38.33359
G1 X73.781 Y52.438 E38.33618
G1 X73.834 Y52.424 E38.33721
G1 X74.252 Y52.397 E38.34509
G1 X74.668 Y52.45 E38.35298
G1 X75.066 Y52.58 E38.36086
G1 X75.364 Y52.739 E38.36721
G1 X75.427 Y52.779 E38.36862
G1 X75.758 Y53.036 E38.3765
G1 X76.034 Y53.351 E38.38438
G1 X76.245 Y53.713 E38.39226
G1 X76.384 Y54.109 E38.40015
G1 X76.445 Y54.523 E38.40802
G1 X76.427 Y54.942 E38.41591
G1 X76.35 Y55.285 E38.42253
G1 X74.593 Y60.976 E38.53456
G1 X74.571 Y61.181 E38.53844
G1 X74.488 Y61.592 E38.54633
G1 X74.328 Y61.979 E38.55421
G1 X74.098 Y62.33 E38.5621
G1 X73.805 Y62.63 E38.56999
G1 X73.614 Y62.775 E38.5745
G1 X65.922 Y67.966 E38.74905
G1 X65.554 Y68.166 E38.75693
G1 X65.154 Y68.293 E38.76483
G1 X64.738 Y68.341 E38.7727
G1 X64.32 Y68.311 E38.78059
G1 X64.114 Y68.265 E38.78456
G1 X57.106 Y66.361 E38.92116
G1 X50.097 Y68.265 E39.05778
G1 X49.684 Y68.336 E39.06567
G1 X49.265 Y68.327 E39.07355
G1 X48.855 Y68.239 E39.08144
G1 X48.47 Y68.075 E39.08931
G1 X48.289 Y67.965 E39.09329
G1 X40.599 Y62.773 E39.26783
G1 X40.276 Y62.507 E39.2757
G1 X40.009 Y62.184 E39.28358
G1 X39.808 Y61.816 E39.29147
G1 X39.68 Y61.417 E39.29935
G1 X39.643 Y61.191 E39.30366
G1 X39.62 Y60.979 E39.30767
G1 X37.86 Y55.284 E39.4198
G1 X37.775 Y54.874 E39.42767
G1 X37.769 Y54.455 E39.43556
G1 X37.843 Y54.043 E39.44343
G1 X37.994 Y53.652 E39.45131
G1 X38.216 Y53.296 E39.45921
G1 X38.502 Y52.99 E39.46708
G1 X38.839 Y52.743 E39.47494
G1 X38.903 Y52.705 E39.47634
G1 X39.282 Y52.527 E39.48422
G1 X39.688 Y52.423 E39.4921
G1 X40.106 Y52.398 E39.49998
G1 X40.415 Y52.44 E39.50585
G1 X40.616 Y52.085 E39.51352
G1 X40.888 Y51.766 E39.52141
G1 X41.215 Y51.505 E39.52928
G1 X41.406 Y51.394 E39.53343
G1 X41.491 Y51.35 E39.53523
G1 X41.879 Y51.194 E39.5431
G1 X42.291 Y51.114 E39.55099
G1 X42.71 Y51.114 E39.55887
G1 X43.121 Y51.193 E39.56675
G1 X43.306 Y51.269 E39.57051
G1 X43.342 Y51.214 E39.57175
G1 X43.633 Y50.912 E39.57963
G1 X43.976 Y50.671 E39.58752
G1 X44.213 Y50.564 E39.59241
G1 X43.145 Y50.06 E39.61463
G1 X42.785 Y49.845 E39.62251
G1 X42.472 Y49.567 E39.63039
G1 X42.217 Y49.234 E39.63828
G1 X42.03 Y48.859 E39.64616
G1 X41.918 Y48.455 E39.65405
G1 X41.884 Y48.038 E39.66192
G1 X41.967 Y47.473 E39.67266
G1 X43.757 Y41.127 E39.79669
G1 X43.908 Y40.736 E39.80457
G1 X44.131 Y40.381 E39.81246
G1 X44.158 Y40.353 E39.81319
G1 X44.87 Y38.362 E39.85296
G1 X45.048 Y37.982 E39.86086
G1 X45.295 Y37.644 E39.86873
G0 F3600 X45.411 Y38.155
G1 F1800 X45.643 Y37.856 E39.87585
G1 X45.933 Y37.612 E39.88298
G1 X46.268 Y37.434 E39.89012
G1 X46.632 Y37.33 E39.89724
G1 X47.01 Y37.304 E39.90436
G1 X47.385 Y37.359 E39.91149
G1 X47.857 Y37.554 E39.9211
G1 X47.982 Y37.628 E39.92383
G1 X48.113 Y37.413 E39.92857
G1 X48.373 Y37.138 E39.93569
G1 X48.686 Y36.923 E39.94283
G1 X49.036 Y36.779 E39.94995
G1 X49.409 Y36.711 E39.95708
G1 X49.688 Y36.712 E39.96233
G1 X49.812 Y36.722 E39.96467
G1 X50.184 Y36.792 E39.97179
G1 X50.534 Y36.938 E39.97892
G1 X50.845 Y37.155 E39.98606
G1 X51.065 Y37.39 E39.99211
G1 X51.093 Y37.374 E39.99272
G1 X51.454 Y37.258 E39.99985
G1 X51.831 Y37.22 E40.00698
G1 X52.207 Y37.262 E40.0141
G1 X52.567 Y37.382 E40.02123
G1 X52.893 Y37.574 E40.02835
G1 X53.172 Y37.831 E40.03549
G1 X53.391 Y38.14 E40.04261
G1 X53.541 Y38.488 E40.04974
G1 X53.62 Y38.976 E40.05904
G1 X53.703 Y42.398 E40.12343
G1 X53.896 Y42.345 E40.12719
G1 X54.198 Y42.321 E40.13289
G1 X56.48 Y42.33 E40.17582
G1 X56.63 Y42.271 E40.17885
G1 X57.004 Y42.21 E40.18598
G1 X57.382 Y42.228 E40.19309
G1 X57.749 Y42.326 E40.20024
G1 X57.755 Y42.329 E40.20037
G1 X60.014 Y42.322 E40.24286
G1 X60.391 Y42.361 E40.24999
G1 X60.509 Y42.399 E40.25232
G1 X60.59 Y38.976 E40.31673
G1 X60.638 Y38.6 E40.32386
G1 X60.765 Y38.243 E40.33099
G1 X60.963 Y37.92 E40.33811
G1 X61.225 Y37.646 E40.34524
G1 X61.538 Y37.433 E40.35236
G1 X61.889 Y37.29 E40.35949
G1 X62.262 Y37.223 E40.36662
G1 X62.641 Y37.237 E40.37376
G1 X63.008 Y37.329 E40.38087
G1 X63.144 Y37.401 E40.38377
G1 X63.253 Y37.262 E40.38709
G1 X63.544 Y37.019 E40.39422
G1 X63.879 Y36.843 E40.40134
G1 X64.429 Y36.719 E40.41195
G1 X64.553 Y36.711 E40.41428
G1 X64.932 Y36.726 E40.42142
G1 X65.299 Y36.821 E40.42855
G1 X65.638 Y36.99 E40.43567
G1 X65.934 Y37.226 E40.4428
G1 X66.174 Y37.52 E40.44993
G1 X66.233 Y37.625 E40.4522
G1 X66.353 Y37.554 E40.45482
G1 X66.697 Y37.396 E40.46194
G1 X67.067 Y37.314 E40.46907
G1 X67.446 Y37.312 E40.4762
G1 X67.817 Y37.388 E40.48333
G1 X68.164 Y37.541 E40.49046
G1 X68.472 Y37.763 E40.4976
G1 X68.725 Y38.044 E40.50471
G1 X68.965 Y38.496 E40.51434
G1 X69.709 Y40.574 E40.55586
G1 X69.848 Y40.745 E40.56
G1 X70.069 Y41.236 E40.57013
G1 X71.858 Y47.581 E40.69414
G1 X71.922 Y47.954 E40.70126
G1 X71.907 Y48.333 E40.70839
G1 X71.812 Y48.7 E40.71552
G1 X71.643 Y49.039 E40.72265
G1 X71.406 Y49.335 E40.72978
G1 X71.113 Y49.575 E40.73691
G1 X70.894 Y49.697 E40.74162
G1 X68.275 Y50.933 E40.7961
G1 X67.917 Y51.058 E40.80323
G1 X67.541 Y51.105 E40.81036
G1 X67.164 Y51.072 E40.81748
G1 X66.802 Y50.961 E40.8246
G1 X66.47 Y50.777 E40.83174
G1 X66.232 Y50.576 E40.8376
G1 X63.182 Y47.515 E40.91888
G1 X65.106 Y52.759 E41.02395
G1 X66.133 Y53.932 E41.05328
G1 X67.634 Y51.606 E41.10535
G1 X67.872 Y51.311 E41.11248
G1 X68.166 Y51.072 E41.11961
G1 X68.504 Y50.9 E41.12674
G1 X68.87 Y50.803 E41.13387
G1 X69.249 Y50.785 E41.141
G1 X69.623 Y50.846 E41.14813
G1 X69.975 Y50.984 E41.15524
G1 X70.291 Y51.194 E41.16238
G1 X70.557 Y51.464 E41.16951
G1 X70.742 Y51.749 E41.1759
G1 X70.754 Y51.773 E41.17641
G1 X70.856 Y51.718 E41.17859
G1 X71.207 Y51.575 E41.18572
G1 X71.58 Y51.508 E41.19284
G1 X71.958 Y51.52 E41.19996
G1 X72.326 Y51.612 E41.20709
G1 X72.583 Y51.729 E41.2124
G1 X72.666 Y51.775 E41.21419
G1 X72.976 Y51.992 E41.22131
G1 X73.234 Y52.27 E41.22844
G1 X73.428 Y52.595 E41.23556
G1 X73.538 Y52.916 E41.24194
G1 X73.566 Y52.906 E41.2425
G1 X73.934 Y52.814 E41.24964
G1 X74.312 Y52.801 E41.25675
G1 X74.685 Y52.867 E41.26388
G1 X75.15 Y53.076 E41.27347
G1 X75.213 Y53.116 E41.27487
G1 X75.51 Y53.352 E41.28201
G1 X75.75 Y53.645 E41.28913
G1 X75.925 Y53.981 E41.29626
G1 X76.025 Y54.347 E41.3034
G1 X76.046 Y54.725 E41.31052
G1 X75.968 Y55.167 E41.31896
G1 X74.198 Y60.897 E41.43177
G1 X74.173 Y61.139 E41.43635
G1 X74.094 Y61.51 E41.44348
G1 X73.939 Y61.856 E41.45061
G1 X73.715 Y62.162 E41.45775
G1 X73.39 Y62.443 E41.46583
G1 X65.698 Y67.634 E41.64039
G1 X65.363 Y67.812 E41.64752
G1 X64.999 Y67.915 E41.65464
G1 X64.621 Y67.941 E41.66176
G1 X64.219 Y67.879 E41.66942
G1 X57.106 Y65.946 E41.80807
G1 X49.992 Y67.879 E41.94674
G1 X49.618 Y67.939 E41.95386
G1 X49.239 Y67.92 E41.961
G1 X48.873 Y67.822 E41.96813
G1 X48.513 Y67.634 E41.97577
G1 X40.823 Y62.442 E42.1503
G1 X40.533 Y62.198 E42.15743
G1 X40.3 Y61.899 E42.16456
G1 X40.136 Y61.557 E42.1717
G1 X40.041 Y61.147 E42.17961
G1 X40.014 Y60.901 E42.18427
G1 X38.242 Y55.166 E42.29718
G1 X38.169 Y54.795 E42.30429
G1 X38.175 Y54.416 E42.31142
G1 X38.261 Y54.046 E42.31857
G1 X38.422 Y53.703 E42.3257
G1 X38.651 Y53.402 E42.33281
G1 X39.043 Y53.087 E42.34227
G1 X39.107 Y53.049 E42.34367
G1 X39.451 Y52.891 E42.35079
G1 X39.821 Y52.809 E42.35792
G1 X40.2 Y52.805 E42.36505
G1 X40.643 Y52.906 E42.3736
G1 X40.672 Y52.916 E42.37417
G1 X40.789 Y52.58 E42.38087
G1 X40.986 Y52.256 E42.388
G1 X41.246 Y51.981 E42.39512
G1 X41.59 Y51.749 E42.40292
G1 X41.675 Y51.705 E42.40472
G1 X42.028 Y51.568 E42.41185
G1 X42.402 Y51.507 E42.41897
G1 X42.78 Y51.526 E42.42609
G1 X43.146 Y51.623 E42.43322
G1 X43.356 Y51.719 E42.43756
G1 X43.457 Y51.773 E42.43971
G1 X43.469 Y51.75 E42.4402
G1 X43.678 Y51.434 E42.44733
G1 X43.949 Y51.169 E42.45446
G1 X44.27 Y50.967 E42.46159
G1 X44.626 Y50.836 E42.46873
G1 X45.001 Y50.783 E42.47585
G1 X45.379 Y50.81 E42.48298
G1 X45.743 Y50.915 E42.49011
G1 X46.077 Y51.093 E42.49723
G1 X46.366 Y51.338 E42.50435
G1 X46.577 Y51.606 E42.51077
G1 X48.079 Y53.932 E42.56285
G1 X49.101 Y52.764 E42.59204
G1 X51.028 Y47.513 E42.69726
G1 X47.978 Y50.576 E42.77857
G1 X47.684 Y50.815 E42.7857
G1 X47.347 Y50.987 E42.79281
G1 X46.98 Y51.084 E42.79995
G1 X46.602 Y51.103 E42.80707
G1 X46.228 Y51.042 E42.8142
G1 X45.935 Y50.934 E42.82008
G1 X43.316 Y49.698 E42.87455
G1 X42.992 Y49.501 E42.88168
G1 X42.717 Y49.241 E42.8888
G1 X42.502 Y48.928 E42.89595
G1 X42.357 Y48.578 E42.90307
G1 X42.289 Y48.205 E42.9102
G1 X42.301 Y47.827 E42.91732
G1 X42.352 Y47.581 E42.92204
G1 X44.142 Y41.235 E43.04607
G1 X44.282 Y40.883 E43.0532
G1 X44.494 Y40.569 E43.06033
G1 X44.509 Y40.556 E43.0607
G1 X45.246 Y38.496 E43.10185
G1 X45.411 Y38.155 E43.10898
G0 F3600 X45.772 Y38.332
G1 F1800 X45.988 Y38.077 E43.11527
G1 X46.258 Y37.881 E43.12154
G1 X46.567 Y37.754 E43.12783
G1 X46.897 Y37.704 E43.13411
G1 X47.23 Y37.733 E43.14039
G1 X47.654 Y37.898 E43.14895
G1 X48.145 Y38.188 E43.15968
G1 X48.277 Y37.908 E43.1655
G1 X48.455 Y37.625 E43.17179
G1 X48.695 Y37.392 E43.17808
G1 X48.983 Y37.223 E43.18436
G1 X49.303 Y37.127 E43.19065
G1 X49.656 Y37.111 E43.19729
G1 X49.78 Y37.121 E43.19963
G1 X50.107 Y37.187 E43.20591
G1 X50.409 Y37.329 E43.21219
G1 X50.669 Y37.539 E43.21847
G1 X50.872 Y37.804 E43.22475
G1 X50.934 Y37.934 E43.22746
G1 X50.999 Y37.887 E43.22897
G1 X51.291 Y37.724 E43.23526
G1 X51.613 Y37.636 E43.24154
G1 X51.947 Y37.626 E43.24783
G1 X52.274 Y37.695 E43.25411
G1 X52.575 Y37.84 E43.2604
G1 X52.833 Y38.052 E43.26668
G1 X53.033 Y38.32 E43.27297
G1 X53.165 Y38.627 E43.27926
G1 X53.221 Y38.986 E43.28609
G1 X53.319 Y43.036 E43.36229
G1 X53.518 Y42.893 E43.3669
G1 X53.828 Y42.769 E43.37318
G1 X54.196 Y42.721 E43.38017
G1 X56.552 Y42.73 E43.42448
G1 X56.774 Y42.647 E43.42894
G1 X57.106 Y42.607 E43.43523
G1 X57.437 Y42.647 E43.4415
G1 X57.659 Y42.729 E43.44596
G1 X60.015 Y42.722 E43.49027
G1 X60.347 Y42.761 E43.49656
G1 X60.66 Y42.877 E43.50284
G1 X60.893 Y43.035 E43.50814
G1 X60.989 Y38.986 E43.58432
G1 X61.037 Y38.655 E43.59061
G1 X61.162 Y38.345 E43.5969
G1 X61.356 Y38.074 E43.60317
G1 X61.61 Y37.856 E43.60947
G1 X61.908 Y37.704 E43.61576
G1 X62.233 Y37.628 E43.62204
G1 X62.567 Y37.63 E43.62832
G1 X62.891 Y37.712 E43.63461
G1 X63.211 Y37.886 E43.64146
G1 X63.28 Y37.936 E43.64306
G1 X63.38 Y37.739 E43.64722
G1 X63.597 Y37.485 E43.6535
G1 X63.867 Y37.29 E43.65977
G1 X64.177 Y37.164 E43.66606
G1 X64.455 Y37.118 E43.67136
G1 X64.579 Y37.11 E43.6737
G1 X64.912 Y37.128 E43.67997
G1 X65.232 Y37.225 E43.68626
G1 X65.52 Y37.395 E43.69255
G1 X65.759 Y37.628 E43.69883
G1 X65.934 Y37.908 E43.70504
G1 X66.067 Y38.188 E43.71087
G1 X66.557 Y37.898 E43.72158
G1 X66.862 Y37.764 E43.72785
G1 X67.191 Y37.705 E43.73414
G1 X67.525 Y37.726 E43.74043
G1 X67.844 Y37.826 E43.74672
G1 X68.13 Y37.998 E43.753
G1 X68.367 Y38.233 E43.75928
G1 X68.588 Y38.631 E43.76784
G1 X69.35 Y40.759 E43.81036
G1 X69.354 Y40.762 E43.81045
G1 X69.553 Y41.03 E43.81673
G1 X69.684 Y41.344 E43.82313
G1 X71.473 Y47.689 E43.94714
G1 X71.525 Y48.019 E43.95342
G1 X71.497 Y48.352 E43.95971
G1 X71.391 Y48.669 E43.96599
G1 X71.213 Y48.951 E43.97227
G1 X70.973 Y49.184 E43.97856
G1 X70.724 Y49.335 E43.98404
G1 X68.105 Y50.571 E44.03851
G1 X67.788 Y50.677 E44.0448
G1 X67.455 Y50.704 E44.05109
G1 X67.125 Y50.652 E44.05737
G1 X66.816 Y50.523 E44.06367
G1 X66.515 Y50.293 E44.07079
G1 X62.177 Y45.939 E44.18641
G1 X64.754 Y52.961 E44.32711
G1 X64.755 Y52.964 E44.32717
G1 X66.181 Y54.594 E44.36791
G1 X67.97 Y51.823 E44.42995
G1 X68.183 Y51.566 E44.43623
G1 X68.451 Y51.366 E44.44252
G1 X68.759 Y51.237 E44.4488
G1 X69.089 Y51.183 E44.45509
G1 X69.422 Y51.209 E44.46137
G1 X69.739 Y51.314 E44.46765
G1 X70.023 Y51.491 E44.47395
G1 X70.256 Y51.729 E44.48021
G1 X70.387 Y51.934 E44.48479
G1 X70.588 Y52.318 E44.49294
G1 X71.046 Y52.071 E44.50273
G1 X71.357 Y51.948 E44.50902
G1 X71.688 Y51.903 E44.51531
G1 X72.02 Y51.938 E44.52159
G1 X72.389 Y52.078 E44.52901
G1 X72.472 Y52.124 E44.5308
G1 X72.742 Y52.32 E44.53707
G1 X72.959 Y52.574 E44.54336
G1 X73.156 Y53.029 E44.55268
G1 X73.254 Y53.446 E44.56074
G1 X73.704 Y53.281 E44.56976
G1 X74.029 Y53.205 E44.57603
G1 X74.363 Y53.207 E44.58232
G1 X74.687 Y53.289 E44.5886
G1 X74.935 Y53.414 E44.59383
G1 X74.998 Y53.454 E44.59523
G1 X75.257 Y53.666 E44.60153
G1 X75.458 Y53.932 E44.6078
G1 X75.591 Y54.239 E44.61409
G1 X75.646 Y54.568 E44.62037
G1 X75.586 Y55.049 E44.62948
G1 X73.804 Y60.818 E44.74306
G1 X73.775 Y61.098 E44.74836
G1 X73.701 Y61.423 E44.75463
G1 X73.552 Y61.722 E44.76091
G1 X73.336 Y61.977 E44.7672
G1 X73.166 Y62.111 E44.77127
G1 X65.474 Y67.302 E44.94583
G1 X65.177 Y67.455 E44.95211
G1 X64.852 Y67.533 E44.9584
G1 X64.518 Y67.531 E44.96468
G1 X64.324 Y67.493 E44.9684
G1 X57.106 Y65.532 E45.1091
G1 X49.887 Y67.493 E45.24981
G1 X49.557 Y67.542 E45.25608
G1 X49.224 Y67.51 E45.26238
G1 X48.908 Y67.401 E45.26867
G1 X48.737 Y67.302 E45.27238
G1 X41.047 Y62.11 E45.44692
G1 X40.794 Y61.892 E45.4532
G1 X40.6 Y61.619 E45.4595
G1 X40.477 Y61.309 E45.46577
G1 X40.438 Y61.103 E45.46972
G1 X40.407 Y60.817 E45.47513
G1 X38.624 Y55.048 E45.58871
G1 X38.565 Y54.72 E45.59498
G1 X38.584 Y54.386 E45.60127
G1 X38.682 Y54.067 E45.60755
G1 X38.854 Y53.78 E45.61384
G1 X39.088 Y53.542 E45.62012
G1 X39.247 Y53.431 E45.62377
G1 X39.311 Y53.393 E45.62517
G1 X39.617 Y53.258 E45.63146
G1 X39.946 Y53.199 E45.63775
G1 X40.279 Y53.22 E45.64403
G1 X40.506 Y53.282 E45.64845
G1 X40.956 Y53.446 E45.65746
G1 X41.054 Y53.029 E45.66552
G1 X41.168 Y52.715 E45.6718
G1 X41.354 Y52.437 E45.6781
G1 X41.6 Y52.211 E45.68438
G1 X41.773 Y52.105 E45.6882
G1 X41.858 Y52.061 E45.69
G1 X42.171 Y51.944 E45.69628
G1 X42.503 Y51.904 E45.70257
G1 X42.835 Y51.944 E45.70886
G1 X43.166 Y52.072 E45.71554
G1 X43.624 Y52.319 E45.72533
G1 X43.824 Y51.935 E45.73347
G1 X44.012 Y51.659 E45.73975
G1 X44.261 Y51.436 E45.74604
G1 X44.555 Y51.278 E45.75232
G1 X44.879 Y51.194 E45.75861
G1 X45.213 Y51.19 E45.7649
G1 X45.538 Y51.264 E45.77117
G1 X45.837 Y51.414 E45.77746
G1 X46.092 Y51.63 E45.78375
G1 X46.241 Y51.823 E45.78833
G1 X48.03 Y54.594 E45.85038
G1 X49.453 Y52.97 E45.89099
G1 X49.456 Y52.959 E45.89121
G1 X52.033 Y45.938 E46.03189
G1 X47.695 Y50.294 E46.14753
G1 X47.433 Y50.501 E46.15381
G1 X47.129 Y50.64 E46.1601
G1 X46.801 Y50.703 E46.16638
G1 X46.467 Y50.686 E46.17267
G1 X46.105 Y50.572 E46.17981
G1 X43.486 Y49.336 E46.23429
G1 X43.204 Y49.158 E46.24056
G1 X42.971 Y48.919 E46.24684
G1 X42.801 Y48.631 E46.25313
G1 X42.705 Y48.311 E46.25941
G1 X42.687 Y47.978 E46.26569
G1 X42.737 Y47.69 E46.27119
G1 X44.527 Y41.344 E46.39521
G1 X44.655 Y41.036 E46.40149
G1 X44.853 Y40.766 E46.40779
G1 X44.861 Y40.759 E46.40799
G1 X45.623 Y38.631 E46.4505
G1 X45.772 Y38.332 E46.45679
G0 F3600 X46.131 Y38.516
G1 F1800 X46.327 Y38.314 E46.46208
G1 X46.572 Y38.174 E46.46739
G1 X46.846 Y38.107 E46.4727
G1 X47.128 Y38.121 E46.47801
G1 X47.45 Y38.242 E46.48448
G1 X48.319 Y38.756 E46.50347
G1 X48.639 Y38.079 E46.51756
G1 X48.794 Y37.843 E46.52287
G1 X49.009 Y37.66 E46.52818
G1 X49.267 Y37.545 E46.53349
G1 X49.623 Y37.509 E46.54022
G1 X49.747 Y37.519 E46.54256
G1 X50.023 Y37.581 E46.54788
G1 X50.269 Y37.718 E46.55318
G1 X50.468 Y37.918 E46.55849
G1 X50.607 Y38.175 E46.56398
G1 X50.748 Y38.563 E46.57175
G1 X51.234 Y38.21 E46.58305
G1 X51.483 Y38.079 E46.58834
G1 X51.76 Y38.022 E46.59366
G1 X52.041 Y38.044 E46.59896
G1 X52.305 Y38.145 E46.60428
G1 X52.53 Y38.315 E46.60958
G1 X52.699 Y38.541 E46.61489
G1 X52.798 Y38.805 E46.6202
G1 X52.821 Y38.996 E46.62381
G1 X52.932 Y43.582 E46.7101
G1 X52.967 Y43.704 E46.71249
G1 X53.006 Y43.983 E46.71779
G1 X52.966 Y44.262 E46.72309
G1 X52.849 Y44.519 E46.72841
G1 X52.715 Y44.687 E46.73245
G1 X47.412 Y50.012 E46.87381
G1 X47.186 Y50.181 E46.87912
G1 X46.923 Y50.282 E46.88442
G1 X46.641 Y50.304 E46.88974
G1 X46.276 Y50.21 E46.89683
G1 X43.657 Y48.974 E46.95131
G1 X43.422 Y48.819 E46.9566
G1 X43.239 Y48.604 E46.96191
G1 X43.123 Y48.347 E46.96722
G1 X43.084 Y48.068 E46.97251
G1 X43.122 Y47.799 E46.97763
G1 X44.912 Y41.453 E47.10165
G1 X45.026 Y41.195 E47.10696
G1 X45.207 Y40.979 E47.11226
G1 X45.999 Y38.766 E47.15647
G1 X46.131 Y38.516 E47.16179
G0 F3600 X46.486 Y38.712
G1 F1800 X46.656 Y38.575 E47.1659
G1 X46.863 Y38.508 E47.16999
G1 X47.081 Y38.52 E47.1741
G1 X47.246 Y38.587 E47.17745
G1 X48.493 Y39.325 E47.20471
G1 X49.001 Y38.25 E47.22707
G1 X49.128 Y38.073 E47.23117
G1 X49.311 Y37.953 E47.23529
G1 X49.591 Y37.908 E47.24062
G1 X49.715 Y37.918 E47.24296
G1 X49.926 Y37.975 E47.24707
G1 X50.102 Y38.103 E47.25117
G1 X50.231 Y38.312 E47.25579
G1 X50.552 Y39.199 E47.27353
G1 X51.469 Y38.534 E47.29484
G1 X51.666 Y38.44 E47.29894
G1 X51.883 Y38.423 E47.30304
G1 X52.092 Y38.485 E47.30714
G1 X52.266 Y38.617 E47.31125
G1 X52.38 Y38.803 E47.31535
G1 X52.421 Y39.005 E47.31923
G1 X52.533 Y43.646 E47.40655
G1 X52.582 Y43.815 E47.40986
G1 X52.604 Y44.032 E47.41396
G1 X52.546 Y44.242 E47.41806
G1 X52.431 Y44.404 E47.4218
G1 X47.128 Y49.729 E47.56316
G1 X46.949 Y49.853 E47.56726
G1 X46.737 Y49.905 E47.57137
G1 X46.447 Y49.849 E47.57692
G1 X43.828 Y48.613 E47.6314
G1 X43.651 Y48.485 E47.63551
G1 X43.531 Y48.303 E47.63961
G1 X43.484 Y48.09 E47.64371
G1 X43.507 Y47.907 E47.64718
G1 X45.297 Y41.561 E47.77121
G1 X45.393 Y41.365 E47.77531
G1 X45.545 Y41.223 E47.77923
G1 X46.376 Y38.901 E47.82562
G1 X46.486 Y38.712 E47.82973
G0 F3600 X46.753 Y39.036
G1 F1800 X46.829 Y38.937 E47.83208
G1 X46.95 Y38.903 E47.83444
G1 X47.043 Y38.931 E47.83627
G1 X48.667 Y39.892 E47.87177
G1 X49.362 Y38.421 E47.90237
G1 X49.448 Y38.33 E47.90473
G1 X49.559 Y38.307 E47.90686
G1 X49.683 Y38.317 E47.9092
G1 X49.798 Y38.365 E47.91154
G1 X49.855 Y38.448 E47.91344
G1 X50.358 Y39.834 E47.94117
G1 X51.704 Y38.858 E47.97245
G1 X51.823 Y38.82 E47.9748
G1 X51.941 Y38.86 E47.97714
G1 X52.021 Y39.015 E47.98042
G1 X52.134 Y43.706 E48.06869
G1 X52.198 Y43.926 E48.073
G1 X52.194 Y44.05 E48.07533
G1 X52.148 Y44.122 E48.07694
G1 X46.845 Y49.447 E48.2183
G1 X46.733 Y49.504 E48.22067
G1 X46.618 Y49.487 E48.22285
G1 X43.999 Y48.251 E48.27733
G1 X43.908 Y48.165 E48.27968
G1 X43.892 Y48.016 E48.2825
G1 X45.682 Y41.67 E48.40653
G1 X45.765 Y41.556 E48.40918
G1 X45.877 Y41.483 E48.4117
G1 X46.753 Y39.036 E48.46059
G1 F1500 E41.96059
G0 F3600 X46.315 Y38.881
G0 X46.595 Y38.144
G0 X49.142 Y37.815
G0 X50.143 Y37.894
G0 X52.461 Y38.417
G0 X53.386 Y43.528
G1 F1500 E48.46059
G1 F1800 X53.584 Y43.327 E48.4659
G1 X53.83 Y43.189 E48.4712
G1 X54.195 Y43.121 E48.47819
G1 X56.624 Y43.13 E48.52388
G1 X56.645 Y43.119 E48.52432
G1 X56.912 Y43.026 E48.52964
G1 X57.193 Y43.011 E48.53493
G1 X57.562 Y43.117 E48.54216
G1 X57.586 Y43.129 E48.54266
G1 X60.016 Y43.122 E48.58837
G1 X60.295 Y43.161 E48.59367
G1 X60.553 Y43.276 E48.59898
G1 X60.768 Y43.459 E48.60429
G1 X60.958 Y43.777 E48.61126
G1 X64.379 Y53.098 E48.79803
G1 X64.387 Y53.151 E48.79904
G1 X66.23 Y55.256 E48.85167
G1 X68.306 Y52.04 E48.92367
G1 X68.491 Y51.827 E48.92898
G1 X68.728 Y51.674 E48.93429
G1 X68.998 Y51.593 E48.93959
G1 X69.28 Y51.591 E48.94489
G1 X69.552 Y51.668 E48.95021
G1 X69.791 Y51.818 E48.95552
G1 X70.032 Y52.119 E48.96277
G1 X70.42 Y52.863 E48.97855
G1 X71.236 Y52.423 E48.99599
G1 X71.5 Y52.325 E49.00129
G1 X71.782 Y52.306 E49.00661
G1 X72.058 Y52.365 E49.01192
G1 X72.195 Y52.428 E49.01475
G1 X72.278 Y52.474 E49.01654
G1 X72.503 Y52.645 E49.02185
G1 X72.671 Y52.871 E49.02715
G1 X72.766 Y53.12 E49.03216
G1 X72.967 Y53.977 E49.04872
G1 X73.841 Y53.657 E49.06623
G1 X74.117 Y53.598 E49.07154
G1 X74.398 Y53.619 E49.07684
G1 X74.721 Y53.752 E49.08341
G1 X74.784 Y53.792 E49.08481
G1 X74.998 Y53.975 E49.09011
G1 X75.153 Y54.211 E49.09542
G1 X75.236 Y54.481 E49.10074
G1 X75.24 Y54.763 E49.10604
G1 X75.203 Y54.931 E49.10928
G1 X73.412 Y60.73 E49.22344
G1 X73.378 Y61.056 E49.22961
G1 X73.309 Y61.329 E49.2349
G1 X73.166 Y61.573 E49.24022
G1 X72.942 Y61.78 E49.24596
G1 X65.25 Y66.971 E49.42052
G1 X64.997 Y67.094 E49.42581
G1 X64.718 Y67.142 E49.43114
G1 X64.429 Y67.107 E49.43661
G1 X57.106 Y65.117 E49.57936
G1 X49.782 Y67.107 E49.72212
G1 X49.502 Y67.142 E49.72743
G1 X49.224 Y67.097 E49.73273
G1 X48.96 Y66.971 E49.73823
G1 X41.27 Y61.779 E49.91276
G1 X41.061 Y61.59 E49.91806
G1 X40.913 Y61.349 E49.92338
G1 X40.836 Y61.059 E49.92903
G1 X40.8 Y60.734 E49.93518
G1 X39.007 Y54.93 E50.04945
G1 X38.962 Y54.652 E50.05474
G1 X38.997 Y54.372 E50.06005
G1 X39.109 Y54.113 E50.06536
G1 X39.289 Y53.895 E50.07068
G1 X39.451 Y53.775 E50.07447
G1 X39.515 Y53.737 E50.07587
G1 X39.776 Y53.629 E50.08118
G1 X40.056 Y53.597 E50.08649
G1 X40.369 Y53.658 E50.09248
G1 X41.242 Y53.977 E50.10997
G1 X41.443 Y53.12 E50.12653
G1 X41.546 Y52.857 E50.13184
G1 X41.717 Y52.633 E50.13714
G1 X41.957 Y52.46 E50.1427
G1 X42.042 Y52.416 E50.14451
G1 X42.309 Y52.323 E50.14982
G1 X42.59 Y52.308 E50.15512
G1 X42.976 Y52.424 E50.1627
G1 X43.791 Y52.863 E50.18011
G1 X44.178 Y52.12 E50.19587
G1 X44.343 Y51.89 E50.20119
G1 X44.565 Y51.716 E50.2065
G1 X44.826 Y51.611 E50.21179
G1 X45.107 Y51.583 E50.2171
G1 X45.384 Y51.634 E50.2224
G1 X45.636 Y51.761 E50.22771
G1 X45.905 Y52.04 E50.235
G1 X47.982 Y55.257 E50.30703
G1 X49.823 Y53.154 E50.35961
G1 X49.831 Y53.096 E50.36071
G1 X53.252 Y43.776 E50.54746
G1 X53.386 Y43.528 E50.55276
G0 F3600 X53.739 Y43.727
G1 F1800 X53.91 Y43.591 E50.55687
G1 X54.193 Y43.521 E50.56235
G1 X56.721 Y43.53 E50.60991
G1 X56.83 Y43.474 E50.61221
G1 X57.038 Y43.411 E50.6163
G1 X57.256 Y43.426 E50.62041
G1 X57.38 Y43.473 E50.62291
G1 X57.49 Y43.53 E50.62524
G1 X60.017 Y43.522 E50.67277
G1 X60.232 Y43.561 E50.67688
G1 X60.418 Y43.674 E50.68098
G1 X60.582 Y43.915 E50.68646
G1 X64.003 Y53.236 E50.87323
G1 X64.018 Y53.337 E50.87515
G1 X66.278 Y55.919 E50.93969
G1 X68.642 Y52.257 E51.02169
G1 X68.792 Y52.098 E51.0258
G1 X68.988 Y52.003 E51.02989
G1 X69.206 Y51.985 E51.03401
G1 X69.415 Y52.046 E51.0381
G1 X69.589 Y52.177 E51.0422
G1 X69.678 Y52.304 E51.04512
G1 X70.254 Y53.406 E51.06851
G1 X71.425 Y52.775 E51.09353
G1 X71.633 Y52.708 E51.09764
G1 X71.851 Y52.72 E51.10175
G1 X72.001 Y52.778 E51.10477
G1 X72.084 Y52.824 E51.10656
G1 X72.252 Y52.963 E51.11066
G1 X72.377 Y53.212 E51.1159
G1 X72.682 Y54.508 E51.14094
G1 X73.979 Y54.033 E51.16693
G1 X74.194 Y53.996 E51.17103
G1 X74.408 Y54.039 E51.17514
G1 X74.507 Y54.089 E51.17722
G1 X74.57 Y54.129 E51.17863
G1 X74.729 Y54.278 E51.18273
G1 X74.826 Y54.474 E51.18684
G1 X74.845 Y54.691 E51.19094
G1 X74.821 Y54.813 E51.19328
G1 X73.018 Y60.651 E51.30821
G1 X72.98 Y61.014 E51.31508
G1 X72.918 Y61.223 E51.31918
G1 X72.719 Y61.448 E51.32483
G1 X65.027 Y66.639 E51.49938
G1 X64.827 Y66.726 E51.50349
G1 X64.534 Y66.721 E51.509
G1 X57.106 Y64.703 E51.65379
G1 X49.677 Y66.721 E51.79859
G1 X49.46 Y66.739 E51.80269
G1 X49.184 Y66.639 E51.80821
G1 X41.494 Y61.447 E51.98275
G1 X41.339 Y61.294 E51.98685
G1 X41.234 Y61.016 E51.99244
G1 X41.194 Y60.655 E51.99927
G1 X39.389 Y54.812 E52.1143
G1 X39.363 Y54.595 E52.11841
G1 X39.417 Y54.384 E52.12251
G1 X39.543 Y54.206 E52.12661
G1 X39.656 Y54.119 E52.1293
G1 X39.72 Y54.081 E52.1307
G1 X39.924 Y54.006 E52.13478
G1 X40.232 Y54.033 E52.1406
G1 X41.53 Y54.507 E52.16659
G1 X41.833 Y53.211 E52.19163
G1 X41.92 Y53.011 E52.19573
G1 X42.141 Y52.815 E52.20129
G1 X42.226 Y52.771 E52.20309
G1 X42.435 Y52.708 E52.20719
G1 X42.653 Y52.723 E52.21131
G1 X42.787 Y52.776 E52.21402
G1 X43.958 Y53.407 E52.23904
G1 X44.533 Y52.305 E52.26242
G1 X44.667 Y52.133 E52.26652
G1 X44.854 Y52.02 E52.27063
G1 X45.069 Y51.982 E52.27474
G1 X45.283 Y52.023 E52.27884
G1 X45.469 Y52.138 E52.28295
G1 X45.569 Y52.257 E52.28587
G1 X47.934 Y55.919 E52.36787
G1 X50.192 Y53.34 E52.43235
G1 X50.207 Y53.234 E52.43437
G1 X53.628 Y43.914 E52.62112
G1 X53.739 Y43.727 E52.62521
G0 F3600 X54.003 Y44.052
G1 F1800 X54.081 Y43.954 E52.62756
G1 X54.192 Y43.921 E52.62974
G1 X56.818 Y43.931 E52.67914
G1 X57.014 Y43.829 E52.6833
G1 X57.197 Y43.829 E52.68674
G1 X57.394 Y43.93 E52.6909
G1 X60.018 Y43.922 E52.74026
G1 X60.137 Y43.961 E52.74262
G1 X60.207 Y44.053 E52.74479
G1 X63.628 Y53.374 E52.93156
G1 X63.64 Y53.453 E52.93306
G1 X63.637 Y53.509 E52.93412
G1 X66.312 Y56.565 E53.01052
G1 X66.389 Y56.485 E53.0126
G1 X68.978 Y52.474 E53.10241
G1 X69.075 Y52.395 E53.10476
G1 X69.2 Y52.389 E53.10711
G1 X69.323 Y52.489 E53.1101
G1 X70.086 Y53.951 E53.14112
G1 X71.615 Y53.127 E53.17379
G1 X71.738 Y53.105 E53.17614
G1 X71.807 Y53.128 E53.17751
G1 X71.89 Y53.174 E53.17929
G1 X71.988 Y53.303 E53.18234
G1 X72.396 Y55.038 E53.21587
G1 X74.116 Y54.408 E53.25032
G1 X74.292 Y54.427 E53.25365
G1 X74.355 Y54.467 E53.25506
G1 X74.434 Y54.564 E53.25741
G1 X74.439 Y54.695 E53.25987
G1 X72.624 Y60.572 E53.37558
G1 X72.582 Y60.972 E53.38314
G1 X72.495 Y61.117 E53.38632
G1 X64.803 Y66.308 E53.56088
G1 X64.639 Y66.335 E53.56401
G1 X57.106 Y64.288 E53.71084
G1 X49.572 Y66.335 E53.8577
G1 X49.408 Y66.308 E53.86083
G1 X41.718 Y61.116 E54.03536
G1 X41.631 Y60.972 E54.03853
G1 X41.587 Y60.571 E54.04612
G1 X39.771 Y54.694 E54.16182
G1 X39.773 Y54.569 E54.16418
G1 X39.86 Y54.463 E54.16675
G1 X39.924 Y54.425 E54.16815
G1 X40.095 Y54.409 E54.17139
G1 X41.816 Y55.037 E54.20585
G1 X42.222 Y53.302 E54.23936
G1 X42.325 Y53.17 E54.24251
G1 X42.41 Y53.126 E54.24431
G1 X42.533 Y53.106 E54.24666
G1 X42.597 Y53.128 E54.24793
G1 X44.126 Y53.952 E54.2806
G1 X44.888 Y52.49 E54.31162
G1 X44.977 Y52.402 E54.31397
G1 X45.101 Y52.385 E54.31632
G1 X45.233 Y52.474 E54.31932
G1 X47.826 Y56.489 E54.40922
G1 X47.898 Y56.566 E54.41121
G1 X50.575 Y53.51 E54.48763
G1 X50.571 Y53.455 E54.48867
G1 X50.582 Y53.372 E54.49024
G1 X54.003 Y44.052 E54.67699
G1 F1500 E48.17699
G0 F3600 X54.005 Y43.454
G0 X61.436 Y38.717
G1 F1500 E54.67699
G1 F1800 X61.558 Y38.463 E54.68229
G1 X61.746 Y38.253 E54.6876
G1 X61.986 Y38.104 E54.69291
G1 X62.258 Y38.028 E54.69822
G1 X62.54 Y38.03 E54.70353
G1 X62.81 Y38.112 E54.70883
G1 X62.976 Y38.21 E54.71246
G1 X63.464 Y38.564 E54.7238
G1 X63.605 Y38.174 E54.7316
G1 X63.738 Y37.925 E54.73691
G1 X63.935 Y37.723 E54.74222
G1 X64.18 Y37.584 E54.74752
G1 X64.481 Y37.517 E54.75332
G1 X64.605 Y37.509 E54.75566
G1 X64.886 Y37.531 E54.76096
G1 X65.15 Y37.63 E54.76626
G1 X65.376 Y37.799 E54.77157
G1 X65.573 Y38.079 E54.77801
G1 X65.894 Y38.756 E54.7921
G1 X66.76 Y38.243 E54.81104
G1 X67.021 Y38.134 E54.81636
G1 X67.302 Y38.103 E54.82168
G1 X67.579 Y38.152 E54.82697
G1 X67.833 Y38.276 E54.83228
G1 X68.041 Y38.466 E54.83758
G1 X68.211 Y38.766 E54.84407
G1 X69.01 Y40.997 E54.88865
G1 X69.093 Y41.069 E54.89071
G1 X69.246 Y41.307 E54.89603
G1 X69.299 Y41.453 E54.89896
G1 X71.088 Y47.798 E55.02296
G1 X71.126 Y48.077 E55.02826
G1 X71.084 Y48.356 E55.03357
G1 X70.966 Y48.612 E55.03887
G1 X70.78 Y48.825 E55.04419
G1 X70.553 Y48.973 E55.04929
G1 X67.934 Y50.209 E55.10376
G1 X67.664 Y50.293 E55.10908
G1 X67.382 Y50.297 E55.11439
G1 X67.11 Y50.223 E55.11969
G1 X66.799 Y50.011 E55.12677
G1 X61.495 Y44.688 E55.26812
G1 X61.326 Y44.462 E55.27343
G1 X61.227 Y44.198 E55.27873
G1 X61.205 Y43.916 E55.28405
G1 X61.244 Y43.7 E55.28818
G1 X61.28 Y43.577 E55.29059
G1 X61.389 Y38.995 E55.37681
G1 X61.436 Y38.717 E55.38211
G0 F3600 X61.834 Y38.791
G1 F1800 X61.952 Y38.608 E55.3862
G1 X62.128 Y38.479 E55.39031
G1 X62.338 Y38.421 E55.39441
G1 X62.556 Y38.443 E55.39853
G1 X62.741 Y38.533 E55.4024
G1 X63.659 Y39.199 E55.42373
G1 X63.981 Y38.31 E55.44152
G1 X64.091 Y38.122 E55.44562
G1 X64.262 Y37.986 E55.44973
G1 X64.506 Y37.916 E55.4545
G1 X64.63 Y37.908 E55.45684
G1 X64.847 Y37.934 E55.46095
G1 X65.04 Y38.036 E55.46506
G1 X65.211 Y38.25 E55.47021
G1 X65.72 Y39.324 E55.49256
G1 X66.964 Y38.587 E55.51976
G1 X67.169 Y38.512 E55.52387
G1 X67.387 Y38.515 E55.52797
G1 X67.59 Y38.595 E55.53207
G1 X67.75 Y38.743 E55.53617
G1 X67.835 Y38.901 E55.53955
G1 X68.667 Y41.224 E55.58596
G1 X68.821 Y41.37 E55.58996
G1 X68.914 Y41.561 E55.59395
G1 X70.703 Y47.906 E55.71796
G1 X70.724 Y48.123 E55.72206
G1 X70.665 Y48.333 E55.72616
G1 X70.534 Y48.509 E55.73029
G1 X70.382 Y48.612 E55.73374
G1 X67.763 Y49.848 E55.78822
G1 X67.552 Y49.903 E55.79232
G1 X67.335 Y49.88 E55.79643
G1 X67.082 Y49.729 E55.80197
G1 X61.778 Y44.406 E55.94332
G1 X61.655 Y44.226 E55.94742
G1 X61.604 Y44.013 E55.95154
G1 X61.627 Y43.813 E55.95533
G1 X61.679 Y43.636 E55.9588
G1 X61.789 Y39.005 E56.04593
G1 X61.834 Y38.791 E56.05005
G0 F3600 X62.189 Y39.014
G1 F1800 X62.231 Y38.897 E56.05238
G1 X62.334 Y38.827 E56.05473
G1 X62.506 Y38.857 E56.05801
G1 X63.854 Y39.834 E56.08933
G1 X64.357 Y38.447 E56.11708
G1 X64.434 Y38.349 E56.11942
G1 X64.532 Y38.315 E56.12138
G1 X64.656 Y38.307 E56.12371
G1 X64.777 Y38.339 E56.12607
G1 X64.85 Y38.421 E56.12813
G1 X65.546 Y39.891 E56.15873
G1 X67.168 Y38.931 E56.19418
G1 X67.29 Y38.904 E56.19653
G1 X67.404 Y38.955 E56.19888
G1 X67.458 Y39.036 E56.20071
G1 X68.335 Y41.484 E56.24963
G1 X68.446 Y41.556 E56.25212
G1 X68.529 Y41.67 E56.25477
G1 X70.318 Y48.015 E56.37877
G1 X70.313 Y48.14 E56.38113
G1 X70.211 Y48.25 E56.38395
G1 X67.592 Y49.486 E56.43842
G1 X67.468 Y49.501 E56.44077
G1 X67.365 Y49.446 E56.44297
G1 X62.061 Y44.123 E56.58432
G1 X62.005 Y44.012 E56.58666
G1 X62.011 Y43.926 E56.58828
G1 X62.078 Y43.699 E56.59273
G1 X62.189 Y39.014 E56.68089
G1 F1500 E50.18089
;MESH:bulbasaur_starter_1gen_flowalistik.STL
G0 F3600 X61.725 Y39.004
G0 X52.512 Y40.141
G0 X51.24 Y40.172
G0 X49.964 Y41.165
G0 X49.695 Y40.648
G0 X50.165 Y40.478
;TYPE:WALL-OUTER
G1 F1500 E56.68089
G1 F1800 X50.381 Y40.313 E56.686
G1 X51.318 Y39.596 E56.70819
G1 X51.629 Y39.358 E56.71556
G1 X51.638 Y39.749 E56.71964
G1 X51.736 Y43.762 E56.79515
G1 X51.782 Y43.923 E56.7983
G1 X46.659 Y49.063 E56.93481
G1 X44.323 Y47.956 E56.98343
G1 X46.045 Y41.852 E57.10273
G1 X46.208 Y41.746 E57.10639
G1 X46.966 Y39.626 E57.14874
G1 X47.047 Y39.399 E57.15327
G1 X47.255 Y39.522 E57.15607
G1 X48.558 Y40.293 E57.18455
G1 X48.9 Y40.334 E57.19102
G1 X49.382 Y39.314 E57.21225
G1 X49.587 Y38.88 E57.22127
G1 X49.75 Y39.331 E57.22613
G1 X50.073 Y40.223 E57.24397
G1 X50.165 Y40.478 E57.24702
G0 F3600 X50.324 Y40.357
G0 X49.975 Y41.127
;TYPE:WALL-INNER
G1 F1800 X50.191 Y40.962 E57.25213
G1 X50.937 Y40.391 E57.2698
G1 X51.248 Y40.153 E57.27717
G1 X51.257 Y40.544 E57.28125
G1 X51.337 Y43.804 E57.34259
G1 X46.575 Y48.581 E57.46947
G1 X44.8 Y47.74 E57.50641
G1 X46.389 Y42.105 E57.61654
G1 X46.539 Y42.008 E57.6199
G1 X47.18 Y40.217 E57.65569
G1 X47.261 Y39.99 E57.66022
G1 X47.469 Y40.113 E57.66301
G1 X48.427 Y40.68 E57.68395
G1 X49.139 Y40.765 E57.69744
G1 X49.333 Y40.354 E57.70599
G1 X49.538 Y39.92 E57.71502
G1 X49.701 Y40.371 E57.71987
G1 X49.883 Y40.872 E57.7299
G1 X49.975 Y41.127 E57.73294
G0 F3600 X49.49 Y40.934
;TYPE:SKIN
G1 F1800 X49.79 Y41.76 E57.74947
G1 X50.877 Y40.928 E57.77522
G1 X50.943 Y43.646 E57.82636
G1 X46.493 Y48.11 E57.94493
G1 X45.265 Y47.528 E57.97049
G1 X46.724 Y42.353 E58.07163
G1 X46.861 Y42.264 E58.07471
G1 X47.468 Y40.566 E58.10863
G1 X48.299 Y41.058 E58.12679
G1 X49.371 Y41.186 E58.1471
G1 X49.49 Y40.934 E58.15234
G0 F3600 X50.497 Y41.446
G1 F1800 X50.714 Y41.663 E58.15811
G0 F3600 X50.176 Y41.691
G1 F1800 X50.728 Y42.243 E58.1728
G0 F3600 X50.742 Y42.823
G1 F1800 X49.855 Y41.936 E58.19639
G0 F3600 X49.551 Y41.632
G1 F1800 X49.276 Y41.356 E58.20372
G0 F3600 X48.634 Y41.28
G1 F1800 X50.756 Y43.402 E58.26017
G0 F3600 X50.561 Y43.773
G1 F1800 X47.704 Y40.916 E58.33618
G0 F3600 X47.428 Y41.205
G1 F1800 X50.279 Y44.056 E58.41202
G0 F3600 X49.996 Y44.339
G1 F1800 X47.279 Y41.622 E58.4843
G0 F3600 X47.13 Y42.039
G1 F1800 X49.714 Y44.623 E58.55304
G0 F3600 X49.431 Y44.906
G1 F1800 X46.948 Y42.422 E58.6191
G0 F3600 X46.778 Y42.818
G1 F1800 X49.149 Y45.189 E58.68218
G0 F3600 X48.866 Y45.472
G1 F1800 X46.654 Y43.26 E58.74102
G0 F3600 X46.529 Y43.701
G1 F1800 X48.584 Y45.756 E58.79569
G0 F3600 X48.302 Y46.039
G1 F1800 X46.405 Y44.142 E58.84615
G0 F3600 X46.28 Y44.583
G1 F1800 X48.019 Y46.322 E58.89241
G0 F3600 X47.737 Y46.606
G1 F1800 X46.156 Y45.025 E58.93447
G0 F3600 X46.031 Y45.466
G1 F1800 X47.454 Y46.888 E58.97231
G0 F3600 X47.172 Y47.172
G1 F1800 X45.907 Y45.907 E59.00596
G0 F3600 X45.783 Y46.348
G1 F1800 X46.89 Y47.456 E59.03543
G0 F3600 X46.607 Y47.738
G1 F1800 X45.658 Y46.789 E59.06067
G0 F3600 X45.534 Y47.231
G1 F1800 X45.959 Y47.656 E59.07198
G1 F1500 E52.57198
G0 F3600 X51.319 Y43.797
G0 X52.597 Y43.632
G0 X53.733 Y43.462
G0 X57.104 Y43.264
G0 X60.139 Y43.444
G0 X61.615 Y43.629
G0 X62.894 Y43.8
G0 X64.515 Y40.649
G0 X64.046 Y40.478
;TYPE:WALL-OUTER
G1 F1500 E59.07198
G1 F1800 X64.624 Y38.881 E59.10392
G1 X65.311 Y40.331 E59.13411
G1 X65.653 Y40.294 E59.14058
G1 X66.956 Y39.522 E59.16907
G1 X67.164 Y39.399 E59.17361
G1 X67.245 Y39.626 E59.1764
G1 X68.005 Y41.747 E59.21878
G1 X68.166 Y41.852 E59.22239
G1 X69.887 Y47.956 E59.34169
G1 X67.551 Y49.062 E59.39031
G1 X62.429 Y43.924 E59.52678
G1 X62.476 Y43.762 E59.52995
G1 X62.572 Y39.749 E59.60546
G1 X62.581 Y39.357 E59.61283
G1 X62.893 Y39.595 E59.61692
G1 X64.046 Y40.478 E59.64424
G0 F3600 X64.114 Y40.29
G0 X64.236 Y41.127
;TYPE:WALL-INNER
G1 F1800 X64.51 Y40.369 E59.6594
G1 X64.673 Y39.919 E59.66841
G1 X64.877 Y40.351 E59.67324
G1 X64.878 Y40.352 E59.67327
G1 X65.071 Y40.759 E59.68174
G1 X65.782 Y40.682 E59.69519
G1 X66.742 Y40.113 E59.71618
G1 X66.95 Y39.99 E59.72073
G1 X67.031 Y40.217 E59.72351
G1 X67.674 Y42.009 E59.75933
G1 X67.822 Y42.105 E59.76264
G1 X69.41 Y47.739 E59.87275
G1 X67.634 Y48.58 E59.90972
G1 X62.875 Y43.806 E60.03651
G1 X62.953 Y40.544 E60.09789
G1 X62.962 Y40.153 E60.10525
G1 X63.273 Y40.391 E60.10933
G1 X64.236 Y41.127 E60.13213
G0 F3600 X64.721 Y40.932
;TYPE:SKIN
G1 F1800 X64.837 Y41.176 E60.13721
G1 X65.908 Y41.06 E60.15748
G1 X66.743 Y40.566 E60.17573
G1 X67.352 Y42.265 E60.20968
G1 X67.487 Y42.352 E60.2127
G1 X68.945 Y47.527 E60.31383
G1 X67.716 Y48.109 E60.33941
G1 X63.269 Y43.648 E60.4579
G1 X63.334 Y40.928 E60.50908
G1 X64.421 Y41.76 E60.53483
G1 X64.721 Y40.932 E60.55139
G0 F3600 X66.421 Y40.965
G1 F1800 X66.849 Y41.393 E60.56278
G0 F3600 X66.065 Y41.175
G1 F1800 X67.165 Y42.275 E60.59204
G1 X67.193 Y42.303
G0 F3600 X67.542 Y43.217
G1 F1800 X65.599 Y41.274 E60.64373
G0 F3600 X65.088 Y41.329
G1 F1800 X67.764 Y44.006 E60.71493
G1 X67.792 Y44.034
G0 F3600 X67.986 Y44.793
G1 F1800 X64.701 Y41.508 E60.80232
G0 F3600 X64.551 Y41.923
G1 F1800 X68.208 Y45.581 E60.89962
G1 X68.236 Y45.609
G0 F3600 X68.43 Y46.369
G1 F1800 X63.501 Y41.439 E61.03075
G0 F3600 X63.487 Y41.991
G1 F1800 X68.652 Y47.156 E61.16815
G0 F3600 X68.477 Y47.547
G1 F1800 X63.474 Y42.544 E61.30124
G0 F3600 X63.461 Y43.096
G1 F1800 X68.093 Y47.729 E61.42448
G1 X68.121 Y47.757
G1 F1500 E54.92448
G0 F3600 X62.894 Y43.8
G0 X61.986 Y44.705
G0 X60.878 Y44.535
G0 X59.698 Y44.969
G0 X47.407 Y57.44
G0 X47.856 Y57.221
;TYPE:WALL-OUTER
G1 F1500 E61.42448
G1 F1800 X47.947 Y57.117 E61.42707
G1 X50.984 Y53.649 E61.51379
G1 X50.973 Y53.47 E61.51716
G1 X54.323 Y44.321 E61.70043
G1 X56.915 Y44.331 E61.74919
G1 X57.107 Y44.232 E61.75325
G1 X57.298 Y44.33 E61.75729
G1 X59.888 Y44.322 E61.80601
G1 X63.238 Y53.473 E61.98932
G1 X63.229 Y53.651 E61.99267
G1 X66.263 Y57.116 E62.07931
G1 X66.351 Y57.217 E62.08183
G1 X66.512 Y56.898 E62.08619
G1 X66.696 Y56.748 E62.09066
G1 X68.933 Y53.28 E62.16829
G1 X69.123 Y52.985 E62.17489
G1 X69.279 Y53.299 E62.17861
G1 X69.796 Y54.34 E62.20048
G1 X70.004 Y54.45 E62.2049
G1 X71.639 Y53.569 E62.23984
G1 X72.061 Y55.363 E62.2745
G1 X72.299 Y55.5 E62.27967
G1 X73.582 Y55.03 E62.30537
G1 X73.583 Y55.029 E62.3054
G1 X73.96 Y54.892 E62.31294
G1 X73.843 Y55.276 E62.31712
G1 X73.842 Y55.277 E62.31715
G1 X72.23 Y60.495 E62.41988
G1 X72.194 Y60.839 E62.42638
G1 X64.796 Y65.877 E62.59475
G1 X64.675 Y65.93 E62.59723
G1 X57.106 Y63.875 E62.74476
G1 X49.536 Y65.93 E62.89231
G1 X49.415 Y65.877 E62.8948
G1 X42.019 Y60.838 E63.06314
G1 X41.981 Y60.493 E63.06967
G1 X40.369 Y55.277 E63.17237
G1 X40.368 Y55.276 E63.17239
G1 X40.251 Y54.892 E63.17994
G1 X40.628 Y55.029 E63.18412
G1 X40.629 Y55.03 E63.18414
G1 X41.913 Y55.499 E63.20986
G1 X42.151 Y55.362 E63.21502
G1 X42.571 Y53.568 E63.24968
G1 X44.211 Y54.452 E63.28473
G1 X44.418 Y54.336 E63.28919
G1 X44.932 Y53.3 E63.31094
G1 X44.933 Y53.299 E63.31097
G1 X45.088 Y52.985 E63.31756
G1 X45.278 Y53.28 E63.32128
G1 X47.516 Y56.749 E63.39894
