; generated by Slic3r Prusa Edition 1.42.0-beta2+linux64 on 2019-05-15 at 15:14:51

; 

; external perimeters extrusion width = 0.45mm
; perimeters extrusion width = 0.45mm
; infill extrusion width = 0.45mm
; solid infill extrusion width = 0.45mm
; top infill extrusion width = 0.40mm
; first layer extrusion width = 0.50mm

M201 X9000 Y9000 Z500 E10000 ; sets maximum accelerations, mm/sec^2
M203 X500 Y500 Z12 E120 ; sets maximum feedrates, mm/sec
M204 P1500 R1500 T1500 ; sets acceleration (P, T) and retract acceleration (R), mm/sec^2
M205 X10.00 Y10.00 Z0.20 E2.50 ; sets the jerk limits, mm/sec
M205 S0 T0 ; sets the minimum extruding and travel feed rate, mm/sec
M107
M190 S60 ; set bed temperature and wait for it to be reached
M104 S200 ; set temperature
G28 ; home all axes
G1 Z5 F5000 ; lift nozzle
; Filament gcode
M109 S200 ; set temperature and wait for it to be reached
G21 ; set units to millimeters
G90 ; use absolute coordinates
M82 ; use absolute distances for extrusion
G92 E0
G1 Z0.250 F7800.000
G1 E-2.00000 F2400.00000
G92 E0
G1 X85.924 Y85.297 F7800.000
G1 E2.00000 F2400.00000
G1 F1800
G1 X86.967 Y84.566 E2.05908
G1 X88.142 Y84.061 E2.11845
G1 X89.390 Y83.807 E2.17753
G1 X110.006 Y83.777 E3.13396
G1 X111.091 Y83.873 E3.18451
G1 X112.149 Y84.160 E3.23534
G1 X113.134 Y84.624 E3.28588
G1 X114.029 Y85.257 E3.33671
G1 X114.798 Y86.037 E3.38753
G1 X115.416 Y86.934 E3.43808
G1 X115.869 Y87.932 E3.48891
G1 X116.140 Y88.987 E3.53945
G1 X116.223 Y89.981 E3.58572
G1 X116.216 Y110.302 E4.52847
G1 X116.100 Y111.231 E4.57189
G1 X115.845 Y112.137 E4.61559
G1 X115.458 Y112.990 E4.65901
G1 X114.948 Y113.774 E4.70243
G1 X114.006 Y114.763 E4.76577
G1 X112.871 Y115.522 E4.82912
G1 X111.597 Y116.015 E4.89247
G1 X110.253 Y116.218 E4.95553
G1 X89.674 Y116.215 E5.91028
G1 X88.751 Y116.097 E5.95342
G1 X87.851 Y115.840 E5.99684
G1 X87.005 Y115.455 E6.03997
G1 X86.226 Y114.948 E6.08310
G1 X85.237 Y114.006 E6.14645
G1 X84.478 Y112.871 E6.20980
G1 X83.985 Y111.597 E6.27314
G1 X83.782 Y110.253 E6.33621
G1 X83.785 Y89.674 E7.29096
G1 X83.903 Y88.751 E7.33409
G1 X84.160 Y87.851 E7.37751
G1 X84.545 Y87.005 E7.42064
G1 X85.052 Y86.226 E7.46378
G1 X85.883 Y85.341 E7.52008
G1 E5.52008 F2400.00000
G92 E0
G1 X108.857 Y108.857 F7800.000
G1 E2.00000 F2400.00000
G1 F1800
G1 X91.143 Y108.857 E2.82183
G1 X91.143 Y91.143 E3.64365
G1 X108.857 Y91.143 E4.46548
G1 X108.857 Y108.797 E5.28452
G1 X109.304 Y109.304 F7800.000
G1 F1800
G1 X90.696 Y109.304 E6.14777
G1 X90.696 Y90.696 E7.01101
G1 X109.304 Y90.696 E7.87425
G1 X109.304 Y109.244 E8.73471
G1 X109.750 Y109.750 F7800.000
G1 F1800
G1 X90.250 Y109.750 E9.63936
G1 X90.250 Y90.250 E10.54402
G1 X109.750 Y90.250 E11.44868
G1 X109.750 Y109.690 E12.35055
G1 X109.364 Y109.646 F7800.000
G1 E10.35055 F2400.00000
G92 E0
G1 X99.551 Y99.611 F7800.000
G1 E2.00000 F2400.00000
G1 F1800
G1 X99.551 Y100.449 E2.03903
G1 X100.449 Y100.449 E2.08085
G1 X100.449 Y99.551 E2.12268
G1 X99.551 Y99.551 E2.16451
G1 X99.103 Y99.163 F7800.000
G1 F1800
G1 X99.103 Y100.897 E2.24536
G1 X100.897 Y100.897 E2.32901
G1 X100.897 Y99.103 E2.41266
G1 X99.103 Y99.103 E2.49631
G1 X98.654 Y98.714 F7800.000
G1 F1800
G1 X98.654 Y101.346 E2.61899
G1 X101.346 Y101.346 E2.74447
G1 X101.346 Y98.654 E2.86994
G1 X98.654 Y98.654 E2.99542
G1 X98.206 Y98.266 F7800.000
G1 F1800
G1 X98.206 Y101.794 E3.15992
G1 X101.794 Y101.794 E3.32722
G1 X101.794 Y98.206 E3.49453
G1 X98.206 Y98.206 E3.66183
G1 X97.757 Y97.817 F7800.000
G1 F1800
G1 X97.757 Y102.243 E3.86815
G1 X102.243 Y102.243 E4.07728
G1 X102.243 Y97.757 E4.28641
G1 X97.757 Y97.757 E4.49553
G1 X97.309 Y97.369 F7800.000
G1 F1800
G1 X97.309 Y102.691 E4.74369
G1 X102.691 Y102.691 E4.99464
G1 X102.691 Y97.309 E5.24559
G1 X97.309 Y97.309 E5.49654
G1 X96.860 Y96.920 F7800.000
G1 F1800
G1 X96.860 Y103.140 E5.78652
G1 X103.140 Y103.140 E6.07929
G1 X103.140 Y96.860 E6.37207
G1 X96.860 Y96.860 E6.66484
G1 X96.412 Y96.472 F7800.000
G1 F1800
G1 X96.412 Y103.588 E6.99665
G1 X103.588 Y103.588 E7.33125
G1 X103.588 Y96.412 E7.66585
G1 X96.412 Y96.412 E8.00045
G1 X95.963 Y96.023 F7800.000
G1 F1800
G1 X95.963 Y104.037 E8.37408
G1 X104.037 Y104.037 E8.75050
G1 X104.037 Y95.963 E9.12693
G1 X95.963 Y95.963 E9.50335
G1 X95.514 Y95.574 F7800.000
G1 F1800
G1 X95.514 Y104.486 E9.91881
G1 X104.486 Y104.486 E10.33706
G1 X104.486 Y95.514 E10.75531
G1 X95.514 Y95.514 E11.17356
G1 X95.066 Y95.126 F7800.000
G1 F1800
G1 X95.066 Y104.934 E11.63084
G1 X104.934 Y104.934 E12.09091
G1 X104.934 Y95.066 E12.55099
G1 X95.066 Y95.066 E13.01106
G1 X94.617 Y94.677 F7800.000
G1 F1800
G1 X94.617 Y105.383 E13.51017
G1 X105.383 Y105.383 E14.01207
G1 X105.383 Y94.617 E14.51397
G1 X94.617 Y94.617 E15.01587
G1 X94.169 Y94.229 F7800.000
G1 F1800
G1 X94.169 Y105.831 E15.55680
G1 X105.831 Y105.831 E16.10052
G1 X105.831 Y94.169 E16.64425
G1 X94.169 Y94.169 E17.18797
G1 X93.720 Y93.780 F7800.000
G1 F1800
G1 X93.720 Y106.280 E17.77073
G1 X106.280 Y106.280 E18.35628
G1 X106.280 Y93.720 E18.94183
G1 X93.720 Y93.720 E19.52738
G1 X93.272 Y93.332 F7800.000
G1 F1800
G1 X93.272 Y106.728 E20.15196
G1 X106.728 Y106.728 E20.77933
G1 X106.728 Y93.272 E21.40671
G1 X93.272 Y93.272 E22.03408
G1 X92.823 Y92.883 F7800.000
G1 F1800
G1 X92.823 Y107.177 E22.70049
G1 X107.177 Y107.177 E23.36969
G1 X107.177 Y92.823 E24.03889
G1 X92.823 Y92.823 E24.70809
G1 X92.375 Y92.435 F7800.000
G1 F1800
G1 X92.375 Y107.625 E25.41631
G1 X107.625 Y107.625 E26.12734
G1 X107.625 Y92.375 E26.83836
G1 X92.375 Y92.375 E27.54939
G1 X91.926 Y91.986 F7800.000
G1 F1800
G1 X91.926 Y108.074 E28.29944
G1 X108.074 Y108.074 E29.05229
G1 X108.074 Y91.926 E29.80514
G1 X91.926 Y91.926 E30.55799
G1 X91.477 Y91.537 F7800.000
G1 F1800
G1 X91.477 Y108.523 E31.34987
G1 X108.523 Y108.523 E32.14455
G1 X108.523 Y91.477 E32.93922
G1 X91.477 Y91.477 E33.73390
G1 Z0.450 F7800.000
G1 X108.961 Y108.961
G1 F3600
G1 X91.039 Y108.961 E34.34052
G1 X91.039 Y91.039 E34.94715
G1 X108.961 Y91.039 E35.55378
G1 X108.961 Y108.901 E36.15838
G1 X109.368 Y109.368 F7800.000
G1 F3600
G1 X90.632 Y109.368 E36.79256
G1 X90.632 Y90.632 E37.42675
G1 X109.368 Y90.632 E38.06093
G1 X109.368 Y109.308 E38.69309
G1 X109.775 Y109.775 F7800.000
G1 F1800
G1 X90.225 Y109.775 E39.35483
G1 X90.225 Y90.225 E40.01658
G1 X109.775 Y90.225 E40.67832
G1 X109.775 Y109.715 E41.33803
G1 X109.389 Y109.671 F7800.000
G1 X108.008 Y108.839
G1 F1200
G1 X108.656 Y108.191 E41.36931
G1 X108.656 Y107.610 E41.38916
G1 X107.610 Y108.656 E41.43965
G1 X107.029 Y108.656 E41.45949
G1 X108.656 Y107.029 E41.53804
G1 X108.656 Y106.448 E41.55788
G1 X106.448 Y108.656 E41.66450
G1 X105.867 Y108.656 E41.68434
G1 X108.656 Y105.867 E41.81902
G1 X108.656 Y105.287 E41.83886
G1 X105.287 Y108.656 E42.00159
G1 X104.706 Y108.656 E42.02144
G1 X108.656 Y104.706 E42.21223
G1 X108.656 Y104.125 E42.23208
G1 X104.125 Y108.656 E42.45093
G1 X103.544 Y108.656 E42.47077
G1 X108.656 Y103.544 E42.71769
G1 X108.656 Y102.963 E42.73754
G1 X102.963 Y108.656 E43.01252
G1 X102.382 Y108.656 E43.03236
G1 X108.656 Y102.382 E43.33540
G1 X108.656 Y101.801 E43.35524
G1 X101.801 Y108.656 E43.68634
G1 X101.220 Y108.656 E43.70618
G1 X108.656 Y101.220 E44.06535
G1 X108.656 Y100.639 E44.08519
G1 X100.639 Y108.656 E44.47241
G1 X100.058 Y108.656 E44.49225
G1 X108.656 Y100.058 E44.90754
G1 X108.656 Y99.477 E44.92738
G1 X99.477 Y108.656 E45.37072
G1 X98.896 Y108.656 E45.39057
G1 X108.656 Y98.896 E45.86197
G1 X108.656 Y98.315 E45.88181
G1 X98.315 Y108.656 E46.38128
G1 X97.735 Y108.656 E46.40112
G1 X108.656 Y97.735 E46.92865
G1 X108.656 Y97.154 E46.94849
G1 X97.154 Y108.656 E47.50408
G1 X96.573 Y108.656 E47.52392
G1 X108.656 Y96.573 E48.10757
G1 X108.656 Y95.992 E48.12742
G1 X95.992 Y108.656 E48.73913
G1 X95.411 Y108.656 E48.75897
G1 X108.656 Y95.411 E49.39874
G1 X108.656 Y94.830 E49.41858
G1 X94.830 Y108.656 E50.08642
G1 X94.249 Y108.656 E50.10626
G1 X108.656 Y94.249 E50.80215
G1 X108.656 Y93.668 E50.82199
G1 X93.668 Y108.656 E51.54595
G1 X93.087 Y108.656 E51.56579
G1 X108.656 Y93.087 E52.31781
G1 X108.656 Y92.506 E52.33765
G1 X92.506 Y108.656 E53.11772
G1 X91.925 Y108.656 E53.13757
G1 X108.656 Y91.925 E53.94570
G1 X108.656 Y91.344 E53.96554
G1 X91.344 Y108.655 E54.80174
G1 X91.344 Y108.075 E54.82158
G1 X108.075 Y91.344 E55.62971
G1 X107.494 Y91.344 E55.64955
G1 X91.344 Y107.494 E56.42962
G1 X91.344 Y106.913 E56.44947
G1 X106.913 Y91.344 E57.20148
G1 X106.332 Y91.344 E57.22132
G1 X91.344 Y106.332 E57.94527
G1 X91.344 Y105.751 E57.96511
G1 X105.751 Y91.344 E58.66100
G1 X105.170 Y91.344 E58.68084
G1 X91.344 Y105.170 E59.34867
G1 X91.344 Y104.589 E59.36851
G1 X104.589 Y91.344 E60.00827
G1 X104.008 Y91.344 E60.02812
G1 X91.344 Y104.008 E60.63982
G1 X91.344 Y103.427 E60.65966
G1 X103.427 Y91.344 E61.24331
G1 X102.846 Y91.344 E61.26315
G1 X91.344 Y102.846 E61.81873
G1 X91.344 Y102.265 E61.83858
G1 X102.265 Y91.344 E62.36610
G1 X101.684 Y91.344 E62.38594
G1 X91.344 Y101.684 E62.88540
G1 X91.344 Y101.103 E62.90524
G1 X101.103 Y91.344 E63.37664
G1 X100.523 Y91.344 E63.39649
G1 X91.344 Y100.523 E63.83983
G1 X91.344 Y99.942 E63.85967
G1 X99.942 Y91.344 E64.27495
G1 X99.361 Y91.344 E64.29479
G1 X91.344 Y99.361 E64.68201
G1 X91.344 Y98.780 E64.70185
G1 X98.780 Y91.344 E65.06100
G1 X98.199 Y91.344 E65.08085
G1 X91.344 Y98.199 E65.41194
G1 X91.344 Y97.618 E65.43178
G1 X97.618 Y91.344 E65.73482
G1 X97.037 Y91.344 E65.75466
G1 X91.344 Y97.037 E66.02964
G1 X91.344 Y96.456 E66.04948
G1 X96.456 Y91.344 E66.29639
G1 X95.875 Y91.344 E66.31623
G1 X91.344 Y95.875 E66.53508
G1 X91.344 Y95.294 E66.55493
G1 X95.294 Y91.344 E66.74572
G1 X94.713 Y91.344 E66.76556
G1 X91.344 Y94.713 E66.92829
G1 X91.344 Y94.132 E66.94813
G1 X94.132 Y91.344 E67.08280
G1 X93.551 Y91.344 E67.10264
G1 X91.344 Y93.551 E67.20925
G1 X91.344 Y92.971 E67.22909
G1 X92.971 Y91.344 E67.30764
G1 X92.390 Y91.344 E67.32748
G1 X91.344 Y92.390 E67.37797
G1 X91.344 Y91.809 E67.39781
G1 X91.992 Y91.161 E67.42909
G1 Z0.650 F7800.000
G1 X108.961 Y108.961
G1 F3600
G1 X91.039 Y108.961 E68.03571
G1 X91.039 Y91.039 E68.64234
G1 X108.961 Y91.039 E69.24897
G1 X108.961 Y108.901 E69.85357
G1 X109.368 Y109.368 F7800.000
G1 F3600
G1 X90.632 Y109.368 E70.48775
G1 X90.632 Y90.632 E71.12194
G1 X109.368 Y90.632 E71.75612
G1 X109.368 Y109.308 E72.38828
G1 X109.775 Y109.775 F7800.000
G1 F1800
G1 X90.225 Y109.775 E73.05002
G1 X90.225 Y90.225 E73.71177
G1 X109.775 Y90.225 E74.37351
G1 X109.775 Y109.715 E75.03322
G1 X109.389 Y109.671 F7800.000
G1 X108.839 Y91.992
G1 F1200
G1 X108.191 Y91.344 E75.06450
G1 X107.610 Y91.344 E75.08435
G1 X108.656 Y92.390 E75.13484
G1 X108.656 Y92.971 E75.15468
G1 X107.029 Y91.344 E75.23323
G1 X106.448 Y91.344 E75.25307
G1 X108.656 Y93.552 E75.35969
G1 X108.656 Y94.133 E75.37953
G1 X105.867 Y91.344 E75.51421
G1 X105.287 Y91.344 E75.53405
G1 X108.656 Y94.713 E75.69678
G1 X108.656 Y95.294 E75.71663
G1 X104.706 Y91.344 E75.90742
G1 X104.125 Y91.344 E75.92727
G1 X108.656 Y95.875 E76.14612
G1 X108.656 Y96.456 E76.16596
G1 X103.544 Y91.344 E76.41288
G1 X102.963 Y91.344 E76.43273
G1 X108.656 Y97.037 E76.70771
G1 X108.656 Y97.618 E76.72755
G1 X102.382 Y91.344 E77.03059
G1 X101.801 Y91.344 E77.05043
G1 X108.656 Y98.199 E77.38153
G1 X108.656 Y98.780 E77.40137
G1 X101.220 Y91.344 E77.76054
G1 X100.639 Y91.344 E77.78038
G1 X108.656 Y99.361 E78.16760
G1 X108.656 Y99.942 E78.18744
G1 X100.058 Y91.344 E78.60273
G1 X99.477 Y91.344 E78.62257
G1 X108.656 Y100.523 E79.06591
G1 X108.656 Y101.104 E79.08576
G1 X98.896 Y91.344 E79.55716
G1 X98.315 Y91.344 E79.57701
G1 X108.656 Y101.685 E80.07647
G1 X108.656 Y102.265 E80.09631
G1 X97.735 Y91.344 E80.62384
G1 X97.154 Y91.344 E80.64368
G1 X108.656 Y102.846 E81.19927
G1 X108.656 Y103.427 E81.21912
G1 X96.573 Y91.344 E81.80277
G1 X95.992 Y91.344 E81.82261
G1 X108.656 Y104.008 E82.43432
G1 X108.656 Y104.589 E82.45416
G1 X95.411 Y91.344 E83.09393
G1 X94.830 Y91.344 E83.11377
G1 X108.656 Y105.170 E83.78161
G1 X108.656 Y105.751 E83.80145
G1 X94.249 Y91.344 E84.49734
G1 X93.668 Y91.344 E84.51718
G1 X108.656 Y106.332 E85.24114
G1 X108.656 Y106.913 E85.26098
G1 X93.087 Y91.344 E86.01300
G1 X92.506 Y91.344 E86.03284
G1 X108.656 Y107.494 E86.81292
G1 X108.656 Y108.075 E86.83276
G1 X91.925 Y91.344 E87.64089
G1 X91.344 Y91.344 E87.66073
G1 X108.655 Y108.656 E88.49693
G1 X108.075 Y108.656 E88.51677
G1 X91.344 Y91.925 E89.32490
G1 X91.344 Y92.506 E89.34474
G1 X107.494 Y108.656 E90.12481
G1 X106.913 Y108.656 E90.14466
G1 X91.344 Y93.087 E90.89667
G1 X91.344 Y93.668 E90.91651
G1 X106.332 Y108.656 E91.64046
G1 X105.751 Y108.656 E91.66030
G1 X91.344 Y94.249 E92.35619
G1 X91.344 Y94.830 E92.37603
G1 X105.170 Y108.656 E93.04386
G1 X104.589 Y108.656 E93.06370
G1 X91.344 Y95.411 E93.70346
G1 X91.344 Y95.992 E93.72331
G1 X104.008 Y108.656 E94.33501
G1 X103.427 Y108.656 E94.35485
G1 X91.344 Y96.573 E94.93850
G1 X91.344 Y97.154 E94.95834
G1 X102.846 Y108.656 E95.51392
G1 X102.265 Y108.656 E95.53377
G1 X91.344 Y97.735 E96.06129
G1 X91.344 Y98.316 E96.08113
G1 X101.684 Y108.656 E96.58059
G1 X101.103 Y108.656 E96.60043
G1 X91.344 Y98.897 E97.07183
G1 X91.344 Y99.477 E97.09168
G1 X100.523 Y108.656 E97.53502
G1 X99.942 Y108.656 E97.55486
G1 X91.344 Y100.058 E97.97014
G1 X91.344 Y100.639 E97.98998
G1 X99.361 Y108.656 E98.37720
G1 X98.780 Y108.656 E98.39704
G1 X91.344 Y101.220 E98.75619
G1 X91.344 Y101.801 E98.77604
G1 X98.199 Y108.656 E99.10713
G1 X97.618 Y108.656 E99.12697
G1 X91.344 Y102.382 E99.43001
G1 X91.344 Y102.963 E99.44985
G1 X97.037 Y108.656 E99.72482
G1 X96.456 Y108.656 E99.74467
G1 X91.344 Y103.544 E99.99158
G1 X91.344 Y104.125 E100.01142
G1 X95.875 Y108.656 E100.23027
G1 X95.294 Y108.656 E100.25012
G1 X91.344 Y104.706 E100.44091
G1 X91.344 Y105.287 E100.46075
G1 X94.713 Y108.656 E100.62348
G1 X94.132 Y108.656 E100.64332
G1 X91.344 Y105.868 E100.77799
G1 X91.344 Y106.449 E100.79783
G1 X93.551 Y108.656 E100.90444
G1 X92.971 Y108.656 E100.92428
G1 X91.344 Y107.029 E101.00283
G1 X91.344 Y107.610 E101.02267
G1 X92.390 Y108.656 E101.07316
G1 X91.809 Y108.656 E101.09300
G1 X91.161 Y108.008 E101.12428
M106 S244.8
G1 Z0.850 F7800.000
G1 X108.961 Y108.961
G1 F3600
G1 X91.039 Y108.961 E101.73090
G1 X91.039 Y91.039 E102.33753
G1 X108.961 Y91.039 E102.94416
G1 X108.961 Y108.901 E103.54875
G1 X109.368 Y109.368 F7800.000
G1 F3600
G1 X90.632 Y109.368 E104.18294
G1 X90.632 Y90.632 E104.81713
G1 X109.368 Y90.632 E105.45131
G1 X109.368 Y109.308 E106.08347
G1 X109.775 Y109.775 F7800.000
G1 F1800
G1 X90.225 Y109.775 E106.74521
G1 X90.225 Y90.225 E107.40695
G1 X109.775 Y90.225 E108.06870
G1 X109.775 Y109.715 E108.72841
G1 X109.389 Y109.671 F7800.000
G1 X108.839 Y104.576
G1 F4800
G1 X92.928 Y108.839 E109.28596
G1 X92.418 Y108.839 F7800.000
G1 F4800
G1 X91.344 Y107.765 E109.33734
G1 X91.344 Y99.130 E109.62964
G1 X100.870 Y108.656 E110.08563
G1 X108.656 Y108.656 E110.34916
G1 X108.656 Y107.806 E110.37793
G1 X92.194 Y91.344 E111.16591
G1 X100.830 Y91.344 E111.45821
G1 X108.839 Y99.353 E111.84159
G1 X108.839 Y98.254 F7800.000
G1 F4800
G1 X91.161 Y102.991 E112.46106
G1 X91.161 Y96.669 F7800.000
G1 F4800
G1 X108.839 Y91.932 E113.08053
G1 X95.424 Y91.161 F7800.000
G1 F4800
G1 X91.344 Y106.388 E113.61412
G1 X91.344 Y108.656 E113.69087
G1 X97.059 Y108.656 E113.88428
G1 X101.697 Y91.344 E114.49091
G1 X108.019 Y91.344 E114.70489
G1 X103.331 Y108.839 E115.31794
G1 Z1.050 F7800.000
G1 X108.961 Y108.961
G1 F3600
G1 X91.039 Y108.961 E115.92457
G1 X91.039 Y91.039 E116.53120
G1 X108.961 Y91.039 E117.13782
G1 X108.961 Y108.901 E117.74242
G1 X109.368 Y109.368 F7800.000
G1 F3600
G1 X90.632 Y109.368 E118.37661
G1 X90.632 Y90.632 E119.01079
G1 X109.368 Y90.632 E119.64498
G1 X109.368 Y109.308 E120.27713
G1 X109.775 Y109.775 F7800.000
G1 F1800
G1 X90.225 Y109.775 E120.93888
G1 X90.225 Y90.225 E121.60062
G1 X109.775 Y90.225 E122.26236
G1 X109.775 Y109.715 E122.92208
G1 X109.389 Y109.671 F7800.000
G1 X108.839 Y104.722
G1 F4800
G1 X93.475 Y108.839 E123.46048
G1 X92.618 Y108.839 F7800.000
G1 F4800
G1 X91.344 Y107.565 E123.52144
G1 X91.344 Y98.930 E123.81374
G1 X101.070 Y108.656 E124.27930
G1 X108.656 Y108.656 E124.53606
G1 X108.656 Y107.606 E124.57160
G1 X92.394 Y91.344 E125.35001
