; generated by Slic3r Prusa Edition 1.42.0-beta2+linux64 on 2019-05-17 at 16:22:59

; 

; external perimeters extrusion width = 0.45mm
; perimeters extrusion width = 0.45mm
; infill extrusion width = 0.45mm
; solid infill extrusion width = 0.45mm
; top infill extrusion width = 0.40mm
; first layer extrusion width = 0.50mm

M201 X9000 Y9000 Z500 E10000 ; sets maximum accelerations, mm/sec^2
M203 X500 Y500 Z12 E120 ; sets maximum feedrates, mm/sec
M204 P1500 R1500 T1500 ; sets acceleration (P, T) and retract acceleration (R), mm/sec^2
M205 X10.00 Y10.00 Z0.20 E2.50 ; sets the jerk limits, mm/sec
M205 S0 T0 ; sets the minimum extruding and travel feed rate, mm/sec
M107
M190 S60 ; set bed temperature and wait for it to be reached
M104 S200 ; set temperature
G28 ; home all axes
G1 Z5 F5000 ; lift nozzle
; Filament gcode
M109 S200 ; set temperature and wait for it to be reached
G21 ; set units to millimeters
G90 ; use absolute coordinates
M82 ; use absolute distances for extrusion
G92 E0
G1 Z0.250 F7800.000
G1 E-2.00000 F2400.00000
G92 E0
G1 X95.924 Y95.297 F7800.000
G1 E2.00000 F2400.00000
G1 F1800
G1 X96.967 Y94.566 E2.05908
G1 X98.142 Y94.061 E2.11845
G1 X99.390 Y93.807 E2.17753
G1 X120.006 Y93.777 E3.13396
G1 X121.091 Y93.873 E3.18451
G1 X122.149 Y94.160 E3.23534
G1 X123.140 Y94.627 E3.28616
G1 X124.029 Y95.257 E3.33671
G1 X124.794 Y96.032 E3.38725
G1 X125.416 Y96.934 E3.43808
G1 X125.867 Y97.926 E3.48862
G1 X126.140 Y98.987 E3.53945
G1 X126.223 Y99.981 E3.58572
G1 X126.216 Y120.302 E4.52847
G1 X126.100 Y121.231 E4.57189
G1 X125.847 Y122.132 E4.61531
G1 X125.461 Y122.984 E4.65872
G1 X124.948 Y123.774 E4.70243
G1 X124.006 Y124.763 E4.76577
G1 X122.871 Y125.522 E4.82912
G1 X121.597 Y126.015 E4.89247
G1 X120.253 Y126.218 E4.95553
G1 X99.674 Y126.215 E5.91028
G1 X98.745 Y126.095 E5.95370
G1 X97.851 Y125.840 E5.99684
G1 X97.005 Y125.455 E6.03997
G1 X96.226 Y124.948 E6.08310
G1 X95.237 Y124.006 E6.14645
G1 X94.478 Y122.871 E6.20980
G1 X93.985 Y121.597 E6.27314
G1 X93.782 Y120.253 E6.33620
G1 X93.785 Y99.674 E7.29096
G1 X93.905 Y98.745 E7.33438
G1 X94.160 Y97.851 E7.37751
G1 X94.545 Y97.005 E7.42064
G1 X95.052 Y96.226 E7.46378
G1 X95.883 Y95.341 E7.52008
G1 E5.52008 F2400.00000
G92 E0
G1 X118.857 Y118.857 F7800.000
G1 E2.00000 F2400.00000
G1 F1800
G1 X101.143 Y118.857 E2.82183
G1 X101.143 Y101.143 E3.64365
G1 X118.857 Y101.143 E4.46548
G1 X118.857 Y118.797 E5.28452
G1 X119.304 Y119.304 F7800.000
G1 F1800
G1 X100.696 Y119.304 E6.14777
G1 X100.696 Y100.696 E7.01101
G1 X119.304 Y100.696 E7.87425
G1 X119.304 Y119.244 E8.73471
G1 X119.750 Y119.750 F7800.000
G1 F1800
G1 X100.250 Y119.750 E9.63936
G1 X100.250 Y100.250 E10.54402
G1 X119.750 Y100.250 E11.44868
G1 X119.750 Y119.690 E12.35055
G1 X119.364 Y119.646 F7800.000
G1 E10.35055 F2400.00000
G92 E0
G1 X109.551 Y109.611 F7800.000
G1 E2.00000 F2400.00000
G1 F1800
G1 X109.551 Y110.449 E2.03903
G1 X110.449 Y110.449 E2.08085
G1 X110.449 Y109.551 E2.12268
G1 X109.551 Y109.551 E2.16451
G1 X109.103 Y109.163 F7800.000
G1 F1800
G1 X109.103 Y110.897 E2.24536
G1 X110.897 Y110.897 E2.32901
G1 X110.897 Y109.103 E2.41266
G1 X109.103 Y109.103 E2.49631
G1 X108.654 Y108.714 F7800.000
G1 F1800
G1 X108.654 Y111.346 E2.61899
G1 X111.346 Y111.346 E2.74447
G1 X111.346 Y108.654 E2.86994
G1 X108.654 Y108.654 E2.99542
G1 X108.206 Y108.266 F7800.000
G1 F1800
G1 X108.206 Y111.794 E3.15992
G1 X111.794 Y111.794 E3.32722
G1 X111.794 Y108.206 E3.49453
G1 X108.206 Y108.206 E3.66183
G1 X107.757 Y107.817 F7800.000
G1 F1800
G1 X107.757 Y112.243 E3.86816
G1 X112.243 Y112.243 E4.07728
G1 X112.243 Y107.757 E4.28641
G1 X107.757 Y107.757 E4.49553
G1 X107.309 Y107.369 F7800.000
G1 F1800
G1 X107.309 Y112.691 E4.74369
G1 X112.691 Y112.691 E4.99464
G1 X112.691 Y107.309 E5.24559
G1 X107.309 Y107.309 E5.49654
G1 X106.860 Y106.920 F7800.000
G1 F1800
G1 X106.860 Y113.140 E5.78652
G1 X113.140 Y113.140 E6.07929
G1 X113.140 Y106.860 E6.37207
G1 X106.860 Y106.860 E6.66484
G1 X106.412 Y106.472 F7800.000
G1 F1800
G1 X106.412 Y113.588 E6.99665
G1 X113.588 Y113.588 E7.33125
G1 X113.588 Y106.412 E7.66585
G1 X106.412 Y106.412 E8.00045
G1 X105.963 Y106.023 F7800.000
G1 F1800
G1 X105.963 Y114.037 E8.37408
G1 X114.037 Y114.037 E8.75050
G1 X114.037 Y105.963 E9.12693
G1 X105.963 Y105.963 E9.50335
G1 X105.514 Y105.574 F7800.000
G1 F1800
G1 X105.514 Y114.486 E9.91881
G1 X114.486 Y114.486 E10.33706
G1 X114.486 Y105.514 E10.75531
G1 X105.514 Y105.514 E11.17356
G1 X105.066 Y105.126 F7800.000
G1 F1800
G1 X105.066 Y114.934 E11.63084
G1 X114.934 Y114.934 E12.09091
G1 X114.934 Y105.066 E12.55099
G1 X105.066 Y105.066 E13.01106
G1 X104.617 Y104.677 F7800.000
G1 F1800
G1 X104.617 Y115.383 E13.51017
G1 X115.383 Y115.383 E14.01207
G1 X115.383 Y104.617 E14.51397
G1 X104.617 Y104.617 E15.01587
G1 X104.169 Y104.229 F7800.000
G1 F1800
G1 X104.169 Y115.831 E15.55680
G1 X115.831 Y115.831 E16.10052
G1 X115.831 Y104.169 E16.64425
G1 X104.169 Y104.169 E17.18797
G1 X103.720 Y103.780 F7800.000
G1 F1800
G1 X103.720 Y116.280 E17.77073
G1 X116.280 Y116.280 E18.35628
G1 X116.280 Y103.720 E18.94183
G1 X103.720 Y103.720 E19.52738
G1 X103.272 Y103.332 F7800.000
G1 F1800
G1 X103.272 Y116.728 E20.15196
G1 X116.728 Y116.728 E20.77933
G1 X116.728 Y103.272 E21.40671
G1 X103.272 Y103.272 E22.03408
G1 X102.823 Y102.883 F7800.000
G1 F1800
G1 X102.823 Y117.177 E22.70048
G1 X117.177 Y117.177 E23.36968
G1 X117.177 Y102.823 E24.03889
G1 X102.823 Y102.823 E24.70809
G1 X102.375 Y102.435 F7800.000
G1 F1800
G1 X102.375 Y117.625 E25.41631
G1 X117.625 Y117.625 E26.12734
G1 X117.625 Y102.375 E26.83836
G1 X102.375 Y102.375 E27.54939
G1 X101.926 Y101.986 F7800.000
G1 F1800
G1 X101.926 Y118.074 E28.29944
G1 X118.074 Y118.074 E29.05229
G1 X118.074 Y101.926 E29.80514
G1 X101.926 Y101.926 E30.55799
G1 X101.477 Y101.537 F7800.000
G1 F1800
G1 X101.477 Y118.523 E31.34987
G1 X118.523 Y118.523 E32.14454
G1 X118.523 Y101.477 E32.93922
G1 X101.477 Y101.477 E33.73390
G1 Z0.450 F7800.000
G1 X118.961 Y118.961
G1 F3600
G1 X101.039 Y118.961 E34.34052
G1 X101.039 Y101.039 E34.94715
G1 X118.961 Y101.039 E35.55378
G1 X118.961 Y118.901 E36.15837
G1 X119.368 Y119.368 F7800.000
G1 F3600
G1 X100.632 Y119.368 E36.79256
G1 X100.632 Y100.632 E37.42675
G1 X119.368 Y100.632 E38.06093
G1 X119.368 Y119.308 E38.69309
G1 X119.775 Y119.775 F7800.000
G1 F1800
G1 X100.225 Y119.775 E39.35483
G1 X100.225 Y100.225 E40.01657
G1 X119.775 Y100.225 E40.67832
G1 X119.775 Y119.715 E41.33803
G1 X119.389 Y119.671 F7800.000
G1 X118.008 Y118.839
G1 F1200
G1 X118.656 Y118.191 E41.36931
G1 X118.656 Y117.610 E41.38915
G1 X117.610 Y118.656 E41.43965
G1 X117.029 Y118.656 E41.45949
G1 X118.656 Y117.029 E41.53804
G1 X118.656 Y116.448 E41.55788
G1 X116.448 Y118.656 E41.66450
G1 X115.867 Y118.656 E41.68434
G1 X118.656 Y115.867 E41.81901
G1 X118.656 Y115.287 E41.83886
G1 X115.287 Y118.656 E42.00159
G1 X114.706 Y118.656 E42.02143
G1 X118.656 Y114.706 E42.21223
G1 X118.656 Y114.125 E42.23207
G1 X114.125 Y118.656 E42.45093
G1 X113.544 Y118.656 E42.47077
G1 X118.656 Y113.544 E42.71769
G1 X118.656 Y112.963 E42.73753
G1 X112.963 Y118.656 E43.01251
G1 X112.382 Y118.656 E43.03236
G1 X118.656 Y112.382 E43.33540
G1 X118.656 Y111.801 E43.35524
G1 X111.801 Y118.656 E43.68634
G1 X111.220 Y118.656 E43.70618
G1 X118.656 Y111.220 E44.06535
G1 X118.656 Y110.639 E44.08519
G1 X110.639 Y118.656 E44.47241
G1 X110.058 Y118.656 E44.49225
G1 X118.656 Y110.058 E44.90754
G1 X118.656 Y109.477 E44.92738
G1 X109.477 Y118.656 E45.37073
G1 X108.896 Y118.656 E45.39057
G1 X118.656 Y108.896 E45.86197
G1 X118.656 Y108.315 E45.88182
G1 X108.315 Y118.656 E46.38128
G1 X107.735 Y118.656 E46.40113
G1 X118.656 Y107.735 E46.92865
G1 X118.656 Y107.154 E46.94850
G1 X107.154 Y118.656 E47.50409
G1 X106.573 Y118.656 E47.52393
G1 X118.656 Y106.573 E48.10758
G1 X118.656 Y105.992 E48.12742
G1 X105.992 Y118.656 E48.73913
G1 X105.411 Y118.656 E48.75897
G1 X118.656 Y105.411 E49.39874
G1 X118.656 Y104.830 E49.41859
G1 X104.830 Y118.656 E50.08642
G1 X104.249 Y118.656 E50.10626
G1 X118.656 Y104.249 E50.80216
G1 X118.656 Y103.668 E50.82200
G1 X103.668 Y118.656 E51.54595
G1 X103.087 Y118.656 E51.56579
G1 X118.656 Y103.087 E52.31781
G1 X118.656 Y102.506 E52.33765
G1 X102.506 Y118.656 E53.11773
G1 X101.925 Y118.656 E53.13757
G1 X118.656 Y101.925 E53.94571
G1 X118.656 Y101.344 E53.96555
G1 X101.344 Y118.655 E54.80174
G1 X101.344 Y118.075 E54.82158
G1 X118.075 Y101.344 E55.62972
G1 X117.494 Y101.344 E55.64956
G1 X101.344 Y117.494 E56.42963
G1 X101.344 Y116.913 E56.44947
G1 X116.913 Y101.344 E57.20148
G1 X116.332 Y101.344 E57.22132
G1 X101.344 Y116.332 E57.94527
G1 X101.344 Y115.751 E57.96511
G1 X115.751 Y101.344 E58.66100
G1 X115.170 Y101.344 E58.68084
G1 X101.344 Y115.170 E59.34867
G1 X101.344 Y114.589 E59.36851
G1 X114.589 Y101.344 E60.00828
G1 X114.008 Y101.344 E60.02812
G1 X101.344 Y114.008 E60.63982
G1 X101.344 Y113.427 E60.65967
G1 X113.427 Y101.344 E61.24331
G1 X112.846 Y101.344 E61.26315
G1 X101.344 Y112.846 E61.81874
G1 X101.344 Y112.265 E61.83858
G1 X112.265 Y101.344 E62.36610
G1 X111.684 Y101.344 E62.38594
G1 X101.344 Y111.684 E62.88540
G1 X101.344 Y111.103 E62.90525
G1 X111.103 Y101.344 E63.37665
G1 X110.523 Y101.344 E63.39649
G1 X101.344 Y110.523 E63.83983
G1 X101.344 Y109.942 E63.85967
G1 X109.942 Y101.344 E64.27495
G1 X109.361 Y101.344 E64.29479
G1 X101.344 Y109.361 E64.68201
G1 X101.344 Y108.780 E64.70185
G1 X108.780 Y101.344 E65.06101
G1 X108.199 Y101.344 E65.08085
G1 X101.344 Y108.199 E65.41194
G1 X101.344 Y107.618 E65.43179
G1 X107.618 Y101.344 E65.73482
G1 X107.037 Y101.344 E65.75466
G1 X101.344 Y107.037 E66.02964
G1 X101.344 Y106.456 E66.04948
G1 X106.456 Y101.344 E66.29639
G1 X105.875 Y101.344 E66.31623
G1 X101.344 Y105.875 E66.53508
G1 X101.344 Y105.294 E66.55493
G1 X105.294 Y101.344 E66.74572
G1 X104.713 Y101.344 E66.76556
G1 X101.344 Y104.713 E66.92829
G1 X101.344 Y104.132 E66.94813
G1 X104.132 Y101.344 E67.08280
G1 X103.551 Y101.344 E67.10264
G1 X101.344 Y103.551 E67.20925
G1 X101.344 Y102.971 E67.22909
G1 X102.971 Y101.344 E67.30764
G1 X102.390 Y101.344 E67.32748
G1 X101.344 Y102.390 E67.37797
G1 X101.344 Y101.809 E67.39781
G1 X101.992 Y101.161 E67.42909
G1 Z0.650 F7800.000
G1 X118.961 Y118.961
G1 F3600
G1 X101.039 Y118.961 E68.03571
G1 X101.039 Y101.039 E68.64234
G1 X118.961 Y101.039 E69.24897
G1 X118.961 Y118.901 E69.85356
G1 X119.368 Y119.368 F7800.000
G1 F3600
G1 X100.632 Y119.368 E70.48775
G1 X100.632 Y100.632 E71.12194
G1 X119.368 Y100.632 E71.75612
G1 X119.368 Y119.308 E72.38828
G1 X119.775 Y119.775 F7800.000
G1 F1800
G1 X100.225 Y119.775 E73.05002
G1 X100.225 Y100.225 E73.71176
G1 X119.775 Y100.225 E74.37351
G1 X119.775 Y119.715 E75.03322
G1 X119.389 Y119.671 F7800.000
G1 X118.839 Y101.992
G1 F1200
G1 X118.191 Y101.344 E75.06450
G1 X117.610 Y101.344 E75.08434
G1 X118.656 Y102.390 E75.13484
G1 X118.656 Y102.971 E75.15468
G1 X117.029 Y101.344 E75.23323
G1 X116.448 Y101.344 E75.25307
G1 X118.656 Y103.552 E75.35969
G1 X118.656 Y104.133 E75.37953
G1 X115.867 Y101.344 E75.51421
G1 X115.287 Y101.344 E75.53405
G1 X118.656 Y104.713 E75.69678
G1 X118.656 Y105.294 E75.71663
G1 X114.706 Y101.344 E75.90742
G1 X114.125 Y101.344 E75.92726
G1 X118.656 Y105.875 E76.14612
G1 X118.656 Y106.456 E76.16596
G1 X113.544 Y101.344 E76.41288
G1 X112.963 Y101.344 E76.43273
G1 X118.656 Y107.037 E76.70770
G1 X118.656 Y107.618 E76.72755
G1 X112.382 Y101.344 E77.03059
G1 X111.801 Y101.344 E77.05043
G1 X118.656 Y108.199 E77.38153
G1 X118.656 Y108.780 E77.40137
G1 X111.220 Y101.344 E77.76054
G1 X110.639 Y101.344 E77.78038
G1 X118.656 Y109.361 E78.16760
G1 X118.656 Y109.942 E78.18744
G1 X110.058 Y101.344 E78.60273
G1 X109.477 Y101.344 E78.62257
G1 X118.656 Y110.523 E79.06592
G1 X118.656 Y111.104 E79.08576
G1 X108.896 Y101.344 E79.55716
G1 X108.315 Y101.344 E79.57701
G1 X118.656 Y111.685 E80.07647
G1 X118.656 Y112.265 E80.09631
G1 X107.735 Y101.344 E80.62384
G1 X107.154 Y101.344 E80.64368
G1 X118.656 Y112.846 E81.19927
G1 X118.656 Y113.427 E81.21912
G1 X106.573 Y101.344 E81.80277
G1 X105.992 Y101.344 E81.82261
G1 X118.656 Y114.008 E82.43432
G1 X118.656 Y114.589 E82.45416
G1 X105.411 Y101.344 E83.09393
G1 X104.830 Y101.344 E83.11377
G1 X118.656 Y115.170 E83.78161
G1 X118.656 Y115.751 E83.80145
G1 X104.249 Y101.344 E84.49734
G1 X103.668 Y101.344 E84.51719
G1 X118.656 Y116.332 E85.24114
G1 X118.656 Y116.913 E85.26098
G1 X103.087 Y101.344 E86.01300
G1 X102.506 Y101.344 E86.03284
G1 X118.656 Y117.494 E86.81292
G1 X118.656 Y118.075 E86.83276
G1 X101.925 Y101.344 E87.64090
G1 X101.344 Y101.344 E87.66074
G1 X118.655 Y118.656 E88.49693
G1 X118.075 Y118.656 E88.51677
G1 X101.344 Y101.925 E89.32490
G1 X101.344 Y102.506 E89.34474
G1 X117.494 Y118.656 E90.12482
G1 X116.913 Y118.656 E90.14466
G1 X101.344 Y103.087 E90.89667
G1 X101.344 Y103.668 E90.91651
G1 X116.332 Y118.656 E91.64046
G1 X115.751 Y118.656 E91.66030
G1 X101.344 Y104.249 E92.35619
G1 X101.344 Y104.830 E92.37603
G1 X115.170 Y118.656 E93.04386
G1 X114.589 Y118.656 E93.06370
G1 X101.344 Y105.411 E93.70346
G1 X101.344 Y105.992 E93.72331
G1 X114.008 Y118.656 E94.33501
G1 X113.427 Y118.656 E94.35485
G1 X101.344 Y106.573 E94.93850
G1 X101.344 Y107.154 E94.95834
G1 X112.846 Y118.656 E95.51392
G1 X112.265 Y118.656 E95.53377
G1 X101.344 Y107.735 E96.06129
G1 X101.344 Y108.316 E96.08113
G1 X111.684 Y118.656 E96.58059
G1 X111.103 Y118.656 E96.60043
G1 X101.344 Y108.897 E97.07183
G1 X101.344 Y109.477 E97.09168
G1 X110.523 Y118.656 E97.53501
G1 X109.942 Y118.656 E97.55486
G1 X101.344 Y110.058 E97.97014
G1 X101.344 Y110.639 E97.98998
G1 X109.361 Y118.656 E98.37720
G1 X108.780 Y118.656 E98.39704
G1 X101.344 Y111.220 E98.75619
G1 X101.344 Y111.801 E98.77604
G1 X108.199 Y118.656 E99.10713
G1 X107.618 Y118.656 E99.12697
G1 X101.344 Y112.382 E99.43001
G1 X101.344 Y112.963 E99.44985
G1 X107.037 Y118.656 E99.72482
G1 X106.456 Y118.656 E99.74467
G1 X101.344 Y113.544 E99.99158
G1 X101.344 Y114.125 E100.01142
G1 X105.875 Y118.656 E100.23027
G1 X105.294 Y118.656 E100.25012
G1 X101.344 Y114.706 E100.44091
G1 X101.344 Y115.287 E100.46075
G1 X104.713 Y118.656 E100.62348
G1 X104.132 Y118.656 E100.64332
G1 X101.344 Y115.868 E100.77799
G1 X101.344 Y116.449 E100.79783
G1 X103.551 Y118.656 E100.90444
G1 X102.971 Y118.656 E100.92428
G1 X101.344 Y117.029 E101.00283
G1 X101.344 Y117.610 E101.02267
G1 X102.390 Y118.656 E101.07316
G1 X101.809 Y118.656 E101.09300
G1 X101.161 Y118.008 E101.12427
M106 S244.8
G1 Z0.850 F7800.000
G1 X118.961 Y118.961
G1 F3600
G1 X101.039 Y118.961 E101.73090
G1 X101.039 Y101.039 E102.33753
G1 X118.961 Y101.039 E102.94416
G1 X118.961 Y118.901 E103.54875
G1 X119.368 Y119.368 F7800.000
G1 F3600
G1 X100.632 Y119.368 E104.18294
G1 X100.632 Y100.632 E104.81713
G1 X119.368 Y100.632 E105.45131
G1 X119.368 Y119.308 E106.08347
G1 X119.775 Y119.775 F7800.000
G1 F1800
G1 X100.225 Y119.775 E106.74521
G1 X100.225 Y100.225 E107.40695
G1 X119.775 Y100.225 E108.06870
G1 X119.775 Y119.715 E108.72841
G1 X119.389 Y119.671 F7800.000
G1 X118.839 Y114.576
G1 F4800
G1 X102.928 Y118.839 E109.28596
G1 X102.418 Y118.839 F7800.000
G1 F4800
G1 X101.344 Y117.765 E109.33734
G1 X101.344 Y109.130 E109.62964
G1 X110.870 Y118.656 E110.08563
G1 X118.656 Y118.656 E110.34916
G1 X118.656 Y117.806 E110.37793
G1 X102.194 Y101.344 E111.16591
G1 X110.830 Y101.344 E111.45821
G1 X118.839 Y109.353 E111.84159
G1 X118.839 Y108.254 F7800.000
G1 F4800
G1 X101.161 Y112.991 E112.46106
G1 X101.161 Y106.669 F7800.000
G1 F4800
G1 X118.839 Y101.932 E113.08053
G1 X105.424 Y101.161 F7800.000
G1 F4800
G1 X101.344 Y116.388 E113.61412
G1 X101.344 Y118.656 E113.69087
G1 X107.059 Y118.656 E113.88428
G1 X111.697 Y101.344 E114.49091
G1 X118.019 Y101.344 E114.70489
G1 X113.331 Y118.839 E115.31794
G1 Z1.050 F7800.000
G1 X118.961 Y118.961
G1 F3600
G1 X101.039 Y118.961 E115.92457
G1 X101.039 Y101.039 E116.53120
G1 X118.961 Y101.039 E117.13782
G1 X118.961 Y118.901 E117.74242
G1 X119.368 Y119.368 F7800.000
G1 F3600
G1 X100.632 Y119.368 E118.37661
G1 X100.632 Y100.632 E119.01079
G1 X119.368 Y100.632 E119.64498
G1 X119.368 Y119.308 E120.27713
G1 X119.775 Y119.775 F7800.000
G1 F1800
G1 X100.225 Y119.775 E120.93888
