; generated by Slic3r Prusa Edition 1.42.0-beta2+linux64 on 2019-05-17 at 16:26:18

; 

; external perimeters extrusion width = 0.45mm
; perimeters extrusion width = 0.45mm
; infill extrusion width = 0.45mm
; solid infill extrusion width = 0.45mm
; top infill extrusion width = 0.40mm
; first layer extrusion width = 0.50mm

M201 X9000 Y9000 Z500 E10000 ; sets maximum accelerations, mm/sec^2
M203 X500 Y500 Z12 E120 ; sets maximum feedrates, mm/sec
M204 P1500 R1500 T1500 ; sets acceleration (P, T) and retract acceleration (R), mm/sec^2
M205 X10.00 Y10.00 Z0.20 E2.50 ; sets the jerk limits, mm/sec
M205 S0 T0 ; sets the minimum extruding and travel feed rate, mm/sec
M107
M190 S60 ; set bed temperature and wait for it to be reached
M104 S200 ; set temperature
G28 ; home all axes
G1 Z5 F5000 ; lift nozzle
; Filament gcode
M109 S200 ; set temperature and wait for it to be reached
G21 ; set units to millimeters
G90 ; use absolute coordinates
M82 ; use absolute distances for extrusion
G92 E0
G1 Z0.250 F7800.000
G1 E-2.00000 F2400.00000
G92 E0
G1 X85.293 Y85.929 F7800.000
G1 E2.00000 F2400.00000
G1 F1800
G1 X86.210 Y85.064 E2.05851
G1 X87.278 Y84.404 E2.11674
G1 X88.462 Y83.970 E2.17525
G1 X89.704 Y83.784 E2.23348
G1 X130.006 Y83.777 E4.10323
G1 X131.146 Y83.883 E4.15633
G1 X132.253 Y84.199 E4.20972
G1 X133.282 Y84.713 E4.26311
G1 X134.195 Y85.403 E4.31622
G1 X134.970 Y86.255 E4.36961
G1 X135.572 Y87.228 E4.42272
G1 X135.985 Y88.296 E4.47582
G1 X136.196 Y89.421 E4.52893
G1 X136.220 Y130.210 E6.42123
G1 X136.095 Y131.255 E6.47006
G1 X135.794 Y132.270 E6.51918
G1 X135.329 Y133.214 E6.56801
G1 X134.707 Y134.071 E6.61713
G1 X133.745 Y134.970 E6.67820
G1 X132.622 Y135.644 E6.73899
G1 X131.382 Y136.068 E6.79978
G1 X130.081 Y136.223 E6.86057
G1 X89.784 Y136.219 E8.73003
G1 X88.739 Y136.094 E8.77886
G1 X87.730 Y135.794 E8.82770
G1 X86.786 Y135.329 E8.87653
G1 X85.929 Y134.707 E8.92565
G1 X85.030 Y133.745 E8.98672
G1 X84.356 Y132.622 E9.04751
G1 X83.932 Y131.382 E9.10830
G1 X83.777 Y130.081 E9.16909
G1 X83.781 Y89.784 E11.03855
G1 X83.906 Y88.739 E11.08738
G1 X84.206 Y87.730 E11.13622
G1 X84.671 Y86.786 E11.18505
G1 X85.258 Y85.978 E11.23139
G1 E9.23139 F2400.00000
G92 E0
G1 X128.857 Y128.857 F7800.000
G1 E2.00000 F2400.00000
G1 F1800
G1 X91.143 Y128.857 E3.74968
G1 X91.143 Y91.143 E5.49936
G1 X128.857 Y91.143 E7.24904
G1 X128.857 Y128.797 E8.99594
G1 X129.304 Y129.304 F7800.000
G1 F1800
G1 X90.696 Y129.304 E10.78703
G1 X90.696 Y90.696 E12.57812
G1 X129.304 Y90.696 E14.36922
G1 X129.304 Y129.244 E16.15753
G1 X129.750 Y129.750 F7800.000
G1 F1800
G1 X90.250 Y129.750 E17.99004
G1 X90.250 Y90.250 E19.82255
G1 X129.750 Y90.250 E21.65506
G1 X129.750 Y129.690 E23.48478
G1 X129.364 Y129.646 F7800.000
G1 E21.48478 F2400.00000
G92 E0
G1 X109.548 Y109.608 F7800.000
G1 E2.00000 F2400.00000
G1 F1800
G1 X109.548 Y110.452 E2.03961
G1 X110.452 Y110.452 E2.08204
G1 X110.452 Y109.548 E2.12447
G1 X109.548 Y109.548 E2.16690
G1 X109.096 Y109.156 F7800.000
G1 F1800
G1 X109.096 Y110.904 E2.24894
G1 X110.904 Y110.904 E2.33379
G1 X110.904 Y109.096 E2.41865
G1 X109.096 Y109.096 E2.50350
G1 X108.645 Y108.705 F7800.000
G1 F1800
G1 X108.645 Y111.355 E2.62797
G1 X111.355 Y111.355 E2.75525
G1 X111.355 Y108.645 E2.88253
G1 X108.645 Y108.645 E3.00981
G1 X108.193 Y108.253 F7800.000
G1 F1800
G1 X108.193 Y111.807 E3.17670
G1 X111.807 Y111.807 E3.34641
G1 X111.807 Y108.193 E3.51612
G1 X108.193 Y108.193 E3.68583
G1 X107.741 Y107.801 F7800.000
G1 F1800
G1 X107.741 Y112.259 E3.89515
G1 X112.259 Y112.259 E4.10728
G1 X112.259 Y107.741 E4.31942
G1 X107.741 Y107.741 E4.53155
G1 X107.289 Y107.349 F7800.000
G1 F1800
G1 X107.289 Y112.711 E4.78329
G1 X112.711 Y112.711 E5.03785
G1 X112.711 Y107.289 E5.29242
G1 X107.289 Y107.289 E5.54698
G1 X106.838 Y106.898 F7800.000
G1 F1800
G1 X106.838 Y113.162 E5.84115
G1 X113.162 Y113.162 E6.13813
G1 X113.162 Y106.838 E6.43512
G1 X106.838 Y106.838 E6.73211
G1 X106.386 Y106.446 F7800.000
G1 F1800
G1 X106.386 Y113.614 E7.06871
G1 X113.614 Y113.614 E7.40812
G1 X113.614 Y106.386 E7.74754
G1 X106.386 Y106.386 E8.08695
G1 X105.934 Y105.994 F7800.000
G1 F1800
G1 X105.934 Y114.066 E8.46597
G1 X114.066 Y114.066 E8.84781
G1 X114.066 Y105.934 E9.22965
G1 X105.934 Y105.934 E9.61149
G1 X105.482 Y105.542 F7800.000
G1 F1800
G1 X105.482 Y114.518 E10.03294
G1 X114.518 Y114.518 E10.45721
G1 X114.518 Y105.482 E10.88148
G1 X105.482 Y105.482 E11.30574
G1 X105.031 Y105.091 F7800.000
G1 F1800
G1 X105.031 Y114.969 E11.76962
G1 X114.969 Y114.969 E12.23631
G1 X114.969 Y105.031 E12.70301
G1 X105.031 Y105.031 E13.16970
G1 X104.579 Y104.639 F7800.000
G1 F1800
G1 X104.579 Y115.421 E13.67600
G1 X115.421 Y115.421 E14.18512
G1 X115.421 Y104.579 E14.69424
G1 X104.579 Y104.579 E15.20336
G1 X104.127 Y104.187 F7800.000
G1 F1800
G1 X104.127 Y115.873 E15.75209
G1 X115.873 Y115.873 E16.30364
G1 X115.873 Y104.127 E16.85519
G1 X104.127 Y104.127 E17.40673
G1 X103.675 Y103.735 F7800.000
G1 F1800
G1 X103.675 Y116.325 E17.99789
G1 X116.325 Y116.325 E18.59186
G1 X116.325 Y103.675 E19.18583
G1 X103.675 Y103.675 E19.77981
G1 X103.223 Y103.283 F7800.000
G1 F1800
G1 X103.223 Y116.777 E20.41339
G1 X116.777 Y116.777 E21.04979
G1 X116.777 Y103.223 E21.68619
G1 X103.223 Y103.223 E22.32259
G1 X102.772 Y102.832 F7800.000
G1 F1800
G1 X102.772 Y117.228 E22.99860
G1 X117.228 Y117.228 E23.67742
G1 X117.228 Y102.772 E24.35625
G1 X102.772 Y102.772 E25.03507
G1 X102.320 Y102.380 F7800.000
G1 F1800
G1 X102.320 Y117.680 E25.75351
G1 X117.680 Y117.680 E26.47476
G1 X117.680 Y102.320 E27.19601
G1 X102.320 Y102.320 E27.91726
G1 X101.868 Y101.928 F7800.000
G1 F1800
G1 X101.868 Y118.132 E28.67813
G1 X118.132 Y118.132 E29.44181
G1 X118.132 Y101.868 E30.20548
G1 X101.868 Y101.868 E30.96916
G1 X101.416 Y101.476 F7800.000
G1 F1800
G1 X101.416 Y118.584 E31.77245
G1 X118.584 Y118.584 E32.57856
G1 X118.584 Y101.416 E33.38466
G1 X101.416 Y101.416 E34.19077
G1 X100.965 Y101.025 F7800.000
G1 F1800
G1 X100.965 Y119.035 E35.03648
G1 X119.035 Y119.035 E35.88501
G1 X119.035 Y100.965 E36.73354
G1 X100.965 Y100.965 E37.58208
G1 X100.513 Y100.573 F7800.000
G1 F1800
G1 X100.513 Y119.487 E38.47022
G1 X119.487 Y119.487 E39.36117
G1 X119.487 Y100.513 E40.25213
G1 X100.513 Y100.513 E41.14309
G1 X100.061 Y100.121 F7800.000
G1 F1800
G1 X100.061 Y119.939 E42.07366
G1 X119.939 Y119.939 E43.00704
G1 X119.939 Y100.061 E43.94043
G1 X100.061 Y100.061 E44.87381
G1 X99.609 Y99.669 F7800.000
G1 F1800
G1 X99.609 Y120.391 E45.84681
G1 X120.391 Y120.391 E46.82262
G1 X120.391 Y99.609 E47.79843
G1 X99.609 Y99.609 E48.77424
G1 X99.158 Y99.218 F7800.000
G1 F1800
G1 X99.158 Y120.842 E49.78966
G1 X120.842 Y120.842 E50.80790
G1 X120.842 Y99.158 E51.82614
G1 X99.158 Y99.158 E52.84437
G1 X98.706 Y98.766 F7800.000
G1 F1800
G1 X98.706 Y121.294 E53.90222
G1 X121.294 Y121.294 E54.96288
G1 X121.294 Y98.706 E56.02355
G1 X98.706 Y98.706 E57.08421
G1 X98.254 Y98.314 F7800.000
G1 F1800
G1 X98.254 Y121.746 E58.18448
G1 X121.746 Y121.746 E59.28757
G1 X121.746 Y98.254 E60.39067
G1 X98.254 Y98.254 E61.49376
G1 X97.802 Y97.862 F7800.000
G1 F1800
G1 X97.802 Y122.198 E62.63646
G1 X122.198 Y122.198 E63.78197
G1 X122.198 Y97.802 E64.92749
G1 X97.802 Y97.802 E66.07301
G1 X97.350 Y97.410 F7800.000
G1 F1800
G1 X97.350 Y122.650 E67.25813
G1 X122.650 Y122.650 E68.44608
G1 X122.650 Y97.350 E69.63402
G1 X97.350 Y97.350 E70.82196
G1 X96.899 Y96.959 F7800.000
G1 F1800
G1 X96.899 Y123.101 E72.04952
G1 X123.101 Y123.101 E73.27989
G1 X123.101 Y96.899 E74.51026
G1 X96.899 Y96.899 E75.74062
G1 X96.447 Y96.507 F7800.000
G1 F1800
G1 X96.447 Y123.553 E77.01060
G1 X123.553 Y123.553 E78.28340
G1 X123.553 Y96.447 E79.55620
G1 X96.447 Y96.447 E80.82899
G1 X95.995 Y96.055 F7800.000
G1 F1800
G1 X95.995 Y124.005 E82.14140
G1 X124.005 Y124.005 E83.45662
G1 X124.005 Y95.995 E84.77184
G1 X95.995 Y95.995 E86.08707
G1 X95.543 Y95.603 F7800.000
G1 F1800
G1 X95.543 Y124.457 E87.44190
G1 X124.457 Y124.457 E88.79955
G1 X124.457 Y95.543 E90.15720
G1 X95.543 Y95.543 E91.51485
G1 X95.092 Y95.152 F7800.000
G1 F1800
G1 X95.092 Y124.908 E92.91211
G1 X124.908 Y124.908 E94.31218
G1 X124.908 Y95.092 E95.71226
G1 X95.092 Y95.092 E97.11233
G1 X94.640 Y94.700 F7800.000
G1 F1800
G1 X94.640 Y125.360 E98.55202
G1 X125.360 Y125.360 E99.99452
G1 X125.360 Y94.640 E101.43702
G1 X94.640 Y94.640 E102.87952
G1 X94.188 Y94.248 F7800.000
G1 F1800
G1 X94.188 Y125.812 E104.36164
G1 X125.812 Y125.812 E105.84656
G1 X125.812 Y94.188 E107.33149
G1 X94.188 Y94.188 E108.81642
G1 X93.736 Y93.796 F7800.000
G1 F1800
G1 X93.736 Y126.264 E110.34096
G1 X126.264 Y126.264 E111.86831
G1 X126.264 Y93.736 E113.39567
G1 X93.736 Y93.736 E114.92302
G1 X93.285 Y93.345 F7800.000
G1 F1800
G1 X93.285 Y126.715 E116.48999
G1 X126.715 Y126.715 E118.05977
G1 X126.715 Y93.285 E119.62955
G1 X93.285 Y93.285 E121.19933
G1 X92.833 Y92.893 F7800.000
G1 F1800
G1 X92.833 Y127.167 E122.80873
G1 X127.167 Y127.167 E124.42093
G1 X127.167 Y92.833 E126.03314
G1 X92.833 Y92.833 E127.64535
G1 X92.381 Y92.441 F7800.000
G1 F1800
G1 X92.381 Y127.619 E129.29717
G1 X127.619 Y127.619 E130.95180
G1 X127.619 Y92.381 E132.60644
G1 X92.381 Y92.381 E134.26107
G1 X91.929 Y91.989 F7800.000
G1 F1800
G1 X91.929 Y128.071 E135.95531
G1 X128.071 Y128.071 E137.65237
G1 X128.071 Y91.929 E139.34944
G1 X91.929 Y91.929 E141.04650
G1 X91.477 Y91.537 F7800.000
G1 F1800
G1 X91.477 Y128.523 E142.78317
G1 X128.523 Y128.523 E144.52265
G1 X128.523 Y91.477 E146.26214
G1 X91.477 Y91.477 E148.00163
G1 Z0.450 F7800.000
G1 X128.961 Y128.961
G1 F3600
G1 X91.039 Y128.961 E149.28523
G1 X91.039 Y91.039 E150.56884
G1 X128.961 Y91.039 E151.85244
G1 X128.961 Y128.901 E153.13401
G1 X129.368 Y129.368 F7800.000
G1 F3600
G1 X90.632 Y129.368 E154.44517
G1 X90.632 Y90.632 E155.75634
G1 X129.368 Y90.632 E157.06750
G1 X129.368 Y129.308 E158.37663
G1 X129.775 Y129.775 F7800.000
G1 F1800
G1 X90.225 Y129.775 E159.71535
G1 X90.225 Y90.225 E161.05407
G1 X129.775 Y90.225 E162.39279
G1 X129.775 Y129.715 E163.72948
G1 X129.389 Y129.671 F7800.000
G1 X128.016 Y128.839
G1 F1200
G1 X128.656 Y128.199 E163.76012
G1 X128.656 Y127.623 E163.77962
G1 X127.623 Y128.656 E163.82906
G1 X127.047 Y128.656 E163.84856
G1 X128.656 Y127.047 E163.92557
G1 X128.656 Y126.471 E163.94507
G1 X126.471 Y128.656 E164.04966
G1 X125.895 Y128.656 E164.06916
G1 X128.656 Y125.895 E164.20132
G1 X128.656 Y125.320 E164.22082
G1 X125.320 Y128.656 E164.38055
G1 X124.744 Y128.656 E164.40005
G1 X128.656 Y124.744 E164.58736
G1 X128.656 Y124.168 E164.60686
G1 X124.168 Y128.656 E164.82174
G1 X123.592 Y128.656 E164.84123
G1 X128.656 Y123.592 E165.08369
G1 X128.656 Y123.016 E165.10318
G1 X123.016 Y128.656 E165.37321
G1 X122.440 Y128.656 E165.39271
G1 X128.656 Y122.440 E165.69031
G1 X128.656 Y121.864 E165.70980
G1 X121.864 Y128.656 E166.03498
G1 X121.289 Y128.656 E166.05447
G1 X128.656 Y121.289 E166.40722
G1 X128.656 Y120.713 E166.42672
G1 X120.713 Y128.656 E166.80704
G1 X120.137 Y128.656 E166.82653
G1 X128.656 Y120.137 E167.23442
G1 X128.656 Y119.561 E167.25392
G1 X119.561 Y128.656 E167.68938
G1 X118.985 Y128.656 E167.70888
G1 X128.656 Y118.985 E168.17192
G1 X128.656 Y118.409 E168.19142
G1 X118.409 Y128.656 E168.68203
G1 X117.833 Y128.656 E168.70152
G1 X128.656 Y117.833 E169.21971
G1 X128.656 Y117.258 E169.23920
G1 X117.258 Y128.656 E169.78496
G1 X116.682 Y128.656 E169.80445
G1 X128.656 Y116.682 E170.37778
G1 X128.656 Y116.106 E170.39728
G1 X116.106 Y128.656 E170.99818
G1 X115.530 Y128.656 E171.01768
G1 X128.656 Y115.530 E171.64615
G1 X128.656 Y114.954 E171.66565
G1 X114.954 Y128.656 E172.32170
G1 X114.378 Y128.656 E172.34119
G1 X128.656 Y114.378 E173.02481
G1 X128.656 Y113.803 E173.04431
G1 X113.803 Y128.656 E173.75550
G1 X113.227 Y128.656 E173.77500
G1 X128.656 Y113.227 E174.51377
G1 X128.656 Y112.651 E174.53326
G1 X112.651 Y128.656 E175.29960
G1 X112.075 Y128.656 E175.31910
G1 X128.656 Y112.075 E176.11301
G1 X128.656 Y111.499 E176.13251
G1 X111.499 Y128.656 E176.95399
G1 X110.923 Y128.656 E176.97349
G1 X128.656 Y110.923 E177.82255
G1 X128.656 Y110.347 E177.84204
G1 X110.347 Y128.656 E178.71867
G1 X109.772 Y128.656 E178.73817
G1 X128.656 Y109.772 E179.64237
G1 X128.656 Y109.196 E179.66187
G1 X109.196 Y128.656 E180.59364
G1 X108.620 Y128.656 E180.61314
G1 X128.656 Y108.620 E181.57249
G1 X128.656 Y108.044 E181.59199
G1 X108.044 Y128.656 E182.57891
G1 X107.468 Y128.656 E182.59841
G1 X128.656 Y107.468 E183.61290
G1 X128.656 Y106.892 E183.63240
G1 X106.892 Y128.656 E184.67446
G1 X106.316 Y128.656 E184.69396
G1 X128.656 Y106.317 E185.76360
G1 X128.656 Y105.741 E185.78310
G1 X105.741 Y128.656 E186.88031
G1 X105.165 Y128.656 E186.89981
G1 X128.656 Y105.165 E188.02459
G1 X128.656 Y104.589 E188.04409
G1 X104.589 Y128.656 E189.19645
G1 X104.013 Y128.656 E189.21595
G1 X128.656 Y104.013 E190.39588
G1 X128.656 Y103.437 E190.41538
G1 X103.437 Y128.656 E191.62288
G1 X102.861 Y128.656 E191.64238
G1 X128.656 Y102.861 E192.87745
G1 X128.656 Y102.286 E192.89695
G1 X102.286 Y128.656 E194.15960
G1 X101.710 Y128.656 E194.17910
G1 X128.656 Y101.710 E195.46932
G1 X128.656 Y101.134 E195.48882
G1 X101.134 Y128.656 E196.80661
G1 X100.558 Y128.656 E196.82611
G1 X128.656 Y100.558 E198.17148
G1 X128.656 Y99.982 E198.19098
G1 X99.982 Y128.656 E199.56392
G1 X99.406 Y128.656 E199.58342
G1 X128.656 Y99.406 E200.98393
G1 X128.656 Y98.830 E201.00343
G1 X98.830 Y128.656 E202.43152
G1 X98.255 Y128.656 E202.45101
G1 X128.656 Y98.255 E203.90667
G1 X128.656 Y97.679 E203.92617
G1 X97.679 Y128.656 E205.40940
G1 X97.103 Y128.656 E205.42890
G1 X128.656 Y97.103 E206.93971
G1 X128.656 Y96.527 E206.95920
G1 X96.527 Y128.656 E208.49758
G1 X95.951 Y128.656 E208.51708
G1 X128.656 Y95.951 E210.08303
G1 X128.656 Y95.375 E210.10253
G1 X95.375 Y128.656 E211.69605
G1 X94.799 Y128.656 E211.71555
G1 X128.656 Y94.800 E213.33665
G1 X128.656 Y94.224 E213.35614
G1 X94.224 Y128.656 E215.00481
G1 X93.648 Y128.656 E215.02431
G1 X128.656 Y93.648 E216.70055
G1 X128.656 Y93.072 E216.72005
G1 X93.072 Y128.656 E218.42387
G1 X92.496 Y128.656 E218.44336
G1 X128.656 Y92.496 E220.17475
G1 X128.656 Y91.920 E220.19425
G1 X91.920 Y128.656 E221.95321
G1 X91.344 Y128.655 E221.97271
G1 X128.656 Y91.344 E223.75924
G1 X128.080 Y91.344 E223.77873
G1 X91.344 Y128.080 E225.53769
G1 X91.344 Y127.504 E225.55719
G1 X127.504 Y91.344 E227.28858
G1 X126.928 Y91.344 E227.30807
G1 X91.344 Y126.928 E229.01188
G1 X91.344 Y126.352 E229.03138
G1 X126.352 Y91.344 E230.70762
G1 X125.776 Y91.344 E230.72712
G1 X91.344 Y125.776 E232.37578
G1 X91.344 Y125.200 E232.39528
G1 X125.200 Y91.344 E234.01638
G1 X124.625 Y91.344 E234.03587
G1 X91.344 Y124.625 E235.62939
G1 X91.344 Y124.049 E235.64889
G1 X124.049 Y91.344 E237.21484
G1 X123.473 Y91.344 E237.23434
G1 X91.344 Y123.473 E238.77271
G1 X91.344 Y122.897 E238.79221
G1 X122.897 Y91.344 E240.30301
G1 X122.321 Y91.344 E240.32251
G1 X91.344 Y122.321 E241.80574
G1 X91.344 Y121.745 E241.82523
G1 X121.745 Y91.344 E243.28089
G1 X121.169 Y91.344 E243.30039
G1 X91.344 Y121.169 E244.72847
G1 X91.344 Y120.594 E244.74797
G1 X120.594 Y91.344 E246.14848
G1 X120.018 Y91.344 E246.16798
G1 X91.344 Y120.018 E247.54091
G1 X91.344 Y119.442 E247.56041
G1 X119.442 Y91.344 E248.90578
G1 X118.866 Y91.344 E248.92527
G1 X91.344 Y118.866 E250.24306
G1 X91.344 Y118.290 E250.26256
G1 X118.290 Y91.344 E251.55278
G1 X117.714 Y91.344 E251.57228
G1 X91.344 Y117.714 E252.83492
G1 X91.344 Y117.139 E252.85442
G1 X117.139 Y91.344 E254.08950
G1 X116.563 Y91.344 E254.10899
G1 X91.344 Y116.563 E255.31649
G1 X91.344 Y115.987 E255.33599
G1 X115.987 Y91.344 E256.51592
G1 X115.411 Y91.344 E256.53542
G1 X91.344 Y115.411 E257.68777
G1 X91.344 Y114.835 E257.70727
G1 X114.835 Y91.344 E258.83205
G1 X114.259 Y91.344 E258.85155
G1 X91.344 Y114.259 E259.94876
G1 X91.344 Y113.683 E259.96825
G1 X113.683 Y91.344 E261.03789
G1 X113.108 Y91.344 E261.05739
G1 X91.344 Y113.108 E262.09945
G1 X91.344 Y112.532 E262.11895
G1 X112.532 Y91.344 E263.13344
G1 X111.956 Y91.344 E263.15293
G1 X91.344 Y111.956 E264.13985
G1 X91.344 Y111.380 E264.15935
G1 X111.380 Y91.344 E265.11869
G1 X110.804 Y91.344 E265.13819
G1 X91.344 Y110.804 E266.06996
G1 X91.344 Y110.228 E266.08946
