; generated by Slic3r Prusa Edition 1.42.0-beta2+linux64 on 2019-05-15 at 15:15:01

; 

; external perimeters extrusion width = 0.45mm
; perimeters extrusion width = 0.45mm
; infill extrusion width = 0.45mm
; solid infill extrusion width = 0.45mm
; top infill extrusion width = 0.40mm
; first layer extrusion width = 0.50mm

M201 X9000 Y9000 Z500 E10000 ; sets maximum accelerations, mm/sec^2
M203 X500 Y500 Z12 E120 ; sets maximum feedrates, mm/sec
M204 P1500 R1500 T1500 ; sets acceleration (P, T) and retract acceleration (R), mm/sec^2
M205 X10.00 Y10.00 Z0.20 E2.50 ; sets the jerk limits, mm/sec
M205 S0 T0 ; sets the minimum extruding and travel feed rate, mm/sec
M107
M190 S60 ; set bed temperature and wait for it to be reached
M104 S200 ; set temperature
G28 ; home all axes
G1 Z5 F5000 ; lift nozzle
; Filament gcode
M109 S200 ; set temperature and wait for it to be reached
G21 ; set units to millimeters
G90 ; use absolute coordinates
M82 ; use absolute distances for extrusion
G92 E0
G1 Z0.250 F7800.000
G1 E-2.00000 F2400.00000
G92 E0
G1 X75.293 Y75.929 F7800.000
G1 E2.00000 F2400.00000
G1 F1800
G1 X76.210 Y75.064 E2.05851
G1 X77.278 Y74.404 E2.11674
G1 X78.462 Y73.970 E2.17525
G1 X79.704 Y73.784 E2.23348
G1 X120.006 Y73.777 E4.10323
G1 X121.146 Y73.883 E4.15633
G1 X122.253 Y74.199 E4.20972
G1 X123.282 Y74.713 E4.26311
G1 X124.195 Y75.403 E4.31622
G1 X124.966 Y76.250 E4.36933
G1 X125.569 Y77.223 E4.42243
G1 X125.985 Y78.296 E4.47582
G1 X126.196 Y79.421 E4.52893
G1 X126.220 Y120.209 E6.42123
G1 X126.094 Y121.261 E6.47035
G1 X125.794 Y122.270 E6.51918
G1 X125.329 Y123.214 E6.56801
G1 X124.707 Y124.071 E6.61713
G1 X123.745 Y124.970 E6.67820
G1 X122.622 Y125.644 E6.73899
G1 X121.382 Y126.068 E6.79978
G1 X120.081 Y126.223 E6.86057
G1 X79.784 Y126.219 E8.73003
G1 X78.739 Y126.094 E8.77886
G1 X77.724 Y125.792 E8.82798
G1 X76.781 Y125.326 E8.87682
G1 X75.929 Y124.707 E8.92565
G1 X75.034 Y123.750 E8.98644
G1 X74.359 Y122.627 E9.04723
G1 X73.932 Y121.382 E9.10830
G1 X73.777 Y120.081 E9.16909
G1 X73.781 Y79.784 E11.03855
G1 X73.907 Y78.733 E11.08767
G1 X74.208 Y77.724 E11.13650
G1 X74.674 Y76.781 E11.18534
G1 X75.258 Y75.978 E11.23139
G1 E9.23139 F2400.00000
G92 E0
G1 X118.857 Y118.857 F7800.000
G1 E2.00000 F2400.00000
G1 F1800
G1 X81.143 Y118.857 E3.74968
G1 X81.143 Y81.143 E5.49936
G1 X118.857 Y81.143 E7.24904
G1 X118.857 Y118.797 E8.99594
G1 X119.304 Y119.304 F7800.000
G1 F1800
G1 X80.696 Y119.304 E10.78703
G1 X80.696 Y80.696 E12.57812
G1 X119.304 Y80.696 E14.36922
G1 X119.304 Y119.244 E16.15753
G1 X119.750 Y119.750 F7800.000
G1 F1800
G1 X80.250 Y119.750 E17.99004
G1 X80.250 Y80.250 E19.82255
G1 X119.750 Y80.250 E21.65506
G1 X119.750 Y119.690 E23.48478
G1 X119.364 Y119.646 F7800.000
G1 E21.48478 F2400.00000
G92 E0
G1 X99.548 Y99.608 F7800.000
G1 E2.00000 F2400.00000
G1 F1800
G1 X99.548 Y100.452 E2.03961
G1 X100.452 Y100.452 E2.08204
G1 X100.452 Y99.548 E2.12447
G1 X99.548 Y99.548 E2.16690
G1 X99.096 Y99.156 F7800.000
G1 F1800
G1 X99.096 Y100.904 E2.24894
G1 X100.904 Y100.904 E2.33379
G1 X100.904 Y99.096 E2.41865
G1 X99.096 Y99.096 E2.50350
G1 X98.645 Y98.705 F7800.000
G1 F1800
G1 X98.645 Y101.355 E2.62797
G1 X101.355 Y101.355 E2.75525
G1 X101.355 Y98.645 E2.88253
G1 X98.645 Y98.645 E3.00981
G1 X98.193 Y98.253 F7800.000
G1 F1800
G1 X98.193 Y101.807 E3.17670
G1 X101.807 Y101.807 E3.34641
G1 X101.807 Y98.193 E3.51612
G1 X98.193 Y98.193 E3.68583
G1 X97.741 Y97.801 F7800.000
G1 F1800
G1 X97.741 Y102.259 E3.89514
G1 X102.259 Y102.259 E4.10728
G1 X102.259 Y97.741 E4.31941
G1 X97.741 Y97.741 E4.53155
G1 X97.289 Y97.349 F7800.000
G1 F1800
G1 X97.289 Y102.711 E4.78329
G1 X102.711 Y102.711 E5.03785
G1 X102.711 Y97.289 E5.29241
G1 X97.289 Y97.289 E5.54697
G1 X96.838 Y96.898 F7800.000
G1 F1800
G1 X96.838 Y103.162 E5.84115
G1 X103.162 Y103.162 E6.13813
G1 X103.162 Y96.838 E6.43512
G1 X96.838 Y96.838 E6.73211
G1 X96.386 Y96.446 F7800.000
G1 F1800
G1 X96.386 Y103.614 E7.06870
G1 X103.614 Y103.614 E7.40812
G1 X103.614 Y96.386 E7.74753
G1 X96.386 Y96.386 E8.08695
G1 X95.934 Y95.994 F7800.000
G1 F1800
G1 X95.934 Y104.066 E8.46597
G1 X104.066 Y104.066 E8.84781
G1 X104.066 Y95.934 E9.22965
G1 X95.934 Y95.934 E9.61149
G1 X95.482 Y95.542 F7800.000
G1 F1800
G1 X95.482 Y104.518 E10.03294
G1 X104.518 Y104.518 E10.45721
G1 X104.518 Y95.482 E10.88147
G1 X95.482 Y95.482 E11.30574
G1 X95.031 Y95.091 F7800.000
G1 F1800
G1 X95.031 Y104.969 E11.76962
G1 X104.969 Y104.969 E12.23631
G1 X104.969 Y95.031 E12.70300
G1 X95.031 Y95.031 E13.16970
G1 X94.579 Y94.639 F7800.000
G1 F1800
G1 X94.579 Y105.421 E13.67600
G1 X105.421 Y105.421 E14.18512
G1 X105.421 Y94.579 E14.69424
G1 X94.579 Y94.579 E15.20336
G1 X94.127 Y94.187 F7800.000
G1 F1800
G1 X94.127 Y105.873 E15.75209
G1 X105.873 Y105.873 E16.30364
G1 X105.873 Y94.127 E16.85518
G1 X94.127 Y94.127 E17.40673
G1 X93.675 Y93.735 F7800.000
G1 F1800
G1 X93.675 Y106.325 E17.99788
G1 X106.325 Y106.325 E18.59186
G1 X106.325 Y93.675 E19.18583
G1 X93.675 Y93.675 E19.77980
G1 X93.223 Y93.283 F7800.000
G1 F1800
G1 X93.223 Y106.777 E20.41339
G1 X106.777 Y106.777 E21.04978
G1 X106.777 Y93.223 E21.68618
G1 X93.223 Y93.223 E22.32258
G1 X92.772 Y92.832 F7800.000
G1 F1800
G1 X92.772 Y107.228 E22.99859
G1 X107.228 Y107.228 E23.67742
G1 X107.228 Y92.772 E24.35624
G1 X92.772 Y92.772 E25.03507
G1 X92.320 Y92.380 F7800.000
G1 F1800
G1 X92.320 Y107.680 E25.75350
G1 X107.680 Y107.680 E26.47476
G1 X107.680 Y92.320 E27.19601
G1 X92.320 Y92.320 E27.91726
G1 X91.868 Y91.928 F7800.000
G1 F1800
G1 X91.868 Y108.132 E28.67812
G1 X108.132 Y108.132 E29.44180
G1 X108.132 Y91.868 E30.20548
G1 X91.868 Y91.868 E30.96916
G1 X91.416 Y91.476 F7800.000
G1 F1800
G1 X91.416 Y108.584 E31.77245
G1 X108.584 Y108.584 E32.57855
G1 X108.584 Y91.416 E33.38466
G1 X91.416 Y91.416 E34.19076
G1 X90.965 Y91.025 F7800.000
G1 F1800
G1 X90.965 Y109.035 E35.03648
G1 X109.035 Y109.035 E35.88501
G1 X109.035 Y90.965 E36.73354
G1 X90.965 Y90.965 E37.58207
G1 X90.513 Y90.573 F7800.000
G1 F1800
G1 X90.513 Y109.487 E38.47021
G1 X109.487 Y109.487 E39.36117
G1 X109.487 Y90.513 E40.25213
G1 X90.513 Y90.513 E41.14309
G1 X90.061 Y90.121 F7800.000
G1 F1800
G1 X90.061 Y109.939 E42.07365
G1 X109.939 Y109.939 E43.00704
G1 X109.939 Y90.061 E43.94042
G1 X90.061 Y90.061 E44.87381
G1 X89.609 Y89.669 F7800.000
G1 F1800
G1 X89.609 Y110.391 E45.84680
G1 X110.391 Y110.391 E46.82261
G1 X110.391 Y89.609 E47.79842
G1 X89.609 Y89.609 E48.77423
G1 X89.158 Y89.218 F7800.000
G1 F1800
G1 X89.158 Y110.842 E49.78966
G1 X110.842 Y110.842 E50.80789
G1 X110.842 Y89.158 E51.82613
G1 X89.158 Y89.158 E52.84437
G1 X88.706 Y88.766 F7800.000
G1 F1800
G1 X88.706 Y111.294 E53.90221
G1 X111.294 Y111.294 E54.96288
G1 X111.294 Y88.706 E56.02354
G1 X88.706 Y88.706 E57.08421
G1 X88.254 Y88.314 F7800.000
G1 F1800
G1 X88.254 Y111.746 E58.18448
G1 X111.746 Y111.746 E59.28757
G1 X111.746 Y88.254 E60.39066
G1 X88.254 Y88.254 E61.49375
G1 X87.802 Y87.862 F7800.000
G1 F1800
G1 X87.802 Y112.198 E62.63645
G1 X112.198 Y112.198 E63.78197
G1 X112.198 Y87.802 E64.92749
G1 X87.802 Y87.802 E66.07300
G1 X87.350 Y87.410 F7800.000
G1 F1800
G1 X87.350 Y112.650 E67.25813
G1 X112.650 Y112.650 E68.44607
G1 X112.650 Y87.350 E69.63402
G1 X87.350 Y87.350 E70.82196
G1 X86.899 Y86.959 F7800.000
G1 F1800
G1 X86.899 Y113.101 E72.04951
G1 X113.101 Y113.101 E73.27988
G1 X113.101 Y86.899 E74.51025
G1 X86.899 Y86.899 E75.74062
G1 X86.447 Y86.507 F7800.000
G1 F1800
G1 X86.447 Y113.553 E77.01060
G1 X113.553 Y113.553 E78.28340
G1 X113.553 Y86.447 E79.55619
G1 X86.447 Y86.447 E80.82899
G1 X85.995 Y86.055 F7800.000
G1 F1800
G1 X85.995 Y114.005 E82.14139
G1 X114.005 Y114.005 E83.45662
G1 X114.005 Y85.995 E84.77184
G1 X85.995 Y85.995 E86.08706
G1 X85.543 Y85.603 F7800.000
G1 F1800
G1 X85.543 Y114.457 E87.44189
G1 X114.457 Y114.457 E88.79954
G1 X114.457 Y85.543 E90.15719
G1 X85.543 Y85.543 E91.51484
G1 X85.092 Y85.152 F7800.000
G1 F1800
G1 X85.092 Y114.908 E92.91210
G1 X114.908 Y114.908 E94.31218
G1 X114.908 Y85.092 E95.71225
G1 X85.092 Y85.092 E97.11233
G1 X84.640 Y84.700 F7800.000
G1 F1800
G1 X84.640 Y115.360 E98.55201
G1 X115.360 Y115.360 E99.99452
G1 X115.360 Y84.640 E101.43702
G1 X84.640 Y84.640 E102.87952
G1 X84.188 Y84.248 F7800.000
G1 F1800
G1 X84.188 Y115.812 E104.36163
G1 X115.812 Y115.812 E105.84656
G1 X115.812 Y84.188 E107.33149
G1 X84.188 Y84.188 E108.81642
G1 X83.736 Y83.796 F7800.000
G1 F1800
G1 X83.736 Y116.264 E110.34096
G1 X116.264 Y116.264 E111.86831
G1 X116.264 Y83.736 E113.39567
G1 X83.736 Y83.736 E114.92302
G1 X83.285 Y83.345 F7800.000
G1 F1800
G1 X83.285 Y116.715 E116.48999
G1 X116.715 Y116.715 E118.05977
G1 X116.715 Y83.285 E119.62955
G1 X83.285 Y83.285 E121.19933
G1 X82.833 Y82.893 F7800.000
G1 F1800
G1 X82.833 Y117.167 E122.80872
G1 X117.167 Y117.167 E124.42093
G1 X117.167 Y82.833 E126.03314
G1 X82.833 Y82.833 E127.64534
G1 X82.381 Y82.441 F7800.000
G1 F1800
G1 X82.381 Y117.619 E129.29716
G1 X117.619 Y117.619 E130.95180
G1 X117.619 Y82.381 E132.60643
G1 X82.381 Y82.381 E134.26107
G1 X81.929 Y81.989 F7800.000
G1 F1800
G1 X81.929 Y118.071 E135.95531
G1 X118.071 Y118.071 E137.65237
G1 X118.071 Y81.929 E139.34943
G1 X81.929 Y81.929 E141.04649
G1 X81.477 Y81.537 F7800.000
G1 F1800
G1 X81.477 Y118.523 E142.78316
G1 X118.523 Y118.523 E144.52265
G1 X118.523 Y81.477 E146.26214
G1 X81.477 Y81.477 E148.00163
G1 Z0.450 F7800.000
G1 X118.961 Y118.961
G1 F3600
G1 X81.039 Y118.961 E149.28523
G1 X81.039 Y81.039 E150.56883
G1 X118.961 Y81.039 E151.85244
G1 X118.961 Y118.901 E153.13401
G1 X119.368 Y119.368 F7800.000
G1 F3600
G1 X80.632 Y119.368 E154.44517
G1 X80.632 Y80.632 E155.75633
G1 X119.368 Y80.632 E157.06749
G1 X119.368 Y119.308 E158.37662
G1 X119.775 Y119.775 F7800.000
G1 F1800
G1 X80.225 Y119.775 E159.71534
G1 X80.225 Y80.225 E161.05406
G1 X119.775 Y80.225 E162.39278
G1 X119.775 Y119.715 E163.72947
G1 X119.389 Y119.671 F7800.000
G1 X118.016 Y118.839
G1 F1200
G1 X118.656 Y118.199 E163.76012
G1 X118.656 Y117.623 E163.77961
G1 X117.623 Y118.656 E163.82906
G1 X117.047 Y118.656 E163.84855
G1 X118.656 Y117.047 E163.92557
G1 X118.656 Y116.471 E163.94507
G1 X116.471 Y118.656 E164.04966
G1 X115.895 Y118.656 E164.06915
G1 X118.656 Y115.895 E164.20132
G1 X118.656 Y115.320 E164.22081
G1 X115.320 Y118.656 E164.38055
G1 X114.744 Y118.656 E164.40005
G1 X118.656 Y114.744 E164.58735
G1 X118.656 Y114.168 E164.60685
G1 X114.168 Y118.656 E164.82173
G1 X113.592 Y118.656 E164.84123
G1 X118.656 Y113.592 E165.08368
G1 X118.656 Y113.016 E165.10318
G1 X113.016 Y118.656 E165.37321
G1 X112.440 Y118.656 E165.39270
G1 X118.656 Y112.440 E165.69030
G1 X118.656 Y111.864 E165.70980
G1 X111.864 Y118.656 E166.03497
G1 X111.289 Y118.656 E166.05447
G1 X118.656 Y111.289 E166.40721
G1 X118.656 Y110.713 E166.42671
G1 X110.713 Y118.656 E166.80703
G1 X110.137 Y118.656 E166.82653
G1 X118.656 Y110.137 E167.23442
G1 X118.656 Y109.561 E167.25391
G1 X109.561 Y118.656 E167.68938
G1 X108.985 Y118.656 E167.70888
G1 X118.656 Y108.985 E168.17191
G1 X118.656 Y108.409 E168.19141
G1 X108.409 Y118.656 E168.68202
G1 X107.833 Y118.656 E168.70152
G1 X118.656 Y107.834 E169.21970
G1 X118.656 Y107.258 E169.23919
G1 X107.258 Y118.656 E169.78495
G1 X106.682 Y118.656 E169.80445
G1 X118.656 Y106.682 E170.37777
G1 X118.656 Y106.106 E170.39727
G1 X106.106 Y118.656 E170.99817
G1 X105.530 Y118.656 E171.01767
G1 X118.656 Y105.530 E171.64614
G1 X118.656 Y104.954 E171.66564
G1 X104.954 Y118.656 E172.32169
G1 X104.378 Y118.656 E172.34118
G1 X118.656 Y104.378 E173.02480
G1 X118.656 Y103.803 E173.04430
G1 X103.803 Y118.656 E173.75549
G1 X103.227 Y118.656 E173.77499
G1 X118.656 Y103.227 E174.51375
G1 X118.656 Y102.651 E174.53325
G1 X102.651 Y118.656 E175.29959
G1 X102.075 Y118.656 E175.31909
G1 X118.656 Y102.075 E176.11300
G1 X118.656 Y101.499 E176.13249
G1 X101.499 Y118.656 E176.95398
G1 X100.923 Y118.656 E176.97347
G1 X118.656 Y100.923 E177.82253
G1 X118.656 Y100.347 E177.84203
G1 X100.347 Y118.656 E178.71866
G1 X99.772 Y118.656 E178.73815
G1 X118.656 Y99.772 E179.64236
G1 X118.656 Y99.196 E179.66185
G1 X99.196 Y118.656 E180.59363
G1 X98.620 Y118.656 E180.61313
G1 X118.656 Y98.620 E181.57247
G1 X118.656 Y98.044 E181.59197
G1 X98.044 Y118.656 E182.57889
G1 X97.468 Y118.656 E182.59839
G1 X118.656 Y97.468 E183.61288
G1 X118.656 Y96.892 E183.63238
G1 X96.892 Y118.656 E184.67445
G1 X96.316 Y118.656 E184.69394
G1 X118.656 Y96.317 E185.76358
G1 X118.656 Y95.741 E185.78308
G1 X95.741 Y118.656 E186.88029
G1 X95.165 Y118.656 E186.89979
G1 X118.656 Y95.165 E188.02457
G1 X118.656 Y94.589 E188.04407
G1 X94.589 Y118.656 E189.19643
G1 X94.013 Y118.656 E189.21593
G1 X118.656 Y94.013 E190.39586
G1 X118.656 Y93.437 E190.41535
G1 X93.437 Y118.656 E191.62286
G1 X92.861 Y118.656 E191.64236
G1 X118.656 Y92.861 E192.87743
G1 X118.656 Y92.286 E192.89693
G1 X92.286 Y118.656 E194.15958
G1 X91.710 Y118.656 E194.17908
G1 X118.656 Y91.710 E195.46930
G1 X118.656 Y91.134 E195.48879
G1 X91.134 Y118.656 E196.80659
G1 X90.558 Y118.656 E196.82609
G1 X118.656 Y90.558 E198.17146
G1 X118.656 Y89.982 E198.19095
G1 X89.982 Y118.656 E199.56389
G1 X89.406 Y118.656 E199.58339
G1 X118.656 Y89.406 E200.98390
G1 X118.656 Y88.830 E201.00340
G1 X88.830 Y118.656 E202.43149
G1 X88.255 Y118.656 E202.45099
G1 X118.656 Y88.255 E203.90665
G1 X118.656 Y87.679 E203.92614
G1 X87.679 Y118.656 E205.40937
G1 X87.103 Y118.656 E205.42887
G1 X118.656 Y87.103 E206.93968
G1 X118.656 Y86.527 E206.95917
G1 X86.527 Y118.656 E208.49755
G1 X85.951 Y118.656 E208.51705
G1 X118.656 Y85.951 E210.08300
G1 X118.656 Y85.375 E210.10250
G1 X85.375 Y118.656 E211.69602
G1 X84.799 Y118.656 E211.71552
G1 X118.656 Y84.800 E213.33662
G1 X118.656 Y84.224 E213.35611
G1 X84.224 Y118.656 E215.00478
G1 X83.648 Y118.656 E215.02428
G1 X118.656 Y83.648 E216.70052
G1 X118.656 Y83.072 E216.72002
G1 X83.072 Y118.656 E218.42383
G1 X82.496 Y118.656 E218.44333
G1 X118.656 Y82.496 E220.17472
G1 X118.656 Y81.920 E220.19422
G1 X81.920 Y118.656 E221.95318
G1 X81.344 Y118.656 E221.97267
G1 X118.656 Y81.344 E223.75920
G1 X118.080 Y81.344 E223.77870
G1 X81.344 Y118.080 E225.53766
G1 X81.344 Y117.504 E225.55716
G1 X117.504 Y81.344 E227.28854
G1 X116.928 Y81.344 E227.30804
G1 X81.344 Y116.928 E229.01185
G1 X81.344 Y116.352 E229.03135
G1 X116.352 Y81.344 E230.70759
G1 X115.776 Y81.344 E230.72709
G1 X81.344 Y115.776 E232.37575
G1 X81.344 Y115.200 E232.39525
G1 X115.200 Y81.344 E234.01634
G1 X114.625 Y81.344 E234.03584
G1 X81.344 Y114.625 E235.62936
G1 X81.344 Y114.049 E235.64886
G1 X114.049 Y81.344 E237.21481
G1 X113.473 Y81.344 E237.23430
G1 X81.344 Y113.473 E238.77268
G1 X81.344 Y112.897 E238.79218
G1 X112.897 Y81.344 E240.30298
G1 X112.321 Y81.344 E240.32248
G1 X81.344 Y112.321 E241.80571
G1 X81.344 Y111.745 E241.82520
G1 X111.745 Y81.344 E243.28086
G1 X111.169 Y81.344 E243.30036
G1 X81.344 Y111.169 E244.72844
G1 X81.344 Y110.594 E244.74794
G1 X110.594 Y81.344 E246.14845
G1 X110.018 Y81.344 E246.16795
G1 X81.344 Y110.018 E247.54089
G1 X81.344 Y109.442 E247.56038
G1 X109.442 Y81.344 E248.90575
G1 X108.866 Y81.344 E248.92524
G1 X81.344 Y108.866 E250.24304
G1 X81.344 Y108.290 E250.26253
G1 X108.290 Y81.344 E251.55275
G1 X107.714 Y81.344 E251.57225
G1 X81.344 Y107.714 E252.83490
G1 X81.344 Y107.139 E252.85439
G1 X107.139 Y81.344 E254.08947
G1 X106.563 Y81.344 E254.10897
G1 X81.344 Y106.563 E255.31647
G1 X81.344 Y105.987 E255.33596
G1 X105.987 Y81.344 E256.51589
G1 X105.411 Y81.344 E256.53539
G1 X81.344 Y105.411 E257.68774
G1 X81.344 Y104.835 E257.70724
G1 X104.835 Y81.344 E258.83202
G1 X104.259 Y81.344 E258.85152
G1 X81.344 Y104.259 E259.94873
G1 X81.344 Y103.683 E259.96823
G1 X103.683 Y81.344 E261.03786
G1 X103.108 Y81.344 E261.05736
G1 X81.344 Y103.108 E262.09943
G1 X81.344 Y102.532 E262.11892
G1 X102.532 Y81.344 E263.13341
G1 X101.956 Y81.344 E263.15291
G1 X81.344 Y101.956 E264.13983
G1 X81.344 Y101.380 E264.15933
G1 X101.380 Y81.344 E265.11867
G1 X100.804 Y81.344 E265.13817
G1 X81.344 Y100.804 E266.06994
G1 X81.344 Y100.228 E266.08944
G1 X100.228 Y81.344 E266.99364
G1 X99.652 Y81.344 E267.01313
G1 X81.344 Y99.652 E267.88976
G1 X81.344 Y99.077 E267.90926
G1 X99.077 Y81.344 E268.75831
