; generated by Slic3r Prusa Edition 1.42.0-beta2+linux64 on 2019-05-17 at 16:27:11

; 

; external perimeters extrusion width = 0.45mm
; perimeters extrusion width = 0.45mm
; infill extrusion width = 0.45mm
; solid infill extrusion width = 0.45mm
; top infill extrusion width = 0.40mm
; first layer extrusion width = 0.50mm

M201 X9000 Y9000 Z500 E10000 ; sets maximum accelerations, mm/sec^2
M203 X500 Y500 Z12 E120 ; sets maximum feedrates, mm/sec
M204 P1500 R1500 T1500 ; sets acceleration (P, T) and retract acceleration (R), mm/sec^2
M205 X10.00 Y10.00 Z0.20 E2.50 ; sets the jerk limits, mm/sec
M205 S0 T0 ; sets the minimum extruding and travel feed rate, mm/sec
M107
M190 S60 ; set bed temperature and wait for it to be reached
M104 S200 ; set temperature
G28 ; home all axes
G1 Z5 F5000 ; lift nozzle
; Filament gcode
M109 S200 ; set temperature and wait for it to be reached
G21 ; set units to millimeters
G90 ; use absolute coordinates
M82 ; use absolute distances for extrusion
G92 E0
G1 Z0.250 F7800.000
G1 E-2.00000 F2400.00000
G92 E0
G1 X75.387 Y75.823 F7800.000
G1 E2.00000 F2400.00000
G1 F1800
G1 X76.309 Y74.990 E2.05766
G1 X77.384 Y74.353 E2.11560
G1 X78.564 Y73.945 E2.17355
G1 X79.802 Y73.780 E2.23149
G1 X140.006 Y73.777 E5.02452
G1 X141.170 Y73.888 E5.07876
G1 X142.293 Y74.215 E5.13301
G1 X143.335 Y74.746 E5.18725
G1 X144.259 Y75.462 E5.24150
G1 X145.029 Y76.334 E5.29546
G1 X145.626 Y77.339 E5.34970
G1 X146.024 Y78.438 E5.40395
G1 X146.210 Y79.593 E5.45819
G1 X146.221 Y140.154 E8.26779
G1 X146.095 Y141.255 E8.31919
G1 X145.779 Y142.310 E8.37030
G1 X145.281 Y143.293 E8.42141
G1 X144.613 Y144.177 E8.47281
G1 X143.651 Y145.039 E8.53274
G1 X142.538 Y145.682 E8.59239
G1 X141.316 Y146.082 E8.65205
G1 X140.038 Y146.223 E8.71170
G1 X79.846 Y146.221 E11.50415
G1 X78.745 Y146.095 E11.55555
G1 X77.690 Y145.779 E11.60666
G1 X76.707 Y145.281 E11.65777
G1 X75.823 Y144.613 E11.70917
G1 X74.961 Y143.651 E11.76911
G1 X74.318 Y142.538 E11.82876
G1 X73.918 Y141.316 E11.88841
G1 X73.777 Y140.038 E11.94806
G1 X73.779 Y79.846 E14.74051
G1 X73.905 Y78.745 E14.79191
G1 X74.221 Y77.690 E14.84302
G1 X74.719 Y76.707 E14.89414
G1 X75.351 Y75.871 E14.94275
G1 E12.94275 F2400.00000
G92 E0
G1 X138.857 Y138.857 F7800.000
G1 E2.00000 F2400.00000
G1 F1800
G1 X81.143 Y138.857 E4.67753
G1 X81.143 Y81.143 E7.35506
G1 X138.857 Y81.143 E10.03260
G1 X138.857 Y138.797 E12.70735
G1 X139.304 Y139.304 F7800.000
G1 F1800
G1 X80.696 Y139.304 E15.42629
G1 X80.696 Y80.696 E18.14524
G1 X139.304 Y80.696 E20.86419
G1 X139.304 Y139.244 E23.58035
G1 X139.750 Y139.750 F7800.000
G1 F1800
G1 X80.250 Y139.750 E26.34071
G1 X80.250 Y80.250 E29.10107
G1 X139.750 Y80.250 E31.86144
G1 X139.750 Y139.690 E34.61901
G1 X139.364 Y139.646 F7800.000
G1 E32.61901 F2400.00000
G92 E0
G1 X109.326 Y109.386 F7800.000
G1 E2.00000 F2400.00000
G1 F1800
G1 X109.326 Y110.674 E2.06012
G1 X110.674 Y110.674 E2.12303
G1 X110.674 Y109.326 E2.18595
G1 X109.326 Y109.326 E2.24887
G1 X108.877 Y108.937 F7800.000
G1 F1800
G1 X108.877 Y111.123 E2.35092
G1 X111.123 Y111.123 E2.45578
G1 X111.123 Y108.877 E2.56064
G1 X108.877 Y108.877 E2.66549
G1 X108.428 Y108.488 F7800.000
G1 F1800
G1 X108.428 Y111.572 E2.80949
G1 X111.572 Y111.572 E2.95629
G1 X111.572 Y108.428 E3.10308
G1 X108.428 Y108.428 E3.24988
G1 X107.979 Y108.039 F7800.000
G1 F1800
G1 X107.979 Y112.021 E3.43582
G1 X112.021 Y112.021 E3.62456
G1 X112.021 Y107.979 E3.81329
G1 X107.979 Y107.979 E4.00203
G1 X107.529 Y107.589 F7800.000
G1 F1800
G1 X107.529 Y112.471 E4.22991
G1 X112.471 Y112.471 E4.46058
G1 X112.471 Y107.529 E4.69126
G1 X107.529 Y107.529 E4.92194
G1 X107.080 Y107.140 F7800.000
G1 F1800
G1 X107.080 Y112.920 E5.19176
G1 X112.920 Y112.920 E5.46438
G1 X112.920 Y107.080 E5.73699
G1 X107.080 Y107.080 E6.00961
G1 X106.631 Y106.691 F7800.000
G1 F1800
G1 X106.631 Y113.369 E6.32137
G1 X113.369 Y113.369 E6.63593
G1 X113.369 Y106.631 E6.95049
G1 X106.631 Y106.631 E7.26504
G1 X106.182 Y106.242 F7800.000
G1 F1800
G1 X106.182 Y113.818 E7.61874
G1 X113.818 Y113.818 E7.97524
G1 X113.818 Y106.182 E8.33174
G1 X106.182 Y106.182 E8.68824
G1 X105.733 Y105.793 F7800.000
G1 F1800
G1 X105.733 Y114.267 E9.08388
G1 X114.267 Y114.267 E9.48232
G1 X114.267 Y105.733 E9.88076
G1 X105.733 Y105.733 E10.27919
G1 X105.284 Y105.344 F7800.000
G1 F1800
G1 X105.284 Y114.716 E10.71677
G1 X114.716 Y114.716 E11.15715
G1 X114.716 Y105.284 E11.59753
G1 X105.284 Y105.284 E12.03791
G1 X104.834 Y104.894 F7800.000
G1 F1800
G1 X104.834 Y115.166 E12.51743
G1 X115.166 Y115.166 E12.99975
G1 X115.166 Y104.834 E13.48207
G1 X104.834 Y104.834 E13.96439
G1 X104.385 Y104.445 F7800.000
G1 F1800
G1 X104.385 Y115.615 E14.48585
G1 X115.615 Y115.615 E15.01010
G1 X115.615 Y104.385 E15.53437
G1 X104.385 Y104.385 E16.05862
G1 X103.936 Y103.996 F7800.000
G1 F1800
G1 X103.936 Y116.064 E16.62202
G1 X116.064 Y116.064 E17.18822
G1 X116.064 Y103.936 E17.75442
G1 X103.936 Y103.936 E18.32062
G1 X103.487 Y103.547 F7800.000
G1 F1800
G1 X103.487 Y116.513 E18.92596
G1 X116.513 Y116.513 E19.53410
G1 X116.513 Y103.487 E20.14224
G1 X103.487 Y103.487 E20.75038
G1 X103.038 Y103.098 F7800.000
G1 F1800
G1 X103.038 Y116.962 E21.39767
G1 X116.962 Y116.962 E22.04774
G1 X116.962 Y103.038 E22.69783
G1 X103.038 Y103.038 E23.34791
G1 X102.589 Y102.649 F7800.000
G1 F1800
G1 X102.589 Y117.411 E24.03713
G1 X117.411 Y117.411 E24.72915
G1 X117.411 Y102.589 E25.42117
G1 X102.589 Y102.589 E26.11319
G1 X102.139 Y102.199 F7800.000
G1 F1800
G1 X102.139 Y117.861 E26.84435
G1 X117.861 Y117.861 E27.57831
G1 X117.861 Y102.139 E28.31227
G1 X102.139 Y102.139 E29.04623
G1 X101.690 Y101.750 F7800.000
G1 F1800
G1 X101.690 Y118.310 E29.81933
G1 X118.310 Y118.310 E30.59523
G1 X118.310 Y101.690 E31.37114
G1 X101.690 Y101.690 E32.14704
G1 X101.241 Y101.301 F7800.000
G1 F1800
G1 X101.241 Y118.759 E32.96208
G1 X118.759 Y118.759 E33.77992
G1 X118.759 Y101.241 E34.59776
G1 X101.241 Y101.241 E35.41560
G1 X100.792 Y100.852 F7800.000
G1 F1800
G1 X100.792 Y119.208 E36.27259
G1 X119.208 Y119.208 E37.13237
G1 X119.208 Y100.792 E37.99215
G1 X100.792 Y100.792 E38.85193
G1 X100.343 Y100.403 F7800.000
G1 F1800
G1 X100.343 Y119.657 E39.75085
G1 X119.657 Y119.657 E40.65257
G1 X119.657 Y100.343 E41.55430
G1 X100.343 Y100.343 E42.45602
G1 X99.894 Y99.954 F7800.000
G1 F1800
G1 X99.894 Y120.106 E43.39688
G1 X120.106 Y120.106 E44.34054
G1 X120.106 Y99.894 E45.28421
G1 X99.894 Y99.894 E46.22787
G1 X99.444 Y99.504 F7800.000
G1 F1800
G1 X99.444 Y120.556 E47.21067
G1 X120.556 Y120.556 E48.19627
G1 X120.556 Y99.444 E49.18188
G1 X99.444 Y99.444 E50.16748
G1 X98.995 Y99.055 F7800.000
G1 F1800
G1 X98.995 Y121.005 E51.19222
G1 X121.005 Y121.005 E52.21976
G1 X121.005 Y98.995 E53.24731
G1 X98.995 Y98.995 E54.27485
G1 X98.546 Y98.606 F7800.000
G1 F1800
G1 X98.546 Y121.454 E55.34153
G1 X121.454 Y121.454 E56.41102
G1 X121.454 Y98.546 E57.48050
G1 X98.546 Y98.546 E58.54998
G1 X98.097 Y98.157 F7800.000
G1 F1800
G1 X98.097 Y121.903 E59.65861
G1 X121.903 Y121.903 E60.77003
G1 X121.903 Y98.097 E61.88145
G1 X98.097 Y98.097 E62.99288
G1 X97.648 Y97.708 F7800.000
G1 F1800
G1 X97.648 Y122.352 E64.14344
G1 X122.352 Y122.352 E65.29680
G1 X122.352 Y97.648 E66.45017
G1 X97.648 Y97.648 E67.60353
G1 X97.199 Y97.258 F7800.000
G1 F1800
G1 X97.199 Y122.802 E68.79604
G1 X122.801 Y122.802 E69.99134
G1 X122.801 Y97.198 E71.18664
G1 X97.199 Y97.198 E72.38195
G1 X96.749 Y96.809 F7800.000
G1 F1800
G1 X96.749 Y123.251 E73.61639
G1 X123.251 Y123.251 E74.85364
G1 X123.251 Y96.749 E76.09088
G1 X96.749 Y96.749 E77.32813
G1 X96.300 Y96.360 F7800.000
G1 F1800
G1 X96.300 Y123.700 E78.60451
G1 X123.700 Y123.700 E79.88369
G1 X123.700 Y96.300 E81.16288
G1 X96.300 Y96.300 E82.44206
G1 X95.851 Y95.911 F7800.000
G1 F1800
G1 X95.851 Y124.149 E83.76039
G1 X124.149 Y124.149 E85.08151
G1 X124.149 Y95.851 E86.40264
G1 X95.851 Y95.851 E87.72376
G1 X95.402 Y95.462 F7800.000
G1 F1800
G1 X95.402 Y124.598 E89.08403
G1 X124.598 Y124.598 E90.44709
G1 X124.598 Y95.402 E91.81016
G1 X95.402 Y95.402 E93.17322
G1 X94.953 Y95.013 F7800.000
G1 F1800
G1 X94.953 Y125.047 E94.57543
G1 X125.047 Y125.047 E95.98043
G1 X125.047 Y94.953 E97.38544
G1 X94.953 Y94.953 E98.79045
G1 X94.503 Y94.563 F7800.000
G1 F1800
G1 X94.503 Y125.497 E100.23459
G1 X125.497 Y125.497 E101.68154
G1 X125.497 Y94.503 E103.12848
G1 X94.503 Y94.503 E104.57543
G1 X94.054 Y94.114 F7800.000
G1 F1800
G1 X94.054 Y125.946 E106.06152
G1 X125.946 Y125.946 E107.55040
G1 X125.946 Y94.054 E109.03929
G1 X94.054 Y94.054 E110.52817
G1 X93.605 Y93.665 F7800.000
G1 F1800
G1 X93.605 Y126.395 E112.05620
G1 X126.395 Y126.395 E113.58702
G1 X126.395 Y93.605 E115.11785
G1 X93.605 Y93.605 E116.64868
G1 X93.156 Y93.216 F7800.000
G1 F1800
G1 X93.156 Y126.844 E118.21864
G1 X126.844 Y126.844 E119.79141
G1 X126.844 Y93.156 E121.36418
G1 X93.156 Y93.156 E122.93694
G1 X92.707 Y92.767 F7800.000
G1 F1800
G1 X92.707 Y127.293 E124.54885
G1 X127.293 Y127.293 E126.16356
G1 X127.293 Y92.707 E127.77826
G1 X92.707 Y92.707 E129.39297
G1 X92.258 Y92.318 F7800.000
G1 F1800
G1 X92.258 Y127.742 E131.04682
G1 X127.742 Y127.742 E132.70346
G1 X127.742 Y92.258 E134.36011
G1 X92.258 Y92.258 E136.01676
G1 X91.808 Y91.868 F7800.000
G1 F1800
G1 X91.808 Y128.192 E137.71255
G1 X128.192 Y128.192 E139.41113
G1 X128.192 Y91.808 E141.10972
G1 X91.808 Y91.808 E142.80831
G1 X91.359 Y91.419 F7800.000
G1 F1800
G1 X91.359 Y128.641 E144.54604
G1 X128.641 Y128.641 E146.28656
G1 X128.641 Y91.359 E148.02709
G1 X91.359 Y91.359 E149.76762
G1 X90.910 Y90.970 F7800.000
G1 F1800
G1 X90.910 Y129.090 E151.54729
G1 X129.090 Y129.090 E153.32976
G1 X129.090 Y90.910 E155.11222
G1 X90.910 Y90.910 E156.89469
G1 X90.461 Y90.521 F7800.000
G1 F1800
G1 X90.461 Y129.539 E158.71630
G1 X129.539 Y129.539 E160.54071
G1 X129.539 Y90.461 E162.36512
G1 X90.461 Y90.461 E164.18952
G1 X90.012 Y90.072 F7800.000
G1 F1800
G1 X90.012 Y129.988 E166.05307
G1 X129.988 Y129.988 E167.91942
G1 X129.988 Y90.012 E169.78577
G1 X90.012 Y90.012 E171.65212
G1 X89.563 Y89.623 F7800.000
G1 F1800
G1 X89.563 Y130.437 E173.55761
G1 X130.437 Y130.437 E175.46590
G1 X130.437 Y89.563 E177.37419
G1 X89.563 Y89.563 E179.28247
G1 X89.113 Y89.173 F7800.000
G1 F1800
G1 X89.113 Y130.887 E181.22990
G1 X130.887 Y130.887 E183.18013
G1 X130.887 Y89.113 E185.13036
G1 X89.113 Y89.113 E187.08059
G1 X88.664 Y88.724 F7800.000
G1 F1800
G1 X88.664 Y131.336 E189.06996
G1 X131.336 Y131.336 E191.06213
G1 X131.336 Y88.664 E193.05430
G1 X88.664 Y88.664 E195.04647
G1 X88.215 Y88.275 F7800.000
G1 F1800
G1 X88.215 Y131.785 E197.07778
G1 X131.785 Y131.785 E199.11189
G1 X131.785 Y88.215 E201.14600
G1 X88.215 Y88.215 E203.18011
G1 X87.766 Y87.826 F7800.000
G1 F1800
G1 X87.766 Y132.234 E205.25336
G1 X132.234 Y132.234 E207.32941
G1 X132.234 Y87.766 E209.40546
G1 X87.766 Y87.766 E211.48151
G1 X87.317 Y87.377 F7800.000
G1 F1800
G1 X87.317 Y132.683 E213.59670
G1 X132.683 Y132.683 E215.71469
G1 X132.683 Y87.317 E217.83268
G1 X87.317 Y87.317 E219.95067
G1 X86.868 Y86.928 F7800.000
G1 F1800
G1 X86.868 Y133.132 E222.10780
G1 X133.132 Y133.132 E224.26773
G1 X133.132 Y86.868 E226.42766
G1 X86.868 Y86.868 E228.58759
G1 X86.418 Y86.478 F7800.000
G1 F1800
G1 X86.418 Y133.582 E230.78666
G1 X133.582 Y133.582 E232.98853
G1 X133.582 Y86.418 E235.19040
G1 X86.418 Y86.418 E237.39227
G1 X85.969 Y86.029 F7800.000
G1 F1800
G1 X85.969 Y134.031 E239.63328
G1 X134.031 Y134.031 E241.87709
G1 X134.031 Y85.969 E244.12090
G1 X85.969 Y85.969 E246.36472
G1 X85.520 Y85.580 F7800.000
G1 F1800
G1 X85.520 Y134.480 E248.64767
G1 X134.480 Y134.480 E250.93342
G1 X134.480 Y85.520 E253.21917
G1 X85.520 Y85.520 E255.50492
G1 X85.071 Y85.131 F7800.000
G1 F1800
G1 X85.071 Y134.929 E257.82981
G1 X134.929 Y134.929 E260.15750
G1 X134.929 Y85.071 E262.48520
G1 X85.071 Y85.071 E264.81289
G1 X84.622 Y84.682 F7800.000
G1 F1800
G1 X84.622 Y135.378 E267.17972
G1 X135.378 Y135.378 E269.54935
G1 X135.378 Y84.622 E271.91898
G1 X84.622 Y84.622 E274.28861
G1 X84.172 Y84.232 F7800.000
G1 F1800
G1 X84.173 Y135.828 E276.69739
G1 X135.828 Y135.828 E279.10896
G1 X135.828 Y84.172 E281.52053
G1 X84.172 Y84.172 E283.93210
G1 X83.723 Y83.783 F7800.000
G1 F1800
G1 X83.723 Y136.277 E286.38282
G1 X136.277 Y136.277 E288.83633
G1 X136.277 Y83.723 E291.28984
G1 X83.723 Y83.723 E293.74335
G1 X83.274 Y83.334 F7800.000
G1 F1800
G1 X83.274 Y136.726 E296.23601
G1 X136.726 Y136.726 E298.73146
G1 X136.726 Y83.274 E301.22691
G1 X83.274 Y83.274 E303.72236
G1 X82.825 Y82.885 F7800.000
G1 F1800
G1 X82.825 Y137.175 E306.25696
G1 X137.175 Y137.175 E308.79435
G1 X137.175 Y82.825 E311.33174
G1 X82.825 Y82.825 E313.86914
G1 X82.376 Y82.436 F7800.000
G1 F1800
G1 X82.376 Y137.624 E316.44567
G1 X137.624 Y137.624 E319.02500
G1 X137.624 Y82.376 E321.60434
G1 X82.376 Y82.376 E324.18367
G1 X81.927 Y81.987 F7800.000
G1 F1800
G1 X81.927 Y138.073 E326.80214
G1 X138.073 Y138.073 E329.42342
G1 X138.073 Y81.927 E332.04469
G1 X81.927 Y81.927 E334.66596
G1 X81.477 Y81.537 F7800.000
G1 F1800
G1 X81.477 Y138.523 E337.32638
G1 X138.523 Y138.523 E339.98959
G1 X138.523 Y81.477 E342.65280
G1 X81.477 Y81.477 E345.31602
G1 Z0.450 F7800.000
G1 X138.961 Y138.961
G1 F3600
G1 X81.039 Y138.961 E347.27660
G1 X81.039 Y81.039 E349.23718
G1 X138.961 Y81.039 E351.19776
G1 X138.961 Y138.901 E353.15631
G1 X139.368 Y139.368 F7800.000
G1 F3600
G1 X80.632 Y139.368 E355.14444
G1 X80.632 Y80.632 E357.13258
G1 X139.368 Y80.632 E359.12072
G1 X139.368 Y139.308 E361.10683
G1 X139.775 Y139.775 F7800.000
G1 F1800
G1 X80.225 Y139.775 E363.12252
G1 X80.225 Y80.225 E365.13822
G1 X139.775 Y80.225 E367.15392
G1 X139.775 Y139.715 E369.16758
G1 X139.389 Y139.671 F7800.000
G1 X138.014 Y138.839
G1 F1200
G1 X138.656 Y138.197 E369.19839
G1 X138.656 Y137.620 E369.21798
G1 X137.620 Y138.656 E369.26770
G1 X137.042 Y138.656 E369.28728
G1 X138.656 Y137.042 E369.36470
G1 X138.656 Y136.465 E369.38429
G1 X136.465 Y138.656 E369.48941
G1 X135.888 Y138.656 E369.50900
G1 X138.656 Y135.888 E369.64182
G1 X138.656 Y135.311 E369.66140
G1 X135.311 Y138.656 E369.82192
G1 X134.734 Y138.656 E369.84151
G1 X138.656 Y134.734 E370.02973
G1 X138.656 Y134.157 E370.04932
G1 X134.156 Y138.656 E370.26524
G1 X133.579 Y138.656 E370.28483
G1 X138.656 Y133.579 E370.52845
G1 X138.656 Y133.002 E370.54804
G1 X133.002 Y138.656 E370.81936
G1 X132.425 Y138.656 E370.83895
G1 X138.656 Y132.425 E371.13797
G1 X138.656 Y131.848 E371.15756
G1 X131.848 Y138.656 E371.48428
G1 X131.271 Y138.656 E371.50387
G1 X138.656 Y131.271 E371.85829
G1 X138.656 Y130.693 E371.87788
G1 X130.693 Y138.656 E372.26001
G1 X130.116 Y138.656 E372.27959
G1 X138.656 Y130.116 E372.68942
G1 X138.656 Y129.539 E372.70901
G1 X129.539 Y138.656 E373.14653
G1 X128.962 Y138.656 E373.16612
G1 X138.656 Y128.962 E373.63135
G1 X138.656 Y128.385 E373.65093
G1 X128.385 Y138.656 E374.14386
G1 X127.807 Y138.656 E374.16345
G1 X138.656 Y127.808 E374.68408
G1 X138.656 Y127.230 E374.70367
G1 X127.230 Y138.656 E375.25199
G1 X126.653 Y138.656 E375.27158
G1 X138.656 Y126.653 E375.84761
G1 X138.656 Y126.076 E375.86720
G1 X126.076 Y138.656 E376.47093
G1 X125.499 Y138.656 E376.49052
G1 X138.656 Y125.499 E377.12195
G1 X138.656 Y124.922 E377.14153
G1 X124.922 Y138.656 E377.80066
G1 X124.344 Y138.656 E377.82025
G1 X138.656 Y124.344 E378.50708
G1 X138.656 Y123.767 E378.52667
G1 X123.767 Y138.656 E379.24120
G1 X123.190 Y138.656 E379.26079
G1 X138.656 Y123.190 E380.00302
G1 X138.656 Y122.613 E380.02261
G1 X122.613 Y138.656 E380.79254
G1 X122.036 Y138.656 E380.81213
G1 X138.656 Y122.036 E381.60977
G1 X138.656 Y121.459 E381.62935
G1 X121.458 Y138.656 E382.45469
G1 X120.881 Y138.656 E382.47427
G1 X138.656 Y120.881 E383.32731
G1 X138.656 Y120.304 E383.34690
G1 X120.304 Y138.656 E384.22763
G1 X119.727 Y138.656 E384.24722
G1 X138.656 Y119.727 E385.15566
G1 X138.656 Y119.150 E385.17524
G1 X119.150 Y138.656 E386.11138
G1 X118.573 Y138.656 E386.13097
G1 X138.656 Y118.573 E387.09481
G1 X138.656 Y117.995 E387.11439
G1 X117.995 Y138.656 E388.10593
G1 X117.418 Y138.656 E388.12552
G1 X138.656 Y117.418 E389.14476
G1 X138.656 Y116.841 E389.16435
G1 X116.841 Y138.656 E390.21128
G1 X116.264 Y138.656 E390.23087
G1 X138.656 Y116.264 E391.30551
