; generated by Slic3r Prusa Edition 1.42.0-beta2+linux64 on 2019-05-15 at 15:15:08

; 

; external perimeters extrusion width = 0.45mm
; perimeters extrusion width = 0.45mm
; infill extrusion width = 0.45mm
; solid infill extrusion width = 0.45mm
; top infill extrusion width = 0.40mm
; first layer extrusion width = 0.50mm

M201 X9000 Y9000 Z500 E10000 ; sets maximum accelerations, mm/sec^2
M203 X500 Y500 Z12 E120 ; sets maximum feedrates, mm/sec
M204 P1500 R1500 T1500 ; sets acceleration (P, T) and retract acceleration (R), mm/sec^2
M205 X10.00 Y10.00 Z0.20 E2.50 ; sets the jerk limits, mm/sec
M205 S0 T0 ; sets the minimum extruding and travel feed rate, mm/sec
M107
M190 S60 ; set bed temperature and wait for it to be reached
M104 S200 ; set temperature
G28 ; home all axes
G1 Z5 F5000 ; lift nozzle
; Filament gcode
M109 S200 ; set temperature and wait for it to be reached
G21 ; set units to millimeters
G90 ; use absolute coordinates
M82 ; use absolute distances for extrusion
G92 E0
G1 Z0.250 F7800.000
G1 E-2.00000 F2400.00000
G92 E0
G1 X65.387 Y65.823 F7800.000
G1 E2.00000 F2400.00000
G1 F1800
G1 X66.309 Y64.990 E2.05766
G1 X67.384 Y64.353 E2.11560
G1 X68.564 Y63.945 E2.17355
G1 X69.802 Y63.780 E2.23149
G1 X130.006 Y63.777 E5.02452
G1 X131.170 Y63.888 E5.07876
G1 X132.293 Y64.215 E5.13301
G1 X133.335 Y64.746 E5.18725
G1 X134.259 Y65.462 E5.24150
G1 X135.032 Y66.339 E5.29574
G1 X135.626 Y67.339 E5.34970
G1 X136.024 Y68.438 E5.40395
G1 X136.210 Y69.593 E5.45819
G1 X136.221 Y130.154 E8.26779
G1 X136.097 Y131.249 E8.31890
G1 X135.779 Y132.310 E8.37030
G1 X135.277 Y133.298 E8.42170
G1 X134.609 Y134.182 E8.47309
G1 X133.651 Y135.039 E8.53274
G1 X132.538 Y135.682 E8.59239
G1 X131.316 Y136.082 E8.65205
G1 X130.038 Y136.223 E8.71170
G1 X69.846 Y136.221 E11.50415
G1 X68.751 Y136.097 E11.55526
G1 X67.690 Y135.779 E11.60666
G1 X66.702 Y135.277 E11.65806
G1 X65.823 Y134.613 E11.70917
G1 X64.961 Y133.651 E11.76911
G1 X64.318 Y132.538 E11.82876
G1 X63.918 Y131.316 E11.88841
G1 X63.777 Y130.038 E11.94806
G1 X63.779 Y69.846 E14.74051
G1 X63.903 Y68.751 E14.79163
G1 X64.221 Y67.690 E14.84302
G1 X64.723 Y66.702 E14.89442
G1 X65.351 Y65.871 E14.94275
G1 E12.94275 F2400.00000
G92 E0
G1 X128.857 Y128.857 F7800.000
G1 E2.00000 F2400.00000
G1 F1800
G1 X71.143 Y128.857 E4.67753
G1 X71.143 Y71.143 E7.35506
G1 X128.857 Y71.143 E10.03260
G1 X128.857 Y128.797 E12.70735
G1 X129.304 Y129.304 F7800.000
G1 F1800
G1 X70.696 Y129.304 E15.42629
G1 X70.696 Y70.696 E18.14524
G1 X129.304 Y70.696 E20.86419
G1 X129.304 Y129.244 E23.58035
G1 X129.750 Y129.750 F7800.000
G1 F1800
G1 X70.250 Y129.750 E26.34071
G1 X70.250 Y70.250 E29.10107
G1 X129.750 Y70.250 E31.86143
G1 X129.750 Y129.690 E34.61901
G1 X129.364 Y129.646 F7800.000
G1 E32.61901 F2400.00000
G92 E0
G1 X99.326 Y99.386 F7800.000
G1 E2.00000 F2400.00000
G1 F1800
G1 X99.326 Y100.674 E2.06011
G1 X100.674 Y100.674 E2.12302
G1 X100.674 Y99.326 E2.18593
G1 X99.326 Y99.326 E2.24884
G1 X98.877 Y98.937 F7800.000
G1 F1800
G1 X98.877 Y101.123 E2.35089
G1 X101.123 Y101.123 E2.45574
G1 X101.123 Y98.877 E2.56060
G1 X98.877 Y98.877 E2.66545
G1 X98.428 Y98.488 F7800.000
G1 F1800
G1 X98.428 Y101.572 E2.80944
G1 X101.572 Y101.572 E2.95623
G1 X101.572 Y98.428 E3.10302
G1 X98.428 Y98.428 E3.24981
G1 X97.979 Y98.039 F7800.000
G1 F1800
G1 X97.979 Y102.021 E3.43574
G1 X102.021 Y102.021 E3.62448
G1 X102.021 Y97.979 E3.81321
G1 X97.979 Y97.979 E4.00194
G1 X97.530 Y97.590 F7800.000
G1 F1800
G1 X97.530 Y102.470 E4.22981
G1 X102.470 Y102.470 E4.46048
G1 X102.470 Y97.530 E4.69116
G1 X97.530 Y97.530 E4.92183
G1 X97.080 Y97.140 F7800.000
G1 F1800
G1 X97.080 Y102.920 E5.19164
G1 X102.920 Y102.920 E5.46426
G1 X102.920 Y97.080 E5.73687
G1 X97.080 Y97.080 E6.00948
G1 X96.631 Y96.691 F7800.000
G1 F1800
G1 X96.631 Y103.369 E6.32123
G1 X103.369 Y103.369 E6.63579
G1 X103.369 Y96.631 E6.95034
G1 X96.631 Y96.631 E7.26490
G1 X96.182 Y96.242 F7800.000
G1 F1800
G1 X96.182 Y103.818 E7.61859
G1 X103.818 Y103.818 E7.97508
G1 X103.818 Y96.182 E8.33158
G1 X96.182 Y96.182 E8.68807
G1 X95.733 Y95.793 F7800.000
G1 F1800
G1 X95.733 Y104.267 E9.08370
G1 X104.267 Y104.267 E9.48214
G1 X104.267 Y95.733 E9.88057
G1 X95.733 Y95.733 E10.27901
G1 X95.284 Y95.344 F7800.000
G1 F1800
G1 X95.284 Y104.716 E10.71658
G1 X104.716 Y104.716 E11.15696
G1 X104.716 Y95.284 E11.59733
G1 X95.284 Y95.284 E12.03771
G1 X94.834 Y94.894 F7800.000
G1 F1800
G1 X94.835 Y105.166 E12.51722
G1 X105.165 Y105.166 E12.99954
G1 X105.165 Y94.834 E13.48185
G1 X94.834 Y94.834 E13.96417
G1 X94.385 Y94.445 F7800.000
G1 F1800
G1 X94.385 Y105.615 E14.48562
G1 X105.615 Y105.615 E15.00988
G1 X105.615 Y94.385 E15.53414
G1 X94.385 Y94.385 E16.05839
G1 X93.936 Y93.996 F7800.000
G1 F1800
G1 X93.936 Y106.064 E16.62179
G1 X106.064 Y106.064 E17.18798
G1 X106.064 Y93.936 E17.75418
G1 X93.936 Y93.936 E18.32038
G1 X93.487 Y93.547 F7800.000
G1 F1800
G1 X93.487 Y106.513 E18.92571
G1 X106.513 Y106.513 E19.53385
G1 X106.513 Y93.487 E20.14199
G1 X93.487 Y93.487 E20.75012
G1 X93.038 Y93.098 F7800.000
G1 F1800
G1 X93.038 Y106.962 E21.39740
G1 X106.962 Y106.962 E22.04748
G1 X106.962 Y93.038 E22.69755
G1 X93.038 Y93.038 E23.34763
G1 X92.589 Y92.649 F7800.000
G1 F1800
G1 X92.589 Y107.411 E24.03685
G1 X107.411 Y107.411 E24.72886
G1 X107.411 Y92.589 E25.42088
G1 X92.589 Y92.589 E26.11290
G1 X92.139 Y92.199 F7800.000
G1 F1800
G1 X92.139 Y107.861 E26.84406
G1 X107.861 Y107.861 E27.57802
G1 X107.861 Y92.139 E28.31198
G1 X92.139 Y92.139 E29.04593
G1 X91.690 Y91.750 F7800.000
G1 F1800
G1 X91.690 Y108.310 E29.81903
G1 X108.310 Y108.310 E30.59493
G1 X108.310 Y91.690 E31.37083
G1 X91.690 Y91.690 E32.14673
G1 X91.241 Y91.301 F7800.000
G1 F1800
G1 X91.241 Y108.759 E32.96177
G1 X108.759 Y108.759 E33.77960
G1 X108.759 Y91.241 E34.59744
G1 X91.241 Y91.241 E35.41528
G1 X90.792 Y90.852 F7800.000
G1 F1800
G1 X90.792 Y109.208 E36.27226
G1 X109.208 Y109.208 E37.13204
G1 X109.208 Y90.792 E37.99182
G1 X90.792 Y90.792 E38.85160
G1 X90.343 Y90.403 F7800.000
G1 F1800
G1 X90.343 Y109.657 E39.75052
G1 X109.657 Y109.657 E40.65224
G1 X109.657 Y90.343 E41.55396
G1 X90.343 Y90.343 E42.45568
G1 X89.894 Y89.954 F7800.000
G1 F1800
G1 X89.894 Y110.106 E43.39654
G1 X110.106 Y110.106 E44.34020
G1 X110.106 Y89.894 E45.28386
G1 X89.894 Y89.894 E46.22752
G1 X89.444 Y89.504 F7800.000
G1 F1800
G1 X89.444 Y110.556 E47.21032
G1 X110.556 Y110.556 E48.19592
G1 X110.556 Y89.444 E49.18152
G1 X89.444 Y89.444 E50.16713
G1 X88.995 Y89.055 F7800.000
G1 F1800
G1 X88.995 Y111.005 E51.19187
G1 X111.005 Y111.005 E52.21941
G1 X111.005 Y88.995 E53.24695
G1 X88.995 Y88.995 E54.27449
G1 X88.546 Y88.606 F7800.000
G1 F1800
G1 X88.546 Y111.454 E55.34117
G1 X111.454 Y111.454 E56.41065
G1 X111.454 Y88.546 E57.48014
G1 X88.546 Y88.546 E58.54962
G1 X88.097 Y88.157 F7800.000
G1 F1800
G1 X88.097 Y111.903 E59.65824
G1 X111.903 Y111.903 E60.76966
G1 X111.903 Y88.097 E61.88108
G1 X88.097 Y88.097 E62.99251
G1 X87.648 Y87.708 F7800.000
G1 F1800
G1 X87.648 Y112.352 E64.14307
G1 X112.352 Y112.352 E65.29643
G1 X112.352 Y87.648 E66.44980
G1 X87.648 Y87.648 E67.60316
G1 X87.199 Y87.259 F7800.000
G1 F1800
G1 X87.199 Y112.801 E68.79566
G1 X112.801 Y112.801 E69.99096
G1 X112.801 Y87.199 E71.18627
G1 X87.199 Y87.199 E72.38157
G1 X86.749 Y86.809 F7800.000
G1 F1800
G1 X86.749 Y113.251 E73.61601
G1 X113.251 Y113.251 E74.85326
G1 X113.251 Y86.749 E76.09050
G1 X86.749 Y86.749 E77.32775
G1 X86.300 Y86.360 F7800.000
G1 F1800
G1 X86.300 Y113.700 E78.60413
G1 X113.700 Y113.700 E79.88331
G1 X113.700 Y86.300 E81.16250
G1 X86.300 Y86.300 E82.44168
G1 X85.851 Y85.911 F7800.000
G1 F1800
G1 X85.851 Y114.149 E83.76001
G1 X114.149 Y114.149 E85.08113
G1 X114.149 Y85.851 E86.40226
G1 X85.851 Y85.851 E87.72338
G1 X85.402 Y85.462 F7800.000
G1 F1800
G1 X85.402 Y114.598 E89.08364
G1 X114.598 Y114.598 E90.44671
G1 X114.598 Y85.402 E91.80978
G1 X85.402 Y85.402 E93.17284
G1 X84.953 Y85.013 F7800.000
G1 F1800
G1 X84.953 Y115.047 E94.57505
G1 X115.047 Y115.047 E95.98005
G1 X115.047 Y84.953 E97.38506
G1 X84.953 Y84.953 E98.79006
G1 X84.503 Y84.563 F7800.000
G1 F1800
G1 X84.504 Y115.497 E100.23421
G1 X115.497 Y115.497 E101.68115
G1 X115.496 Y84.503 E103.12810
G1 X84.503 Y84.503 E104.57505
G1 X84.054 Y84.114 F7800.000
G1 F1800
G1 X84.054 Y115.946 E106.06113
G1 X115.946 Y115.946 E107.55002
G1 X115.946 Y84.054 E109.03891
G1 X84.054 Y84.054 E110.52779
G1 X83.605 Y83.665 F7800.000
G1 F1800
G1 X83.605 Y116.395 E112.05582
G1 X116.395 Y116.395 E113.58665
G1 X116.395 Y83.605 E115.11747
G1 X83.605 Y83.605 E116.64830
G1 X83.156 Y83.216 F7800.000
G1 F1800
G1 X83.156 Y116.844 E118.21827
G1 X116.844 Y116.844 E119.79103
G1 X116.844 Y83.156 E121.36380
G1 X83.156 Y83.156 E122.93657
G1 X82.707 Y82.767 F7800.000
G1 F1800
G1 X82.707 Y117.293 E124.54848
G1 X117.293 Y117.293 E126.16319
G1 X117.293 Y82.707 E127.77789
G1 X82.707 Y82.707 E129.39260
G1 X82.258 Y82.318 F7800.000
G1 F1800
G1 X82.258 Y117.742 E131.04645
G1 X117.742 Y117.742 E132.70310
G1 X117.742 Y82.258 E134.35975
G1 X82.258 Y82.258 E136.01639
G1 X81.808 Y81.868 F7800.000
G1 F1800
G1 X81.808 Y118.192 E137.71218
G1 X118.192 Y118.192 E139.41077
G1 X118.192 Y81.808 E141.10936
G1 X81.808 Y81.808 E142.80795
G1 X81.359 Y81.419 F7800.000
G1 F1800
G1 X81.359 Y118.641 E144.54568
G1 X118.641 Y118.641 E146.28621
G1 X118.641 Y81.359 E148.02674
G1 X81.359 Y81.359 E149.76727
G1 X80.910 Y80.970 F7800.000
G1 F1800
G1 X80.910 Y119.090 E151.54694
G1 X119.090 Y119.090 E153.32941
G1 X119.090 Y80.910 E155.11188
G1 X80.910 Y80.910 E156.89435
G1 X80.461 Y80.521 F7800.000
G1 F1800
G1 X80.461 Y119.539 E158.71596
G1 X119.539 Y119.539 E160.54037
G1 X119.539 Y80.461 E162.36478
G1 X80.461 Y80.461 E164.18919
G1 X80.012 Y80.072 F7800.000
G1 F1800
G1 X80.012 Y119.988 E166.05274
G1 X119.988 Y119.988 E167.91909
G1 X119.988 Y80.012 E169.78544
G1 X80.012 Y80.012 E171.65179
G1 X79.563 Y79.623 F7800.000
G1 F1800
G1 X79.563 Y120.437 E173.55728
G1 X120.437 Y120.437 E175.46557
G1 X120.437 Y79.563 E177.37386
G1 X79.563 Y79.563 E179.28215
G1 X79.113 Y79.173 F7800.000
G1 F1800
G1 X79.113 Y120.887 E181.22958
G1 X120.887 Y120.887 E183.17982
G1 X120.887 Y79.113 E185.13005
G1 X79.113 Y79.113 E187.08028
G1 X78.664 Y78.724 F7800.000
G1 F1800
G1 X78.664 Y121.336 E189.06965
G1 X121.336 Y121.336 E191.06182
G1 X121.336 Y78.664 E193.05400
G1 X78.664 Y78.664 E195.04617
G1 X78.215 Y78.275 F7800.000
G1 F1800
G1 X78.215 Y121.785 E197.07748
G1 X121.785 Y121.785 E199.11159
G1 X121.785 Y78.215 E201.14571
G1 X78.215 Y78.215 E203.17982
G1 X77.766 Y77.826 F7800.000
G1 F1800
G1 X77.766 Y122.234 E205.25307
G1 X122.234 Y122.234 E207.32912
G1 X122.234 Y77.766 E209.40518
G1 X77.766 Y77.766 E211.48123
G1 X77.317 Y77.377 F7800.000
G1 F1800
G1 X77.317 Y122.683 E213.59642
G1 X122.683 Y122.683 E215.71442
G1 X122.683 Y77.317 E217.83241
G1 X77.317 Y77.317 E219.95040
G1 X76.868 Y76.928 F7800.000
G1 F1800
G1 X76.868 Y123.132 E222.10754
G1 X123.132 Y123.132 E224.26747
G1 X123.132 Y76.868 E226.42741
G1 X76.868 Y76.868 E228.58734
G1 X76.418 Y76.478 F7800.000
G1 F1800
G1 X76.418 Y123.582 E230.78641
G1 X123.582 Y123.582 E232.98829
G1 X123.582 Y76.418 E235.19016
G1 X76.418 Y76.418 E237.39204
G1 X75.969 Y76.029 F7800.000
G1 F1800
G1 X75.969 Y124.031 E239.63305
G1 X124.031 Y124.031 E241.87686
G1 X124.031 Y75.969 E244.12068
G1 X75.969 Y75.969 E246.36450
G1 X75.520 Y75.580 F7800.000
G1 F1800
G1 X75.520 Y124.480 E248.64745
G1 X124.480 Y124.480 E250.93321
G1 X124.480 Y75.520 E253.21896
G1 X75.520 Y75.520 E255.50472
G1 X75.071 Y75.131 F7800.000
G1 F1800
G1 X75.071 Y124.929 E257.82961
G1 X124.929 Y124.929 E260.15731
G1 X124.929 Y75.071 E262.48500
G1 X75.071 Y75.071 E264.81270
G1 X74.622 Y74.682 F7800.000
G1 F1800
G1 X74.622 Y125.378 E267.17953
G1 X125.378 Y125.378 E269.54917
G1 X125.378 Y74.622 E271.91881
G1 X74.622 Y74.622 E274.28844
G1 X74.172 Y74.232 F7800.000
G1 F1800
G1 X74.173 Y125.828 E276.69722
G1 X125.828 Y125.828 E279.10880
G1 X125.827 Y74.172 E281.52037
G1 X74.172 Y74.172 E283.93195
G1 X73.723 Y73.783 F7800.000
G1 F1800
G1 X73.723 Y126.277 E286.38267
G1 X126.277 Y126.277 E288.83618
G1 X126.277 Y73.723 E291.28970
G1 X73.723 Y73.723 E293.74322
G1 X73.274 Y73.334 F7800.000
G1 F1800
G1 X73.274 Y126.726 E296.23588
G1 X126.726 Y126.726 E298.73133
G1 X126.726 Y73.274 E301.22679
G1 X73.274 Y73.274 E303.72225
G1 X72.825 Y72.885 F7800.000
G1 F1800
G1 X72.825 Y127.175 E306.25685
G1 X127.175 Y127.175 E308.79424
G1 X127.175 Y72.825 E311.33164
G1 X72.825 Y72.825 E313.86904
G1 X72.376 Y72.436 F7800.000
G1 F1800
G1 X72.376 Y127.624 E316.44558
G1 X127.624 Y127.624 E319.02492
G1 X127.624 Y72.376 E321.60426
G1 X72.376 Y72.376 E324.18360
G1 X71.927 Y71.987 F7800.000
G1 F1800
G1 X71.927 Y128.073 E326.80207
G1 X128.073 Y128.073 E329.42335
G1 X128.073 Y71.927 E332.04463
G1 X71.927 Y71.927 E334.66591
G1 X71.477 Y71.537 F7800.000
G1 F1800
G1 X71.477 Y128.523 E337.32633
G1 X128.523 Y128.523 E339.98955
G1 X128.523 Y71.477 E342.65277
G1 X71.477 Y71.477 E345.31599
G1 Z0.450 F7800.000
G1 X128.961 Y128.961
G1 F3600
G1 X71.039 Y128.961 E347.27657
G1 X71.039 Y71.039 E349.23715
G1 X128.961 Y71.039 E351.19773
G1 X128.961 Y128.901 E353.15628
G1 X129.368 Y129.368 F7800.000
G1 F3600
G1 X70.632 Y129.368 E355.14441
G1 X70.632 Y70.632 E357.13255
G1 X129.368 Y70.632 E359.12069
G1 X129.368 Y129.308 E361.10680
G1 X129.775 Y129.775 F7800.000
G1 F1800
G1 X70.225 Y129.775 E363.12249
G1 X70.225 Y70.225 E365.13819
G1 X129.775 Y70.225 E367.15389
G1 X129.775 Y129.715 E369.16755
G1 X129.389 Y129.671 F7800.000
G1 X128.014 Y128.839
G1 F1200
G1 X128.656 Y128.197 E369.19836
G1 X128.656 Y127.620 E369.21795
G1 X127.620 Y128.656 E369.26767
G1 X127.042 Y128.656 E369.28725
G1 X128.656 Y127.042 E369.36467
G1 X128.656 Y126.465 E369.38426
G1 X126.465 Y128.656 E369.48938
G1 X125.888 Y128.656 E369.50896
G1 X128.656 Y125.888 E369.64178
G1 X128.656 Y125.311 E369.66137
G1 X125.311 Y128.656 E369.82189
G1 X124.734 Y128.656 E369.84148
G1 X128.656 Y124.734 E370.02970
G1 X128.656 Y124.157 E370.04929
G1 X124.157 Y128.656 E370.26521
G1 X123.579 Y128.656 E370.28480
G1 X128.656 Y123.579 E370.52842
G1 X128.656 Y123.002 E370.54801
G1 X123.002 Y128.656 E370.81933
G1 X122.425 Y128.656 E370.83892
G1 X128.656 Y122.425 E371.13794
G1 X128.656 Y121.848 E371.15753
G1 X121.848 Y128.656 E371.48425
G1 X121.271 Y128.656 E371.50384
G1 X128.656 Y121.271 E371.85826
G1 X128.656 Y120.693 E371.87785
G1 X120.693 Y128.656 E372.25997
G1 X120.116 Y128.656 E372.27956
G1 X128.656 Y120.116 E372.68939
G1 X128.656 Y119.539 E372.70897
G1 X119.539 Y128.656 E373.14650
G1 X118.962 Y128.656 E373.16609
G1 X128.656 Y118.962 E373.63131
G1 X128.656 Y118.385 E373.65090
G1 X118.385 Y128.656 E374.14383
G1 X117.808 Y128.656 E374.16342
G1 X128.656 Y117.808 E374.68404
G1 X128.656 Y117.230 E374.70363
G1 X117.230 Y128.656 E375.25196
G1 X116.653 Y128.656 E375.27155
G1 X128.656 Y116.653 E375.84758
G1 X128.656 Y116.076 E375.86716
G1 X116.076 Y128.656 E376.47089
G1 X115.499 Y128.656 E376.49048
G1 X128.656 Y115.499 E377.12191
G1 X128.656 Y114.922 E377.14150
G1 X114.922 Y128.656 E377.80063
G1 X114.344 Y128.656 E377.82022
G1 X128.656 Y114.344 E378.50705
G1 X128.656 Y113.767 E378.52663
G1 X113.767 Y128.656 E379.24117
G1 X113.190 Y128.656 E379.26075
G1 X128.656 Y113.190 E380.00299
G1 X128.656 Y112.613 E380.02257
G1 X112.613 Y128.656 E380.79251
G1 X112.036 Y128.656 E380.81209
G1 X128.656 Y112.036 E381.60973
G1 X128.656 Y111.459 E381.62931
G1 X111.459 Y128.656 E382.45465
G1 X110.881 Y128.656 E382.47424
G1 X128.656 Y110.881 E383.32727
G1 X128.656 Y110.304 E383.34686
G1 X110.304 Y128.656 E384.22759
G1 X109.727 Y128.656 E384.24718
G1 X128.656 Y109.727 E385.15562
G1 X128.656 Y109.150 E385.17520
G1 X109.150 Y128.656 E386.11134
G1 X108.573 Y128.656 E386.13093
G1 X128.656 Y108.573 E387.09476
G1 X128.656 Y107.995 E387.11435
G1 X107.995 Y128.656 E388.10589
G1 X107.418 Y128.656 E388.12548
G1 X128.656 Y107.418 E389.14471
G1 X128.656 Y106.841 E389.16430
G1 X106.841 Y128.656 E390.21124
G1 X106.264 Y128.656 E390.23083
G1 X128.656 Y106.264 E391.30547
G1 X128.656 Y105.687 E391.32505
G1 X105.687 Y128.656 E392.42739
G1 X105.110 Y128.656 E392.44698
G1 X128.656 Y105.110 E393.57702
