; generated by Slic3r Prusa Edition 1.42.0-beta2+linux64 on 2019-05-07 at 14:30:07

; 

; external perimeters extrusion width = 0.45mm
; perimeters extrusion width = 0.45mm
; infill extrusion width = 0.45mm
; solid infill extrusion width = 0.45mm
; top infill extrusion width = 0.40mm
; first layer extrusion width = 0.50mm

M201 X9000 Y9000 Z500 E10000 ; sets maximum accelerations, mm/sec^2
M203 X500 Y500 Z12 E120 ; sets maximum feedrates, mm/sec
M204 P1500 R1500 T1500 ; sets acceleration (P, T) and retract acceleration (R), mm/sec^2
M205 X10.00 Y10.00 Z0.20 E2.50 ; sets the jerk limits, mm/sec
M205 S0 T0 ; sets the minimum extruding and travel feed rate, mm/sec
M107
M190 S60 ; set bed temperature and wait for it to be reached
M104 S200 ; set temperature
G28 ; home all axes
G1 Z5 F5000 ; lift nozzle
; Filament gcode
M109 S200 ; set temperature and wait for it to be reached
G21 ; set units to millimeters
G90 ; use absolute coordinates
M82 ; use absolute distances for extrusion
G92 E0
G1 Z0.250 F7800.000
G1 E-2.00000 F2400.00000
G92 E0
G1 X86.709 Y81.335 F7800.000
G1 E2.00000 F2400.00000
G1 F1800
G1 X88.094 Y80.741 E2.06988
G1 X91.335 Y79.985 E2.22428
G1 X92.407 Y79.885 E2.27425
G1 X107.557 Y79.885 E2.97710
G1 X108.860 Y80.024 E3.03789
G1 X111.696 Y80.684 E3.17297
G1 X112.492 Y80.944 E3.21183
G1 X113.235 Y81.303 E3.25011
G1 X113.925 Y81.756 E3.28840
G1 X114.552 Y82.302 E3.32697
G1 X115.098 Y82.921 E3.36525
G1 X115.817 Y84.110 E3.42974
G1 X122.876 Y99.804 E4.22807
G1 X123.168 Y100.648 E4.26949
G1 X123.336 Y101.525 E4.31092
G1 X123.377 Y102.417 E4.35234
G1 X123.290 Y103.305 E4.39376
G1 X121.231 Y110.370 E4.73516
G1 X120.940 Y111.149 E4.77373
G1 X120.566 Y111.850 E4.81058
G1 X120.107 Y112.498 E4.84744
G1 X119.568 Y113.082 E4.88430
G1 X118.955 Y113.596 E4.92145
G1 X111.108 Y118.943 E5.36191
G1 X110.096 Y119.464 E5.41475
G1 X109.188 Y119.778 E5.45931
G1 X107.683 Y119.981 E5.52976
G1 X92.253 Y119.980 E6.24562
G1 X90.929 Y119.808 E6.30754
G1 X89.652 Y119.353 E6.37047
G1 X88.764 Y118.859 E6.41760
G1 X81.149 Y113.671 E6.84507
G1 X80.471 Y113.119 E6.88564
G1 X79.877 Y112.477 E6.92621
G1 X79.281 Y111.587 E6.97589
G1 X78.844 Y110.603 E7.02587
G1 X76.868 Y103.992 E7.34598
G1 X76.694 Y103.210 E7.38313
G1 X76.622 Y102.388 E7.42141
G1 X76.658 Y101.570 E7.45941
G1 X76.802 Y100.763 E7.49741
G1 X77.050 Y99.983 E7.53541
G1 X84.166 Y84.146 E8.34087
G1 X84.633 Y83.300 E8.38572
G1 X85.221 Y82.540 E8.43028
G1 X85.918 Y81.880 E8.47484
G1 X86.660 Y81.369 E8.51661
G1 E6.51661 F2400.00000
G92 E0
G1 X109.458 Y106.530 F7800.000
G1 E2.00000 F2400.00000
G1 F1800
G1 X110.148 Y105.154 E2.07140
G1 X110.258 Y105.065 E2.07797
G1 X111.856 Y102.587 E2.21476
G1 X112.879 Y103.168 E2.26935
G1 X113.907 Y102.614 E2.32355
G1 X114.144 Y103.625 E2.37175
G1 X115.107 Y104.169 E2.42307
G1 X115.402 Y104.061 E2.43764
G1 X114.210 Y107.921 E2.62504
G1 X107.446 Y112.529 E3.00477
G1 X100.000 Y110.507 E3.36272
G1 X92.554 Y112.529 E3.72067
G1 X85.790 Y107.921 E4.10039
G1 X84.598 Y104.061 E4.28779
G1 X84.893 Y104.169 E4.30236
G1 X85.856 Y103.625 E4.35368
G1 X86.093 Y102.614 E4.40188
G1 X87.121 Y103.168 E4.45608
G1 X88.144 Y102.587 E4.51067
G1 X89.742 Y105.065 E4.64747
G1 X89.852 Y105.154 E4.65404
G1 X90.542 Y106.530 E4.72543
G1 X94.859 Y101.597 E5.02954
G1 X94.838 Y101.252 E5.04554
G1 X97.901 Y92.904 E5.45806
G1 X102.099 Y92.904 E5.65284
G1 X105.162 Y101.252 E6.06536
G1 X105.141 Y101.597 E6.08137
G1 X109.418 Y106.485 E6.38268
G1 X109.356 Y105.736 F7800.000
G1 F1800
G1 X109.792 Y104.868 E6.42777
G1 X109.922 Y104.763 E6.43549
G1 X111.956 Y101.608 E6.60967
G1 X112.318 Y102.336 E6.64743
G1 X112.884 Y102.658 E6.67764
G1 X114.208 Y101.944 E6.74743
G1 X114.534 Y103.333 E6.81360
G1 X115.147 Y103.679 E6.84629
G1 X116.095 Y103.333 E6.89308
G1 X114.624 Y108.092 E7.12418
G1 X114.614 Y108.186 E7.12854
G1 X107.527 Y113.014 E7.52637
G1 X100.000 Y110.969 E7.88823
G1 X92.473 Y113.014 E8.25009
G1 X85.386 Y108.186 E8.64792
G1 X85.376 Y108.092 E8.65228
G1 X83.905 Y103.333 E8.88338
G1 X84.853 Y103.679 E8.93017
G1 X85.466 Y103.333 E8.96286
G1 X85.792 Y101.944 E9.02903
G1 X87.116 Y102.658 E9.09882
G1 X87.682 Y102.336 E9.12903
G1 X88.044 Y101.608 E9.16679
G1 X90.078 Y104.763 E9.34097
G1 X90.208 Y104.868 E9.34869
G1 X90.644 Y105.736 E9.39378
G1 X94.403 Y101.441 E9.65858
G1 X94.387 Y101.186 E9.67041
G1 X97.589 Y92.457 E10.10177
G1 X102.411 Y92.457 E10.32543
G1 X105.613 Y101.186 E10.75679
G1 X105.597 Y101.441 E10.76862
G1 X109.317 Y105.691 E11.03064
G1 X109.255 Y104.943 F7800.000
G1 F1800
G1 X109.436 Y104.581 E11.04941
G1 X109.585 Y104.461 E11.05829
G1 X112.006 Y100.706 E11.26557
G1 X112.657 Y102.016 E11.33343
G1 X112.890 Y102.148 E11.34585
G1 X114.510 Y101.275 E11.43123
G1 X114.924 Y103.040 E11.51537
G1 X115.188 Y103.189 E11.52942
G1 X116.787 Y102.604 E11.60843
G1 X115.063 Y108.183 E11.87934
G1 X115.035 Y108.439 E11.89126
G1 X107.658 Y113.465 E12.30539
G1 X107.592 Y113.494 E12.30874
G1 X100.000 Y111.432 E12.67371
G1 X92.408 Y113.494 E13.03867
G1 X92.342 Y113.465 E13.04202
G1 X84.965 Y108.439 E13.45615
G1 X84.937 Y108.183 E13.46807
G1 X83.213 Y102.604 E13.73898
G1 X84.812 Y103.189 E13.81799
G1 X85.076 Y103.040 E13.83204
G1 X85.490 Y101.275 E13.91618
G1 X87.110 Y102.148 E14.00156
G1 X87.343 Y102.016 E14.01398
G1 X87.994 Y100.706 E14.08185
G1 X90.415 Y104.461 E14.28912
G1 X90.564 Y104.581 E14.29800
G1 X90.745 Y104.943 E14.31677
G1 X93.946 Y101.285 E14.54228
G1 X93.936 Y101.120 E14.54993
G1 X97.278 Y92.009 E15.00013
G1 X99.861 Y92.019 E15.11995
G1 X100.000 Y91.947 E15.12722
G1 X100.139 Y92.019 E15.13448
G1 X102.722 Y92.009 E15.25431
G1 X106.064 Y101.120 E15.70450
G1 X106.054 Y101.285 E15.71215
G1 X109.215 Y104.898 E15.93488
G1 X109.585 Y105.169 F7800.000
G1 E13.93488 F2400.00000
G92 E0
G1 X109.494 Y107.080 F7800.000
G1 E2.00000 F2400.00000
G1 F1800
G1 X104.799 Y101.714 E2.33531
G1 X104.823 Y101.302 E2.35470
G1 X101.866 Y93.239 E2.75858
G1 X98.134 Y93.239 E2.93404
G1 X95.177 Y101.302 E3.33792
G1 X95.201 Y101.714 E3.35731
G1 X90.467 Y107.125 E3.69544
G1 X89.586 Y105.369 E3.78782
G1 X89.490 Y105.292 E3.79360
G1 X88.035 Y103.034 E3.91991
G1 X87.126 Y103.551 E3.96907
G1 X86.319 Y103.116 E4.01216
G1 X86.148 Y103.845 E4.04736
G1 X85.069 Y104.454 E4.10563
G1 X86.075 Y107.710 E4.26590
G1 X92.615 Y112.166 E4.63805
G1 X100.000 Y110.160 E4.99791
G1 X107.385 Y112.166 E5.35778
G1 X113.925 Y107.710 E5.72993
G1 X114.931 Y104.454 E5.89020
G1 X113.852 Y103.845 E5.94847
G1 X113.681 Y103.116 E5.98366
G1 X112.874 Y103.551 E6.02675
G1 X111.965 Y103.034 E6.07592
G1 X110.510 Y105.292 E6.20222
G1 X110.414 Y105.369 E6.20801
G1 X109.533 Y107.125 E6.30039
G1 X109.597 Y107.884 F7800.000
G1 F1800
G1 X104.336 Y101.872 E6.67607
G1 X104.366 Y101.369 E6.69975
G1 X101.550 Y93.692 E7.08433
G1 X98.450 Y93.692 E7.23008
G1 X95.634 Y101.369 E7.61465
G1 X95.664 Y101.872 E7.63834
G1 X90.364 Y107.929 E8.01685
G1 X89.225 Y105.659 E8.13626
G1 X89.149 Y105.598 E8.14086
G1 X87.886 Y103.639 E8.25047
G1 X87.131 Y104.068 E8.29129
G1 X86.625 Y103.795 E8.31836
G1 X86.544 Y104.141 E8.33509
G1 X85.609 Y104.669 E8.38555
G1 X86.461 Y107.425 E8.52122
G1 X92.698 Y111.675 E8.87613
G1 X100.000 Y109.691 E9.23198
G1 X107.302 Y111.675 E9.58782
G1 X113.539 Y107.425 E9.94273
G1 X114.391 Y104.669 E10.07840
G1 X113.456 Y104.141 E10.12886
G1 X113.375 Y103.795 E10.14559
G1 X112.869 Y104.068 E10.17266
G1 X112.114 Y103.639 E10.21349
G1 X110.851 Y105.598 E10.32309
G1 X110.775 Y105.659 E10.32769
G1 X109.636 Y107.929 E10.44711
G1 X109.699 Y108.688 F7800.000
G1 F1800
G1 X103.873 Y102.030 E10.86317
G1 X103.909 Y101.436 E10.89114
G1 X101.234 Y94.144 E11.25642
G1 X98.766 Y94.144 E11.37245
G1 X96.091 Y101.436 E11.73773
G1 X96.127 Y102.030 E11.76570
G1 X90.261 Y108.734 E12.18459
G1 X88.865 Y105.950 E12.33104
G1 X88.808 Y105.904 E12.33445
G1 X87.738 Y104.244 E12.42736
G1 X87.137 Y104.585 E12.45985
G1 X86.902 Y104.458 E12.47241
G1 X86.149 Y104.883 E12.51307
G1 X86.846 Y107.140 E12.62416
G1 X92.780 Y111.183 E12.96182
G1 X100.000 Y109.222 E13.31364
G1 X107.220 Y111.183 E13.66547
G1 X113.154 Y107.140 E14.00313
G1 X113.851 Y104.883 E14.11422
G1 X113.098 Y104.458 E14.15488
G1 X112.863 Y104.585 E14.16744
G1 X112.262 Y104.244 E14.19993
G1 X111.192 Y105.904 E14.29284
G1 X111.135 Y105.950 E14.29625
G1 X109.739 Y108.734 E14.44270
G1 X110.674 Y107.878 F7800.000
G1 F1800
G1 X111.496 Y106.240 E14.52884
G1 X111.533 Y106.211 E14.53106
G1 X112.411 Y104.849 E14.60727
G1 X112.857 Y105.102 E14.63142
G1 X113.400 Y104.809 E14.66044
G1 X112.768 Y106.856 E14.76115
G1 X110.934 Y108.105 E14.86550
G1 X110.720 Y107.917 E14.87892
G1 E12.87892 F2400.00000
G92 E0
G1 X103.410 Y102.189 F7800.000
G1 E2.00000 F2400.00000
G1 F1800
G1 X109.464 Y109.107 E2.43231
G1 X107.137 Y110.692 E2.56471
G1 X100.000 Y108.753 E2.91252
G1 X92.863 Y110.692 E3.26032
G1 X90.536 Y109.107 E3.39272
G1 X96.590 Y102.189 E3.82503
G1 X96.549 Y101.504 E3.85730
G1 X99.082 Y94.597 E4.20328
G1 X100.918 Y94.597 E4.28959
G1 X103.451 Y101.504 E4.63557
G1 X103.414 Y102.129 E4.66501
G1 X102.951 Y102.287 F7800.000
G1 F1800
G1 X102.994 Y101.571 E4.69874
G1 X100.602 Y95.049 E5.02543
G1 X99.398 Y95.049 E5.08202
G1 X97.006 Y101.571 E5.40870
G1 X97.052 Y102.347 E5.44526
G1 X91.213 Y109.020 E5.86228
G1 X92.945 Y110.201 E5.96087
G1 X100.000 Y108.284 E6.30465
G1 X107.055 Y110.201 E6.64843
G1 X108.787 Y109.020 E6.74702
G1 X102.948 Y102.347 E7.16404
G1 X102.488 Y102.445 F7800.000
G1 F1800
G1 X102.537 Y101.638 E7.20207
G1 X100.286 Y95.501 E7.50945
G1 X99.714 Y95.501 E7.53633
G1 X97.463 Y101.638 E7.84371
G1 X97.515 Y102.505 E7.88456
G1 X91.890 Y108.934 E8.28629
G1 X93.028 Y109.709 E8.35107
G1 X100.000 Y107.816 E8.69083
G1 X106.972 Y109.709 E9.03059
G1 X108.110 Y108.934 E9.09536
G1 X102.485 Y102.505 E9.49710
G1 X102.026 Y102.603 F7800.000
G1 F1800
G1 X102.080 Y101.705 E9.53941
G1 X100.000 Y96.036 E9.82337
G1 X97.920 Y101.705 E10.10733
G1 X97.978 Y102.663 E10.15246
G1 X92.566 Y108.848 E10.53892
G1 X93.110 Y109.218 E10.56988
G1 X100.000 Y107.347 E10.90561
G1 X106.890 Y109.218 E11.24135
G1 X107.434 Y108.848 E11.27231
G1 X102.022 Y102.663 E11.65876
G1 X101.563 Y102.762 F7800.000
G1 F1800
G1 X101.622 Y101.772 E11.70537
G1 X100.000 Y97.350 E11.92688
G1 X98.378 Y101.772 E12.14840
G1 X98.441 Y102.821 E12.19782
G1 X93.675 Y108.267 E12.53812
G1 X93.851 Y108.548 E12.55370
G1 X100.000 Y106.878 E12.85334
G1 X106.149 Y108.548 E13.15298
G1 X106.325 Y108.267 E13.16856
G1 X101.559 Y102.821 E13.50886
G1 X101.100 Y102.920 F7800.000
G1 F1800
G1 X101.165 Y101.839 E13.55975
G1 X100.000 Y98.664 E13.71882
G1 X98.835 Y101.839 E13.87790
G1 X98.903 Y102.980 E13.93161
G1 X95.002 Y107.438 E14.21019
G1 X95.178 Y107.719 E14.22578
G1 X100.000 Y106.409 E14.46076
G1 X104.822 Y107.719 E14.69574
G1 X104.998 Y107.438 E14.71132
G1 X101.097 Y102.980 E14.98991
G1 X100.637 Y103.078 F7800.000
G1 F1800
G1 X100.708 Y101.907 E15.04509
G1 X100.000 Y99.978 E15.14172
G1 X99.292 Y101.907 E15.23835
G1 X99.366 Y103.138 E15.29636
G1 X96.329 Y106.609 E15.51323
G1 X96.505 Y106.890 E15.52882
G1 X100.000 Y105.940 E15.69913
G1 X103.495 Y106.890 E15.86945
G1 X103.671 Y106.609 E15.88504
G1 X100.634 Y103.138 E16.10191
G1 X100.000 Y103.101 F7800.000
G1 F1800
G1 X102.344 Y105.779 E16.26929
G1 X102.168 Y106.060 E16.28488
G1 X100.000 Y105.471 E16.39054
G1 X97.832 Y106.060 E16.49620
G1 X97.656 Y105.779 E16.51178
G1 X99.960 Y103.146 E16.67634
G1 X100.210 Y102.644 F7800.000
G1 F1800
G1 X99.790 Y102.644 E16.69611
G1 X99.750 Y101.974 E16.72766
G1 X100.000 Y101.291 E16.76185
G1 X100.250 Y101.974 E16.79603
G1 X100.214 Y102.584 E16.82476
G1 X100.000 Y103.788 F7800.000
G1 F1800
G1 X101.017 Y104.950 E16.89739
G1 X100.841 Y105.231 E16.91297
G1 X100.000 Y105.002 E16.95397
G1 X99.159 Y105.231 E16.99497
G1 X98.983 Y104.950 E17.01056
G1 X99.960 Y103.833 E17.08036
G1 E15.08036 F2400.00000
G92 E0
G1 X89.326 Y107.878 F7800.000
G1 E2.00000 F2400.00000
G1 F1800
G1 X89.066 Y108.105 E2.01624
G1 X87.232 Y106.856 E2.12059
G1 X86.600 Y104.809 E2.22130
G1 X87.143 Y105.102 E2.25032
G1 X87.589 Y104.849 E2.27446
G1 X88.467 Y106.211 E2.35067
G1 X88.504 Y106.240 E2.35290
G1 X89.299 Y107.824 E2.43621
G1 E0.43621 F2400.00000
G92 E0
G1 X110.636 Y95.557 F7800.000
G1 E2.00000 F2400.00000
G1 F1800
G1 X106.306 Y91.211 E2.28460
G1 X106.363 Y88.847 E2.39431
G1 X107.388 Y89.631 E2.45417
G1 X107.626 Y88.976 E2.48648
G1 X108.830 Y88.836 E2.54273
G1 X109.557 Y88.405 E2.58192
G1 X110.134 Y90.018 E2.66141
G1 X110.236 Y90.084 E2.66704
G1 X111.644 Y95.081 E2.90787
G1 X110.691 Y95.531 E2.95679
G1 E0.95679 F2400.00000
G92 E0
G1 X107.176 Y88.907 F7800.000
G1 E2.00000 F2400.00000
G1 F1800
G1 X107.579 Y87.794 E2.05491
G1 X107.911 Y88.494 E2.09082
G1 X108.684 Y88.403 E2.12692
G1 X109.795 Y87.745 E2.18681
G1 X110.504 Y89.726 E2.28440
G1 X110.620 Y89.801 E2.29083
G1 X112.176 Y95.323 E2.55698
G1 X110.542 Y96.095 E2.64080
G1 X105.855 Y91.391 E2.94885
G1 X105.938 Y87.960 E3.10808
G1 X107.128 Y88.870 E3.17759
G1 X106.964 Y88.183 F7800.000
G1 F1800
G1 X107.525 Y86.636 E3.25391
G1 X108.177 Y88.013 E3.32460
G1 X108.538 Y87.971 E3.34145
G1 X110.033 Y87.086 E3.42204
G1 X110.873 Y89.433 E3.53772
G1 X111.004 Y89.518 E3.54495
G1 X112.708 Y95.566 E3.83644
G1 X110.448 Y96.633 E3.95238
G1 X105.379 Y91.546 E4.28553
G1 X105.408 Y91.449 E4.29022
G1 X105.513 Y87.073 E4.49328
G1 X106.916 Y88.146 E4.57523
G1 X107.360 Y88.125 F7800.000
G1 E2.57523 F2400.00000
G92 E0
G1 X108.880 Y89.167 F7800.000
G1 E2.00000 F2400.00000
G1 F1800
G1 X107.870 Y89.285 E2.04862
G1 X107.547 Y90.174 E2.09385
G1 X106.682 Y89.512 E2.14594
G1 X106.644 Y91.076 E2.22075
G1 X110.707 Y95.153 E2.49597
G1 X111.245 Y94.899 E2.52443
G1 X109.948 Y90.297 E2.75309
G1 X109.857 Y90.238 E2.75826
G1 X109.378 Y88.900 E2.82621
G1 X108.939 Y89.160 E2.85061
G1 X109.081 Y89.607 F7800.000
G1 F1800
G1 X108.205 Y89.709 E2.89274
G1 X107.766 Y90.920 E2.95437
G1 X107.598 Y90.792 E2.96446
G1 X107.323 Y91.106 E2.98442
G1 X110.151 Y93.943 E3.17597
G1 X110.449 Y93.769 E3.19248
G1 X109.552 Y90.588 E3.35051
G1 X109.476 Y90.539 E3.35482
G1 X109.140 Y89.600 E3.40254
G1 X108.693 Y89.715 F7800.000
G1 F1800
G1 X109.096 Y90.841 E3.45973
G1 X109.156 Y90.880 E3.46319
G1 X109.526 Y92.192 E3.52835
G1 X109.228 Y92.366 E3.54485
G1 X108.131 Y91.264 E3.61921
G1 X108.672 Y89.771 E3.69516
G1 E1.69516 F2400.00000
G92 E0
G1 X93.637 Y88.847 F7800.000
G1 E2.00000 F2400.00000
G1 F1800
G1 X93.694 Y91.211 E2.10972
G1 X89.364 Y95.557 E2.39431
G1 X88.356 Y95.081 E2.44601
G1 X89.764 Y90.084 E2.68685
G1 X89.866 Y90.018 E2.69247
G1 X90.443 Y88.405 E2.77196
G1 X91.170 Y88.836 E2.81116
G1 X92.374 Y88.976 E2.86740
G1 X92.612 Y89.631 E2.89971
G1 X93.589 Y88.884 E2.95679
G1 X92.089 Y88.494 F7800.000
G1 F1800
G1 X92.421 Y87.794 E2.99270
G1 X92.824 Y88.907 E3.04761
G1 X94.062 Y87.960 E3.11991
G1 X94.145 Y91.391 E3.27913
G1 X89.458 Y96.095 E3.58718
G1 X87.824 Y95.323 E3.67100
G1 X89.380 Y89.801 E3.93716
G1 X89.496 Y89.726 E3.94359
G1 X90.205 Y87.745 E4.04117
G1 X91.316 Y88.403 E4.10106
G1 X92.029 Y88.487 E4.13438
G1 X91.823 Y88.013 F7800.000
G1 F1800
G1 X92.475 Y86.636 E4.20507
G1 X93.036 Y88.183 E4.28139
G1 X94.487 Y87.073 E4.36612
G1 X94.592 Y91.449 E4.56918
G1 X94.621 Y91.546 E4.57387
G1 X89.552 Y96.633 E4.90703
G1 X87.292 Y95.566 E5.02297
G1 X88.996 Y89.518 E5.31445
G1 X89.127 Y89.433 E5.32168
G1 X89.967 Y87.086 E5.43737
G1 X91.462 Y87.971 E5.51795
G1 X91.763 Y88.006 E5.53202
G1 X92.183 Y88.187 F7800.000
G1 X91.061 Y89.160
G1 F1800
G1 X92.130 Y89.285 E5.58351
G1 X92.453 Y90.174 E5.62874
G1 X93.318 Y89.512 E5.68082
G1 X93.356 Y91.076 E5.75564
G1 X89.293 Y95.153 E6.03086
G1 X88.755 Y94.899 E6.05932
G1 X90.052 Y90.297 E6.28798
G1 X90.143 Y90.238 E6.29315
G1 X90.622 Y88.900 E6.36110
G1 X91.009 Y89.129 E6.38263
G1 X90.860 Y89.600 F7800.000
G1 F1800
G1 X91.795 Y89.709 E6.42763
G1 X92.234 Y90.920 E6.48926
G1 X92.402 Y90.792 E6.49935
G1 X92.677 Y91.106 E6.51930
G1 X89.849 Y93.943 E6.71086
G1 X89.551 Y93.769 E6.72736
G1 X90.448 Y90.588 E6.88539
G1 X90.524 Y90.539 E6.88971
G1 X90.840 Y89.656 E6.93455
G1 X91.287 Y89.771 F7800.000
G1 F1800
G1 X90.904 Y90.841 E6.98888
G1 X90.844 Y90.880 E6.99234
G1 X90.474 Y92.192 E7.05749
G1 X90.772 Y92.366 E7.07400
G1 X91.869 Y91.264 E7.14835
