; generated by Slic3r Prusa Edition 1.42.0-beta2+linux64 on 2019-05-09 at 12:11:32

; 

; external perimeters extrusion width = 0.45mm
; perimeters extrusion width = 0.45mm
; infill extrusion width = 0.45mm
; solid infill extrusion width = 0.45mm
; top infill extrusion width = 0.40mm
; first layer extrusion width = 0.50mm

M201 X9000 Y9000 Z500 E10000 ; sets maximum accelerations, mm/sec^2
M203 X500 Y500 Z12 E120 ; sets maximum feedrates, mm/sec
M204 P1500 R1500 T1500 ; sets acceleration (P, T) and retract acceleration (R), mm/sec^2
M205 X10.00 Y10.00 Z0.20 E2.50 ; sets the jerk limits, mm/sec
M205 S0 T0 ; sets the minimum extruding and travel feed rate, mm/sec
M107
M190 S60 ; set bed temperature and wait for it to be reached
M104 S200 ; set temperature
G28 ; home all axes
G1 Z5 F5000 ; lift nozzle
; Filament gcode
M109 S200 ; set temperature and wait for it to be reached
G21 ; set units to millimeters
G90 ; use absolute coordinates
M82 ; use absolute distances for extrusion
G92 E0
G1 Z0.250 F7800.000
G1 E-2.00000 F2400.00000
G92 E0
G1 X99.614 Y99.279 F7800.000
G1 E2.00000 F2400.00000
G1 F1800
G1 X100.572 Y98.426 E2.05950
G1 X101.590 Y97.669 E2.11837
G1 X103.006 Y96.811 E2.19517
G1 X104.223 Y96.236 E2.25758
G1 X105.790 Y95.680 E2.33476
G1 X107.013 Y95.373 E2.39325
G1 X108.747 Y95.125 E2.47451
G1 X110.004 Y95.072 E2.53288
G1 X111.259 Y95.126 E2.59114
G1 X113.002 Y95.376 E2.67284
G1 X114.235 Y95.688 E2.73185
G1 X115.867 Y96.273 E2.81229
G1 X117.031 Y96.832 E2.87219
G1 X118.512 Y97.738 E2.95271
G1 X119.526 Y98.508 E3.01178
G1 X120.721 Y99.614 E3.08734
G1 X121.574 Y100.572 E3.14684
G1 X122.331 Y101.590 E3.20572
G1 X123.189 Y103.006 E3.28251
G1 X123.764 Y104.223 E3.34493
G1 X124.318 Y105.784 E3.42181
G1 X124.627 Y107.013 E3.48059
G1 X124.875 Y108.747 E3.56186
G1 X124.928 Y110.001 E3.62007
G1 X124.874 Y111.255 E3.67829
G1 X124.624 Y113.002 E3.76019
G1 X124.312 Y114.235 E3.81920
G1 X123.727 Y115.867 E3.89963
G1 X123.168 Y117.031 E3.95954
G1 X122.262 Y118.512 E4.04005
G1 X121.492 Y119.526 E4.09913
G1 X120.386 Y120.721 E4.17469
G1 X119.428 Y121.574 E4.23419
G1 X118.410 Y122.331 E4.29306
G1 X116.994 Y123.189 E4.36986
G1 X115.777 Y123.764 E4.43227
G1 X114.216 Y124.318 E4.50916
G1 X112.987 Y124.627 E4.56794
G1 X111.253 Y124.875 E4.64920
G1 X109.999 Y124.928 E4.70741
G1 X108.747 Y124.875 E4.76555
G1 X107.016 Y124.628 E4.84667
G1 X105.788 Y124.320 E4.90540
G1 X104.224 Y123.764 E4.98241
G1 X103.007 Y123.189 E5.04488
G1 X101.590 Y122.331 E5.12168
G1 X100.573 Y121.575 E5.18047
G1 X99.614 Y120.721 E5.24006
G1 X98.509 Y119.527 E5.31554
G1 X97.738 Y118.513 E5.37466
G1 X96.832 Y117.031 E5.45520
G1 X96.274 Y115.869 E5.51505
G1 X95.687 Y114.233 E5.59565
G1 X95.377 Y113.005 E5.65442
G1 X95.126 Y111.259 E5.73626
G1 X95.072 Y110.002 E5.79463
G1 X95.125 Y108.747 E5.85289
G1 X95.376 Y106.998 E5.93488
G1 X95.688 Y105.765 E5.99388
G1 X96.273 Y104.133 E6.07432
G1 X96.832 Y102.969 E6.13422
G1 X97.738 Y101.488 E6.21474
G1 X98.508 Y100.474 E6.27381
G1 X99.573 Y99.323 E6.34659
G1 E4.34659 F2400.00000
G92 E0
G1 X115.204 Y115.486 F7800.000
G1 E2.00000 F2400.00000
G1 F1800
G1 X114.726 Y115.901 E2.02937
G1 X114.324 Y116.202 E2.05267
G1 X113.988 Y116.424 E2.07135
G1 X113.490 Y116.709 E2.09800
G1 X112.987 Y116.946 E2.12378
G1 X112.535 Y117.124 E2.14633
G1 X112.063 Y117.274 E2.16929
G1 X111.522 Y117.408 E2.19517
G1 X111.043 Y117.490 E2.21770
G1 X110.550 Y117.542 E2.24072
G1 X109.999 Y117.561 E2.26627
G1 X109.451 Y117.542 E2.29173
G1 X108.957 Y117.490 E2.31475
G1 X108.478 Y117.408 E2.33728
G1 X107.937 Y117.274 E2.36316
G1 X107.465 Y117.124 E2.38612
G1 X107.013 Y116.946 E2.40867
G1 X106.510 Y116.709 E2.43445
G1 X106.012 Y116.424 E2.46110
G1 X105.676 Y116.202 E2.47977
G1 X105.274 Y115.901 E2.50308
G1 X104.796 Y115.486 E2.53245
G1 X104.461 Y115.148 E2.55451
G1 X104.140 Y114.779 E2.57721
G1 X103.798 Y114.325 E2.60356
G1 X103.534 Y113.921 E2.62594
G1 X103.293 Y113.493 E2.64877
G1 X103.054 Y112.987 E2.67471
G1 X102.876 Y112.535 E2.69726
G1 X102.726 Y112.063 E2.72022
G1 X102.592 Y111.522 E2.74610
G1 X102.510 Y111.043 E2.76863
G1 X102.458 Y110.549 E2.79165
G1 X102.439 Y110.001 E2.81711
G1 X102.458 Y109.450 E2.84267
G1 X102.510 Y108.957 E2.86568
G1 X102.592 Y108.478 E2.88822
G1 X102.726 Y107.937 E2.91409
G1 X102.876 Y107.465 E2.93705
G1 X103.054 Y107.013 E2.95960
G1 X103.293 Y106.507 E2.98555
G1 X103.534 Y106.079 E3.00837
G1 X103.798 Y105.675 E3.03075
G1 X104.140 Y105.221 E3.05710
G1 X104.461 Y104.852 E3.07980
G1 X104.796 Y104.514 E3.10186
G1 X105.274 Y104.099 E3.13124
G1 X105.674 Y103.799 E3.15445
G1 X106.076 Y103.536 E3.17675
G1 X106.562 Y103.265 E3.20255
G1 X107.013 Y103.054 E3.22563
G1 X107.388 Y102.905 E3.24439
G1 X107.941 Y102.725 E3.27134
G1 X108.478 Y102.592 E3.29703
G1 X108.957 Y102.510 E3.31956
G1 X109.447 Y102.458 E3.34242
G1 X110.068 Y102.441 E3.37123
G1 X110.493 Y102.454 E3.39097
G1 X110.989 Y102.503 E3.41409
G1 X111.524 Y102.593 E3.43925
G1 X112.063 Y102.726 E3.46502
G1 X112.535 Y102.876 E3.48797
G1 X112.987 Y103.054 E3.51052
G1 X113.493 Y103.293 E3.53647
G1 X113.921 Y103.534 E3.55930
G1 X114.325 Y103.798 E3.58167
G1 X114.779 Y104.140 E3.60802
G1 X115.148 Y104.461 E3.63073
G1 X115.486 Y104.796 E3.65279
G1 X115.901 Y105.274 E3.68216
G1 X116.202 Y105.676 E3.70546
G1 X116.424 Y106.012 E3.72413
G1 X116.709 Y106.510 E3.75078
G1 X116.946 Y107.013 E3.77657
G1 X117.124 Y107.465 E3.79912
G1 X117.274 Y107.937 E3.82207
G1 X117.408 Y108.478 E3.84795
G1 X117.490 Y108.957 E3.87049
G1 X117.542 Y109.450 E3.89350
G1 X117.561 Y110.001 E3.91905
G1 X117.542 Y110.549 E3.94452
G1 X117.490 Y111.043 E3.96753
G1 X117.408 Y111.522 E3.99007
G1 X117.274 Y112.063 E4.01595
G1 X117.124 Y112.535 E4.03890
G1 X116.946 Y112.987 E4.06146
G1 X116.707 Y113.493 E4.08740
G1 X116.466 Y113.921 E4.11023
G1 X116.202 Y114.325 E4.13260
G1 X115.860 Y114.779 E4.15895
G1 X115.539 Y115.148 E4.18166
G1 X115.246 Y115.443 E4.20094
G1 X115.521 Y115.800 F7800.000
G1 F1800
G1 X115.007 Y116.248 E4.23258
G1 X114.581 Y116.567 E4.25725
G1 X114.222 Y116.804 E4.27721
G1 X113.696 Y117.105 E4.30533
G1 X113.164 Y117.356 E4.33261
G1 X112.684 Y117.545 E4.35656
G1 X112.184 Y117.704 E4.38088
G1 X111.613 Y117.845 E4.40817
G1 X111.104 Y117.933 E4.43213
G1 X110.581 Y117.988 E4.45656
G1 X109.999 Y118.008 E4.48355
G1 X109.419 Y117.988 E4.51045
G1 X108.896 Y117.933 E4.53488
G1 X108.387 Y117.845 E4.55884
G1 X107.816 Y117.704 E4.58613
G1 X107.316 Y117.545 E4.61046
G1 X106.836 Y117.356 E4.63441
G1 X106.304 Y117.105 E4.66169
G1 X105.778 Y116.804 E4.68980
G1 X105.419 Y116.567 E4.70976
G1 X104.993 Y116.248 E4.73443
G1 X104.491 Y115.812 E4.76531
G1 X104.134 Y115.452 E4.78883
G1 X103.793 Y115.060 E4.81295
G1 X103.433 Y114.582 E4.84070
G1 X103.153 Y114.153 E4.86444
G1 X102.896 Y113.698 E4.88870
G1 X102.644 Y113.164 E4.91608
G1 X102.455 Y112.684 E4.94003
G1 X102.296 Y112.184 E4.96435
G1 X102.155 Y111.613 E4.99164
G1 X102.067 Y111.104 E5.01560
G1 X102.012 Y110.581 E5.04003
G1 X101.992 Y110.001 E5.06693
G1 X102.012 Y109.419 E5.09393
G1 X102.067 Y108.896 E5.11836
G1 X102.155 Y108.387 E5.14232
G1 X102.296 Y107.816 E5.16960
G1 X102.455 Y107.316 E5.19393
G1 X102.644 Y106.836 E5.21788
G1 X102.896 Y106.302 E5.24526
G1 X103.153 Y105.847 E5.26951
G1 X103.433 Y105.418 E5.29326
G1 X103.793 Y104.940 E5.32101
G1 X104.134 Y104.548 E5.34513
G1 X104.491 Y104.188 E5.36865
G1 X104.993 Y103.752 E5.39953
G1 X105.418 Y103.433 E5.42414
G1 X105.845 Y103.153 E5.44784
G1 X106.358 Y102.868 E5.47510
G1 X106.835 Y102.644 E5.49954
G1 X107.237 Y102.485 E5.51959
G1 X107.818 Y102.296 E5.54794
G1 X108.387 Y102.155 E5.57511
G1 X108.896 Y102.067 E5.59907
G1 X109.417 Y102.013 E5.62340
G1 X110.068 Y101.994 E5.65362
G1 X110.522 Y102.008 E5.67467
G1 X111.048 Y102.060 E5.69920
G1 X111.615 Y102.156 E5.72585
G1 X112.184 Y102.296 E5.75307
G1 X112.684 Y102.455 E5.77739
G1 X113.164 Y102.644 E5.80134
G1 X113.698 Y102.896 E5.82872
G1 X114.153 Y103.153 E5.85297
G1 X114.582 Y103.433 E5.87672
G1 X115.060 Y103.793 E5.90447
G1 X115.452 Y104.134 E5.92859
G1 X115.812 Y104.491 E5.95211
G1 X116.248 Y104.993 E5.98299
G1 X116.567 Y105.419 E6.00766
G1 X116.804 Y105.778 E6.02762
G1 X117.105 Y106.304 E6.05573
G1 X117.356 Y106.836 E6.08301
G1 X117.545 Y107.316 E6.10696
G1 X117.704 Y107.816 E6.13129
G1 X117.845 Y108.387 E6.15857
G1 X117.933 Y108.896 E6.18253
G1 X117.988 Y109.419 E6.20696
G1 X118.008 Y110.001 E6.23396
G1 X117.988 Y110.581 E6.26086
G1 X117.933 Y111.104 E6.28529
G1 X117.845 Y111.613 E6.30925
G1 X117.704 Y112.184 E6.33654
G1 X117.545 Y112.684 E6.36086
G1 X117.356 Y113.164 E6.38481
G1 X117.104 Y113.698 E6.41219
G1 X116.847 Y114.153 E6.43645
G1 X116.567 Y114.582 E6.46019
G1 X116.207 Y115.060 E6.48794
G1 X115.866 Y115.452 E6.51206
G1 X115.563 Y115.758 E6.53203
G1 X115.838 Y116.115 F7800.000
G1 F1800
G1 X115.287 Y116.596 E6.56595
G1 X114.838 Y116.933 E6.59198
G1 X114.456 Y117.185 E6.61323
G1 X113.902 Y117.501 E6.64281
G1 X113.342 Y117.766 E6.67159
G1 X112.833 Y117.966 E6.69693
G1 X112.305 Y118.134 E6.72263
G1 X111.705 Y118.282 E6.75133
G1 X111.166 Y118.375 E6.77671
G1 X110.612 Y118.433 E6.80256
G1 X109.999 Y118.454 E6.83099
G1 X109.388 Y118.433 E6.85934
G1 X108.834 Y118.375 E6.88518
G1 X108.295 Y118.282 E6.91056
G1 X107.695 Y118.134 E6.93926
G1 X107.167 Y117.966 E6.96496
G1 X106.658 Y117.766 E6.99030
G1 X106.098 Y117.501 E7.01908
G1 X105.544 Y117.185 E7.04866
G1 X105.162 Y116.933 E7.06991
G1 X104.713 Y116.596 E7.09594
G1 X104.185 Y116.138 E7.12833
G1 X103.806 Y115.756 E7.15331
G1 X103.446 Y115.340 E7.17884
G1 X103.068 Y114.839 E7.20798
G1 X102.771 Y114.386 E7.23310
G1 X102.499 Y113.903 E7.25879
G1 X102.234 Y113.342 E7.28760
G1 X102.034 Y112.833 E7.31295
G1 X101.866 Y112.305 E7.33864
G1 X101.718 Y111.705 E7.36734
G1 X101.625 Y111.166 E7.39272
G1 X101.567 Y110.612 E7.41857
G1 X101.546 Y110.001 E7.44691
G1 X101.567 Y109.388 E7.47535
G1 X101.625 Y108.834 E7.50119
G1 X101.718 Y108.295 E7.52657
G1 X101.866 Y107.695 E7.55527
G1 X102.034 Y107.167 E7.58097
G1 X102.234 Y106.658 E7.60631
G1 X102.499 Y106.097 E7.63513
G1 X102.771 Y105.614 E7.66081
G1 X103.068 Y105.161 E7.68593
G1 X103.446 Y104.660 E7.71508
G1 X103.806 Y104.244 E7.74061
G1 X104.185 Y103.862 E7.76558
G1 X104.713 Y103.404 E7.79798
G1 X105.161 Y103.068 E7.82399
G1 X105.614 Y102.771 E7.84909
G1 X106.155 Y102.470 E7.87781
G1 X106.658 Y102.234 E7.90361
G1 X107.086 Y102.064 E7.92495
G1 X107.696 Y101.866 E7.95469
G1 X108.295 Y101.718 E7.98335
G1 X108.834 Y101.625 E8.00873
G1 X109.388 Y101.567 E8.03454
G1 X110.069 Y101.548 E8.06616
G1 X110.551 Y101.562 E8.08854
G1 X111.107 Y101.618 E8.11447
G1 X111.705 Y101.718 E8.14260
G1 X112.305 Y101.866 E8.17127
G1 X112.833 Y102.034 E8.19697
G1 X113.342 Y102.234 E8.22231
G1 X113.903 Y102.499 E8.25113
G1 X114.386 Y102.771 E8.27681
G1 X114.839 Y103.068 E8.30193
G1 X115.340 Y103.446 E8.33108
G1 X115.756 Y103.806 E8.35661
G1 X116.138 Y104.185 E8.38158
G1 X116.596 Y104.713 E8.41398
G1 X116.933 Y105.162 E8.44001
G1 X117.185 Y105.544 E8.46126
G1 X117.501 Y106.098 E8.49084
G1 X117.766 Y106.658 E8.51961
G1 X117.966 Y107.167 E8.54496
G1 X118.134 Y107.695 E8.57066
G1 X118.282 Y108.295 E8.59936
G1 X118.375 Y108.834 E8.62474
G1 X118.433 Y109.388 E8.65058
G1 X118.454 Y110.001 E8.67902
G1 X118.433 Y110.612 E8.70736
G1 X118.375 Y111.166 E8.73320
G1 X118.282 Y111.705 E8.75859
G1 X118.134 Y112.305 E8.78729
G1 X117.966 Y112.833 E8.81298
G1 X117.766 Y113.342 E8.83833
G1 X117.501 Y113.903 E8.86714
G1 X117.229 Y114.386 E8.89282
G1 X116.932 Y114.839 E8.91794
G1 X116.554 Y115.340 E8.94709
G1 X116.194 Y115.756 E8.97262
G1 X115.880 Y116.072 E8.99328
G1 X115.455 Y115.999 F7800.000
G1 E6.99328 F2400.00000
G92 E0
G1 X109.631 Y109.747 F7800.000
G1 E2.00000 F2400.00000
G1 F1800
G1 X109.554 Y109.939 E2.00968
G1 X109.554 Y110.061 E2.01541
G1 X109.613 Y110.228 E2.02374
G1 X109.749 Y110.371 E2.03300
G1 X109.939 Y110.446 E2.04258
G1 X110.061 Y110.446 E2.04831
G1 X110.201 Y110.400 E2.05521
G1 X110.333 Y110.300 E2.06297
G1 X110.427 Y110.134 E2.07195
G1 X110.446 Y109.939 E2.08116
G1 X110.400 Y109.799 E2.08806
G1 X110.300 Y109.667 E2.09581
G1 X110.134 Y109.572 E2.10480
G1 X110.044 Y109.553 E2.10910
G1 X109.918 Y109.558 E2.11507
G1 X109.752 Y109.626 E2.12346
G1 X109.667 Y109.700 E2.12873
G1 X109.319 Y109.411 F7800.000
G1 F1800
G1 X109.459 Y109.282 E2.13764
G1 X109.600 Y109.193 E2.14549
G1 X109.881 Y109.106 E2.15928
G1 X110.060 Y109.101 E2.16771
G1 X110.257 Y109.138 E2.17708
G1 X110.432 Y109.210 E2.18598
G1 X110.589 Y109.319 E2.19497
G1 X110.718 Y109.459 E2.20387
G1 X110.801 Y109.590 E2.21117
G1 X110.862 Y109.743 E2.21893
G1 X110.897 Y109.913 E2.22707
G1 X110.892 Y110.128 E2.23713
G1 X110.846 Y110.308 E2.24589
G1 X110.774 Y110.461 E2.25378
G1 X110.681 Y110.589 E2.26124
G1 X110.541 Y110.718 E2.27015
G1 X110.410 Y110.801 E2.27744
G1 X110.257 Y110.862 E2.28520
G1 X110.087 Y110.897 E2.29334
G1 X109.914 Y110.897 E2.30145
G1 X109.743 Y110.862 E2.30961
G1 X109.590 Y110.801 E2.31738
G1 X109.459 Y110.717 E2.32467
G1 X109.345 Y110.619 E2.33173
G1 X109.226 Y110.461 E2.34104
G1 X109.154 Y110.308 E2.34893
G1 X109.108 Y110.128 E2.35769
G1 X109.103 Y109.913 E2.36775
G1 X109.138 Y109.743 E2.37589
G1 X109.210 Y109.568 E2.38479
G1 X109.283 Y109.459 E2.39097
G1 X108.932 Y109.175 F7800.000
G1 F1800
G1 X108.808 Y109.360 E2.40144
G1 X108.703 Y109.621 E2.41463
G1 X108.653 Y109.882 E2.42711
G1 X108.660 Y110.190 E2.44156
G1 X108.728 Y110.459 E2.45462
G1 X108.840 Y110.695 E2.46686
G1 X109.012 Y110.924 E2.48028
G1 X109.175 Y111.069 E2.49056
G1 X109.381 Y111.201 E2.50204
G1 X109.621 Y111.297 E2.51417
G1 X109.882 Y111.347 E2.52668
G1 X110.190 Y111.340 E2.54110
G1 X110.459 Y111.272 E2.55416
G1 X110.619 Y111.201 E2.56236
G1 X110.825 Y111.069 E2.57384
G1 X111.032 Y110.873 E2.58722
G1 X111.160 Y110.695 E2.59752
G1 X111.272 Y110.459 E2.60977
G1 X111.340 Y110.190 E2.62282
G1 X111.347 Y109.882 E2.63727
G1 X111.297 Y109.621 E2.64975
G1 X111.201 Y109.381 E2.66189
G1 X111.069 Y109.175 E2.67337
G1 X110.873 Y108.968 E2.68676
G1 X110.640 Y108.808 E2.70004
G1 X110.379 Y108.703 E2.71323
G1 X110.090 Y108.650 E2.72700
G1 X109.860 Y108.655 E2.73782
G1 X109.647 Y108.696 E2.74802
G1 X109.394 Y108.791 E2.76068
G1 X109.175 Y108.931 E2.77289
G1 X108.968 Y109.127 E2.78627
G1 X108.617 Y108.843 F7800.000
G1 F1800
G1 X108.891 Y108.579 E2.80413
G1 X109.188 Y108.389 E2.82068
G1 X109.523 Y108.262 E2.83749
G1 X109.830 Y108.204 E2.85216
G1 X110.120 Y108.199 E2.86577
G1 X110.502 Y108.268 E2.88399
G1 X110.847 Y108.407 E2.90147
G1 X111.157 Y108.617 E2.91905
G1 X111.421 Y108.891 E2.93690
G1 X111.602 Y109.172 E2.95260
G1 X111.732 Y109.498 E2.96909
G1 X111.798 Y109.851 E2.98592
G1 X111.787 Y110.252 E3.00476
G1 X111.698 Y110.610 E3.02211
G1 X111.546 Y110.930 E3.03871
G1 X111.383 Y111.157 E3.05184
G1 X111.109 Y111.421 E3.06970
G1 X110.828 Y111.602 E3.08540
G1 X110.610 Y111.698 E3.09655
G1 X110.252 Y111.787 E3.11391
G1 X109.851 Y111.798 E3.13272
G1 X109.498 Y111.732 E3.14957
G1 X109.172 Y111.602 E3.16606
G1 X108.891 Y111.421 E3.18176
G1 X108.680 Y111.231 E3.19506
G1 X108.454 Y110.930 E3.21276
G1 X108.302 Y110.610 E3.22936
G1 X108.213 Y110.252 E3.24671
G1 X108.202 Y109.851 E3.26555
G1 X108.268 Y109.498 E3.28238
G1 X108.407 Y109.153 E3.29986
G1 X108.580 Y108.890 E3.31463
G1 X108.229 Y108.606 F7800.000
G1 F1800
G1 X108.005 Y108.945 E3.33369
G1 X107.833 Y109.376 E3.35546
G1 X107.751 Y109.819 E3.37663
G1 X107.765 Y110.314 E3.39986
G1 X107.876 Y110.762 E3.42151
G1 X108.067 Y111.165 E3.44246
G1 X108.349 Y111.539 E3.46444
G1 X108.607 Y111.772 E3.48078
G1 X108.963 Y112.003 E3.50069
G1 X109.376 Y112.167 E3.52153
G1 X109.820 Y112.249 E3.54272
G1 X110.314 Y112.235 E3.56593
G1 X110.762 Y112.124 E3.58758
G1 X111.037 Y112.003 E3.60170
G1 X111.393 Y111.772 E3.62161
G1 X111.579 Y111.611 E3.63317
G1 X111.735 Y111.442 E3.64397
G1 X111.995 Y111.055 E3.66585
G1 X112.167 Y110.624 E3.68762
G1 X112.249 Y110.180 E3.70881
G1 X112.249 Y109.819 E3.72576
G1 X112.167 Y109.376 E3.74693
G1 X112.003 Y108.963 E3.76778
G1 X111.772 Y108.607 E3.78769
G1 X111.611 Y108.421 E3.79925
G1 X111.442 Y108.265 E3.81006
G1 X111.055 Y108.005 E3.83193
G1 X110.624 Y107.833 E3.85370
G1 X110.149 Y107.748 E3.87636
G1 X109.800 Y107.753 E3.89275
