; generated by Slic3r Prusa Edition 1.42.0-beta2+linux64 on 2019-05-13 at 14:16:27

; 

; external perimeters extrusion width = 0.45mm
; perimeters extrusion width = 0.45mm
; infill extrusion width = 0.45mm
; solid infill extrusion width = 0.45mm
; top infill extrusion width = 0.40mm
; first layer extrusion width = 0.50mm

M201 X9000 Y9000 Z500 E10000 ; sets maximum accelerations, mm/sec^2
M203 X500 Y500 Z12 E120 ; sets maximum feedrates, mm/sec
M204 P1500 R1500 T1500 ; sets acceleration (P, T) and retract acceleration (R), mm/sec^2
M205 X10.00 Y10.00 Z0.20 E2.50 ; sets the jerk limits, mm/sec
M205 S0 T0 ; sets the minimum extruding and travel feed rate, mm/sec
M107
M190 S60 ; set bed temperature and wait for it to be reached
M104 S200 ; set temperature
G28 ; home all axes
G1 Z5 F5000 ; lift nozzle
; Filament gcode
M109 S200 ; set temperature and wait for it to be reached
G21 ; set units to millimeters
G90 ; use absolute coordinates
M82 ; use absolute distances for extrusion
G92 E0
G1 Z0.250 F7800.000
G1 E-2.00000 F2400.00000
G92 E0
G1 X89.614 Y89.279 F7800.000
G1 E2.00000 F2400.00000
G1 F1800
G1 X90.572 Y88.426 E2.05950
G1 X91.590 Y87.669 E2.11837
G1 X93.006 Y86.811 E2.19517
G1 X94.223 Y86.236 E2.25759
G1 X95.790 Y85.680 E2.33476
G1 X97.013 Y85.373 E2.39325
G1 X98.747 Y85.125 E2.47451
G1 X100.004 Y85.072 E2.53288
G1 X101.259 Y85.126 E2.59114
G1 X103.002 Y85.376 E2.67284
G1 X104.235 Y85.688 E2.73185
G1 X105.867 Y86.273 E2.81229
G1 X107.031 Y86.832 E2.87219
G1 X108.512 Y87.738 E2.95271
G1 X109.526 Y88.507 E3.01178
G1 X110.721 Y89.614 E3.08734
G1 X111.574 Y90.572 E3.14684
G1 X112.331 Y91.590 E3.20571
G1 X113.189 Y93.006 E3.28251
G1 X113.764 Y94.223 E3.34493
G1 X114.320 Y95.790 E3.42210
G1 X114.627 Y97.013 E3.48059
G1 X114.875 Y98.747 E3.56186
G1 X114.928 Y100.001 E3.62007
G1 X114.874 Y101.255 E3.67829
G1 X114.624 Y103.002 E3.76019
G1 X114.312 Y104.235 E3.81920
G1 X113.727 Y105.867 E3.89963
G1 X113.168 Y107.031 E3.95953
G1 X112.262 Y108.512 E4.04005
G1 X111.492 Y109.526 E4.09912
G1 X110.386 Y110.721 E4.17469
G1 X109.428 Y111.574 E4.23419
G1 X108.410 Y112.331 E4.29306
G1 X106.994 Y113.189 E4.36986
G1 X105.777 Y113.764 E4.43227
G1 X104.216 Y114.318 E4.50916
G1 X102.987 Y114.627 E4.56794
G1 X101.253 Y114.875 E4.64920
G1 X99.999 Y114.928 E4.70741
G1 X98.747 Y114.875 E4.76555
G1 X97.016 Y114.628 E4.84668
G1 X95.788 Y114.320 E4.90540
G1 X94.224 Y113.764 E4.98241
G1 X93.007 Y113.189 E5.04488
G1 X91.590 Y112.331 E5.12169
G1 X90.573 Y111.575 E5.18047
G1 X89.614 Y110.721 E5.24006
G1 X88.509 Y109.527 E5.31554
G1 X87.738 Y108.513 E5.37466
G1 X86.832 Y107.031 E5.45521
G1 X86.274 Y105.868 E5.51505
G1 X85.687 Y104.233 E5.59565
G1 X85.377 Y103.005 E5.65442
G1 X85.126 Y101.259 E5.73626
G1 X85.072 Y100.002 E5.79463
G1 X85.125 Y98.747 E5.85289
G1 X85.376 Y96.998 E5.93488
G1 X85.688 Y95.765 E5.99388
G1 X86.273 Y94.133 E6.07432
G1 X86.832 Y92.969 E6.13422
G1 X87.738 Y91.488 E6.21474
G1 X88.508 Y90.474 E6.27381
G1 X89.573 Y89.323 E6.34659
G1 E4.34659 F2400.00000
G92 E0
G1 X105.228 Y105.461 F7800.000
G1 E2.00000 F2400.00000
G1 F1800
G1 X104.726 Y105.901 E2.03096
G1 X104.324 Y106.202 E2.05427
G1 X103.988 Y106.424 E2.07294
G1 X103.490 Y106.709 E2.09959
G1 X102.987 Y106.946 E2.12537
G1 X102.535 Y107.124 E2.14792
G1 X102.063 Y107.274 E2.17088
G1 X101.522 Y107.408 E2.19676
G1 X101.043 Y107.490 E2.21929
G1 X100.550 Y107.542 E2.24231
G1 X99.999 Y107.561 E2.26786
G1 X99.451 Y107.542 E2.29332
G1 X98.957 Y107.490 E2.31634
G1 X98.478 Y107.408 E2.33888
G1 X97.937 Y107.274 E2.36475
G1 X97.465 Y107.124 E2.38771
G1 X97.013 Y106.946 E2.41026
G1 X96.507 Y106.707 E2.43621
G1 X96.079 Y106.466 E2.45903
G1 X95.675 Y106.202 E2.48141
G1 X95.221 Y105.860 E2.50776
G1 X94.852 Y105.539 E2.53046
G1 X94.514 Y105.204 E2.55252
G1 X94.099 Y104.726 E2.58190
G1 X93.798 Y104.324 E2.60520
G1 X93.576 Y103.988 E2.62387
G1 X93.291 Y103.490 E2.65052
G1 X93.054 Y102.987 E2.67630
G1 X92.876 Y102.535 E2.69886
G1 X92.726 Y102.063 E2.72181
G1 X92.592 Y101.522 E2.74769
G1 X92.510 Y101.043 E2.77023
G1 X92.458 Y100.549 E2.79324
G1 X92.439 Y100.001 E2.81871
G1 X92.458 Y99.450 E2.84426
G1 X92.510 Y98.957 E2.86727
G1 X92.592 Y98.478 E2.88981
G1 X92.726 Y97.937 E2.91569
G1 X92.876 Y97.465 E2.93864
G1 X93.054 Y97.013 E2.96119
G1 X93.293 Y96.507 E2.98714
G1 X93.534 Y96.079 E3.00997
G1 X93.798 Y95.675 E3.03234
G1 X94.140 Y95.221 E3.05869
G1 X94.461 Y94.852 E3.08140
G1 X94.796 Y94.514 E3.10346
G1 X95.274 Y94.099 E3.13283
G1 X95.674 Y93.799 E3.15604
G1 X96.076 Y93.536 E3.17834
G1 X96.562 Y93.265 E3.20414
G1 X97.013 Y93.054 E3.22722
G1 X97.388 Y92.905 E3.24598
G1 X97.941 Y92.725 E3.27293
G1 X98.478 Y92.592 E3.29862
G1 X98.957 Y92.510 E3.32115
G1 X99.447 Y92.458 E3.34401
G1 X100.068 Y92.441 E3.37282
G1 X100.493 Y92.454 E3.39256
G1 X100.989 Y92.503 E3.41568
G1 X101.524 Y92.593 E3.44084
G1 X102.063 Y92.726 E3.46661
G1 X102.535 Y92.876 E3.48956
G1 X102.987 Y93.054 E3.51212
G1 X103.493 Y93.293 E3.53806
G1 X103.921 Y93.534 E3.56089
G1 X104.325 Y93.798 E3.58326
G1 X104.779 Y94.140 E3.60961
G1 X105.148 Y94.461 E3.63232
G1 X105.486 Y94.796 E3.65438
G1 X105.901 Y95.274 E3.68375
G1 X106.202 Y95.676 E3.70705
G1 X106.424 Y96.012 E3.72572
G1 X106.709 Y96.510 E3.75238
G1 X106.946 Y97.013 E3.77816
G1 X107.124 Y97.465 E3.80071
G1 X107.274 Y97.937 E3.82367
G1 X107.408 Y98.478 E3.84954
G1 X107.490 Y98.957 E3.87208
G1 X107.542 Y99.450 E3.89509
G1 X107.561 Y100.001 E3.92065
G1 X107.542 Y100.549 E3.94611
G1 X107.490 Y101.043 E3.96912
G1 X107.408 Y101.522 E3.99166
G1 X107.274 Y102.063 E4.01754
G1 X107.124 Y102.535 E4.04049
G1 X106.946 Y102.987 E4.06305
G1 X106.707 Y103.493 E4.08899
G1 X106.466 Y103.921 E4.11182
G1 X106.202 Y104.325 E4.13419
G1 X105.860 Y104.779 E4.16054
G1 X105.539 Y105.148 E4.18325
G1 X105.271 Y105.419 E4.20093
G1 X105.545 Y105.776 F7800.000
G1 F1800
G1 X105.007 Y106.248 E4.23417
G1 X104.581 Y106.567 E4.25884
G1 X104.222 Y106.804 E4.27880
G1 X103.696 Y107.105 E4.30691
G1 X103.164 Y107.356 E4.33419
G1 X102.684 Y107.545 E4.35814
G1 X102.184 Y107.704 E4.38247
G1 X101.613 Y107.845 E4.40976
G1 X101.104 Y107.933 E4.43372
G1 X100.581 Y107.988 E4.45815
G1 X99.999 Y108.008 E4.48514
G1 X99.419 Y107.988 E4.51204
G1 X98.896 Y107.933 E4.53647
G1 X98.387 Y107.845 E4.56043
G1 X97.816 Y107.704 E4.58772
G1 X97.316 Y107.545 E4.61205
G1 X96.836 Y107.356 E4.63600
G1 X96.302 Y107.104 E4.66337
G1 X95.847 Y106.847 E4.68763
G1 X95.418 Y106.567 E4.71138
G1 X94.940 Y106.207 E4.73913
G1 X94.548 Y105.866 E4.76324
G1 X94.188 Y105.509 E4.78676
G1 X93.752 Y105.007 E4.81764
G1 X93.433 Y104.581 E4.84231
G1 X93.196 Y104.222 E4.86227
G1 X92.895 Y103.696 E4.89039
G1 X92.644 Y103.164 E4.91767
G1 X92.455 Y102.684 E4.94162
G1 X92.296 Y102.184 E4.96594
G1 X92.155 Y101.613 E4.99323
G1 X92.067 Y101.104 E5.01719
G1 X92.012 Y100.581 E5.04162
G1 X91.992 Y100.001 E5.06852
G1 X92.012 Y99.419 E5.09552
G1 X92.067 Y98.896 E5.11994
G1 X92.155 Y98.387 E5.14390
G1 X92.296 Y97.816 E5.17119
G1 X92.455 Y97.316 E5.19552
G1 X92.644 Y96.836 E5.21947
G1 X92.896 Y96.302 E5.24685
G1 X93.153 Y95.847 E5.27110
G1 X93.433 Y95.418 E5.29485
G1 X93.793 Y94.940 E5.32260
G1 X94.134 Y94.548 E5.34671
G1 X94.491 Y94.188 E5.37023
G1 X94.993 Y93.752 E5.40112
G1 X95.418 Y93.433 E5.42573
G1 X95.845 Y93.153 E5.44943
G1 X96.358 Y92.868 E5.47669
G1 X96.835 Y92.644 E5.50113
G1 X97.237 Y92.485 E5.52118
G1 X97.818 Y92.296 E5.54953
G1 X98.387 Y92.155 E5.57670
G1 X98.896 Y92.067 E5.60066
G1 X99.417 Y92.013 E5.62499
G1 X100.068 Y91.994 E5.65521
G1 X100.522 Y92.008 E5.67626
G1 X101.048 Y92.060 E5.70079
G1 X101.615 Y92.156 E5.72744
G1 X102.184 Y92.296 E5.75465
G1 X102.684 Y92.455 E5.77898
G1 X103.164 Y92.644 E5.80293
G1 X103.698 Y92.896 E5.83031
G1 X104.153 Y93.153 E5.85456
G1 X104.582 Y93.433 E5.87831
G1 X105.060 Y93.793 E5.90606
G1 X105.452 Y94.134 E5.93018
G1 X105.812 Y94.491 E5.95369
G1 X106.248 Y94.993 E5.98458
G1 X106.567 Y95.419 E6.00924
G1 X106.804 Y95.778 E6.02921
G1 X107.105 Y96.304 E6.05732
G1 X107.356 Y96.836 E6.08460
G1 X107.545 Y97.316 E6.10855
G1 X107.704 Y97.816 E6.13287
G1 X107.845 Y98.387 E6.16016
G1 X107.933 Y98.896 E6.18412
G1 X107.988 Y99.419 E6.20855
G1 X108.008 Y100.001 E6.23554
G1 X107.988 Y100.581 E6.26245
G1 X107.933 Y101.104 E6.28688
G1 X107.845 Y101.613 E6.31084
G1 X107.704 Y102.184 E6.33813
G1 X107.545 Y102.684 E6.36245
G1 X107.356 Y103.164 E6.38640
G1 X107.104 Y103.698 E6.41378
G1 X106.847 Y104.153 E6.43803
G1 X106.567 Y104.582 E6.46178
G1 X106.207 Y105.060 E6.48953
G1 X105.866 Y105.452 E6.51365
G1 X105.588 Y105.733 E6.53202
G1 X105.862 Y106.090 F7800.000
G1 F1800
G1 X105.287 Y106.596 E6.56754
G1 X104.838 Y106.933 E6.59357
G1 X104.456 Y107.185 E6.61482
G1 X103.902 Y107.501 E6.64440
G1 X103.342 Y107.766 E6.67317
G1 X102.833 Y107.966 E6.69852
G1 X102.305 Y108.134 E6.72421
G1 X101.705 Y108.282 E6.75292
G1 X101.166 Y108.375 E6.77830
G1 X100.612 Y108.433 E6.80414
G1 X99.999 Y108.454 E6.83258
G1 X99.388 Y108.433 E6.86092
G1 X98.834 Y108.375 E6.88676
G1 X98.295 Y108.282 E6.91214
G1 X97.695 Y108.134 E6.94085
G1 X97.167 Y107.966 E6.96654
G1 X96.658 Y107.766 E6.99189
G1 X96.097 Y107.501 E7.02070
G1 X95.614 Y107.229 E7.04638
G1 X95.161 Y106.932 E7.07150
G1 X94.660 Y106.554 E7.10065
G1 X94.244 Y106.194 E7.12618
G1 X93.862 Y105.815 E7.15116
G1 X93.404 Y105.287 E7.18355
G1 X93.067 Y104.838 E7.20958
G1 X92.815 Y104.456 E7.23083
G1 X92.499 Y103.902 E7.26041
G1 X92.234 Y103.342 E7.28919
G1 X92.034 Y102.833 E7.31453
G1 X91.866 Y102.305 E7.34023
G1 X91.718 Y101.705 E7.36893
G1 X91.625 Y101.166 E7.39431
G1 X91.567 Y100.612 E7.42015
G1 X91.546 Y100.001 E7.44850
G1 X91.567 Y99.388 E7.47693
G1 X91.625 Y98.834 E7.50277
G1 X91.718 Y98.295 E7.52816
G1 X91.866 Y97.695 E7.55686
G1 X92.034 Y97.167 E7.58255
G1 X92.234 Y96.658 E7.60790
G1 X92.499 Y96.097 E7.63671
G1 X92.771 Y95.614 E7.66239
G1 X93.068 Y95.161 E7.68751
G1 X93.446 Y94.660 E7.71666
G1 X93.806 Y94.244 E7.74219
G1 X94.185 Y93.862 E7.76717
G1 X94.713 Y93.404 E7.79956
G1 X95.161 Y93.068 E7.82557
G1 X95.614 Y92.771 E7.85068
G1 X96.155 Y92.470 E7.87939
G1 X96.658 Y92.234 E7.90520
G1 X97.086 Y92.064 E7.92654
G1 X97.696 Y91.866 E7.95628
G1 X98.295 Y91.718 E7.98493
G1 X98.834 Y91.625 E8.01032
G1 X99.388 Y91.567 E8.03612
G1 X100.069 Y91.548 E8.06775
G1 X100.551 Y91.562 E8.09012
G1 X101.107 Y91.618 E8.11605
G1 X101.705 Y91.718 E8.14418
G1 X102.305 Y91.866 E8.17286
G1 X102.833 Y92.034 E8.19855
G1 X103.342 Y92.234 E8.22390
G1 X103.903 Y92.499 E8.25271
G1 X104.386 Y92.771 E8.27840
G1 X104.839 Y93.068 E8.30352
G1 X105.340 Y93.446 E8.33266
G1 X105.756 Y93.806 E8.35819
G1 X106.138 Y94.185 E8.38317
G1 X106.596 Y94.713 E8.41556
G1 X106.933 Y95.162 E8.44159
G1 X107.185 Y95.544 E8.46284
G1 X107.501 Y96.098 E8.49242
G1 X107.766 Y96.658 E8.52120
G1 X107.966 Y97.167 E8.54654
G1 X108.134 Y97.695 E8.57224
G1 X108.282 Y98.295 E8.60094
G1 X108.375 Y98.834 E8.62632
G1 X108.433 Y99.388 E8.65216
G1 X108.454 Y100.001 E8.68060
G1 X108.433 Y100.612 E8.70894
G1 X108.375 Y101.166 E8.73479
G1 X108.282 Y101.705 E8.76017
G1 X108.134 Y102.305 E8.78887
G1 X107.966 Y102.833 E8.81457
G1 X107.766 Y103.342 E8.83991
G1 X107.501 Y103.903 E8.86872
G1 X107.229 Y104.386 E8.89441
G1 X106.932 Y104.839 E8.91953
G1 X106.554 Y105.340 E8.94868
G1 X106.194 Y105.756 E8.97420
G1 X105.904 Y106.048 E8.99326
G1 X105.479 Y105.975 F7800.000
G1 E6.99326 F2400.00000
G92 E0
G1 X99.631 Y99.747 F7800.000
G1 E2.00000 F2400.00000
G1 F1800
G1 X99.554 Y99.939 E2.00968
G1 X99.554 Y100.061 E2.01541
G1 X99.600 Y100.201 E2.02232
G1 X99.700 Y100.333 E2.03007
G1 X99.866 Y100.427 E2.03906
G1 X100.061 Y100.446 E2.04827
G1 X100.201 Y100.400 E2.05517
G1 X100.333 Y100.300 E2.06292
G1 X100.428 Y100.134 E2.07191
G1 X100.446 Y99.939 E2.08111
G1 X100.400 Y99.799 E2.08801
G1 X100.300 Y99.667 E2.09577
G1 X100.134 Y99.573 E2.10475
G1 X100.044 Y99.553 E2.10906
G1 X99.918 Y99.558 E2.11502
G1 X99.752 Y99.626 E2.12342
G1 X99.667 Y99.700 E2.12869
G1 X99.319 Y99.411 F7800.000
G1 F1800
G1 X99.459 Y99.282 E2.13760
G1 X99.600 Y99.193 E2.14545
G1 X99.881 Y99.106 E2.15923
G1 X100.060 Y99.101 E2.16766
G1 X100.257 Y99.138 E2.17704
G1 X100.432 Y99.210 E2.18593
G1 X100.589 Y99.319 E2.19492
G1 X100.718 Y99.459 E2.20383
G1 X100.801 Y99.590 E2.21112
G1 X100.862 Y99.743 E2.21888
G1 X100.897 Y99.913 E2.22703
G1 X100.892 Y100.128 E2.23708
G1 X100.846 Y100.308 E2.24584
G1 X100.774 Y100.461 E2.25374
G1 X100.681 Y100.589 E2.26120
G1 X100.541 Y100.718 E2.27010
G1 X100.410 Y100.801 E2.27739
G1 X100.257 Y100.862 E2.28515
G1 X100.086 Y100.897 E2.29330
G1 X99.872 Y100.892 E2.30335
G1 X99.692 Y100.846 E2.31211
G1 X99.539 Y100.774 E2.32001
G1 X99.411 Y100.681 E2.32747
G1 X99.282 Y100.541 E2.33637
G1 X99.199 Y100.410 E2.34366
G1 X99.138 Y100.257 E2.35143
G1 X99.103 Y100.086 E2.35959
G1 X99.103 Y99.913 E2.36769
G1 X99.138 Y99.743 E2.37584
G1 X99.210 Y99.568 E2.38473
G1 X99.283 Y99.459 E2.39091
G1 X98.932 Y99.175 F7800.000
G1 F1800
G1 X98.808 Y99.360 E2.40138
G1 X98.703 Y99.621 E2.41457
G1 X98.653 Y99.882 E2.42706
G1 X98.653 Y100.118 E2.43811
G1 X98.703 Y100.379 E2.45062
G1 X98.799 Y100.619 E2.46275
G1 X98.931 Y100.825 E2.47424
G1 X99.127 Y101.032 E2.48762
G1 X99.305 Y101.160 E2.49791
G1 X99.541 Y101.272 E2.51016
G1 X99.810 Y101.340 E2.52322
G1 X100.118 Y101.347 E2.53766
G1 X100.379 Y101.297 E2.55015
G1 X100.619 Y101.201 E2.56228
G1 X100.825 Y101.069 E2.57377
G1 X101.032 Y100.873 E2.58715
G1 X101.160 Y100.695 E2.59745
G1 X101.272 Y100.459 E2.60969
G1 X101.340 Y100.190 E2.62275
G1 X101.347 Y99.882 E2.63720
G1 X101.297 Y99.621 E2.64968
G1 X101.201 Y99.381 E2.66182
G1 X101.069 Y99.175 E2.67330
G1 X100.873 Y98.968 E2.68668
G1 X100.640 Y98.808 E2.69997
G1 X100.379 Y98.703 E2.71316
G1 X100.090 Y98.650 E2.72693
G1 X99.860 Y98.655 E2.73775
G1 X99.647 Y98.696 E2.74795
G1 X99.394 Y98.791 E2.76061
G1 X99.175 Y98.931 E2.77282
G1 X98.968 Y99.127 E2.78620
G1 X98.616 Y98.843 F7800.000
G1 F1800
G1 X98.891 Y98.579 E2.80406
G1 X99.188 Y98.389 E2.82061
G1 X99.523 Y98.262 E2.83742
G1 X99.830 Y98.204 E2.85209
G1 X100.120 Y98.199 E2.86570
G1 X100.502 Y98.268 E2.88392
G1 X100.847 Y98.407 E2.90140
G1 X101.157 Y98.616 E2.91897
G1 X101.421 Y98.891 E2.93683
G1 X101.602 Y99.172 E2.95253
G1 X101.732 Y99.498 E2.96902
G1 X101.798 Y99.851 E2.98585
G1 X101.787 Y100.252 E3.00468
G1 X101.698 Y100.610 E3.02204
G1 X101.546 Y100.930 E3.03864
G1 X101.383 Y101.157 E3.05177
G1 X101.109 Y101.421 E3.06963
G1 X100.828 Y101.602 E3.08533
G1 X100.502 Y101.732 E3.10181
G1 X100.149 Y101.798 E3.11864
G1 X99.748 Y101.787 E3.13748
G1 X99.390 Y101.698 E3.15483
G1 X99.070 Y101.546 E3.17144
G1 X98.843 Y101.384 E3.18457
G1 X98.579 Y101.109 E3.20242
G1 X98.398 Y100.828 E3.21812
G1 X98.268 Y100.502 E3.23461
G1 X98.202 Y100.149 E3.25146
G1 X98.202 Y99.851 E3.26546
G1 X98.268 Y99.498 E3.28229
G1 X98.407 Y99.153 E3.29977
G1 X98.580 Y98.890 E3.31454
G1 X98.229 Y98.606 F7800.000
G1 F1800
G1 X98.005 Y98.945 E3.33360
G1 X97.833 Y99.376 E3.35537
G1 X97.751 Y99.819 E3.37654
G1 X97.765 Y100.314 E3.39977
G1 X97.876 Y100.762 E3.42142
G1 X97.997 Y101.037 E3.43554
G1 X98.228 Y101.393 E3.45545
G1 X98.389 Y101.579 E3.46701
G1 X98.558 Y101.735 E3.47781
G1 X98.945 Y101.995 E3.49969
G1 X99.376 Y102.167 E3.52146
G1 X99.820 Y102.249 E3.54265
G1 X100.181 Y102.249 E3.55960
G1 X100.624 Y102.167 E3.58077
G1 X101.037 Y102.003 E3.60162
G1 X101.393 Y101.772 E3.62153
G1 X101.579 Y101.611 E3.63309
G1 X101.735 Y101.442 E3.64389
G1 X101.995 Y101.055 E3.66577
G1 X102.167 Y100.624 E3.68754
G1 X102.249 Y100.180 E3.70873
G1 X102.249 Y99.819 E3.72568
G1 X102.167 Y99.376 E3.74685
G1 X102.003 Y98.963 E3.76770
G1 X101.772 Y98.607 E3.78761
G1 X101.611 Y98.421 E3.79917
G1 X101.442 Y98.265 E3.80997
G1 X101.055 Y98.005 E3.83185
G1 X100.624 Y97.833 E3.85362
G1 X100.149 Y97.748 E3.87628
G1 X99.800 Y97.753 E3.89267
G1 X99.399 Y97.827 E3.91182
G1 X98.982 Y97.987 E3.93277
G1 X98.607 Y98.228 E3.95368
G1 X98.421 Y98.389 E3.96525
G1 X98.265 Y98.558 E3.97605
G1 X97.914 Y98.274 F7800.000
G1 F1800
G1 X98.112 Y98.059 E3.98979
G1 X98.323 Y97.876 E4.00290
G1 X98.588 Y97.689 E4.01811
G1 X98.776 Y97.585 E4.02820
G1 X99.032 Y97.471 E4.04137
G1 X99.274 Y97.393 E4.05331
G1 X99.474 Y97.343 E4.06295
G1 X99.770 Y97.302 E4.07698
