; generated by Slic3r Prusa Edition 1.42.0-beta2+linux64 on 2019-05-07 at 14:52:55

; 

; external perimeters extrusion width = 0.45mm
; perimeters extrusion width = 0.45mm
; infill extrusion width = 0.45mm
; solid infill extrusion width = 0.45mm
; top infill extrusion width = 0.40mm
; support material extrusion width = 0.40mm
; first layer extrusion width = 0.30mm

M201 X9000 Y9000 Z500 E10000 ; sets maximum accelerations, mm/sec^2
M203 X500 Y500 Z12 E120 ; sets maximum feedrates, mm/sec
M204 P1500 R1500 T1500 ; sets acceleration (P, T) and retract acceleration (R), mm/sec^2
M205 X10.00 Y10.00 Z0.20 E2.50 ; sets the jerk limits, mm/sec
M205 S0 T0 ; sets the minimum extruding and travel feed rate, mm/sec
M107
M190 S60 ; set bed temperature and wait for it to be reached
M104 S200 ; set temperature
G28 ; home all axes
G1 Z5 F5000 ; lift nozzle
; Filament gcode
M109 S200 ; set temperature and wait for it to be reached
G21 ; set units to millimeters
G90 ; use absolute coordinates
M82 ; use absolute distances for extrusion
G92 E0
G1 Z0.150 F7800.000
G1 E-2.00000 F2400.00000
G92 E0
G1 X72.536 Y74.358 F7800.000
G1 E2.00000 F2400.00000
G1 F1800
G1 X73.432 Y73.698 E2.01857
G1 X74.437 Y73.209 E2.03725
G1 X75.509 Y72.911 E2.05582
G1 X76.616 Y72.812 E2.07439
G1 X102.365 Y72.932 E2.50444
G1 X103.369 Y73.023 E2.52128
G1 X104.512 Y73.338 E2.54108
G1 X119.852 Y79.335 E2.81616
G1 X120.938 Y79.920 E2.83677
G1 X121.881 Y80.707 E2.85727
G1 X122.403 Y81.314 E2.87065
G1 X122.839 Y81.979 E2.88393
G1 X123.187 Y82.701 E2.89730
G1 X123.436 Y83.455 E2.91058
G1 X128.764 Y107.143 E3.31607
G1 X128.772 Y120.481 E3.53884
G1 X128.569 Y121.525 E3.55660
G1 X128.192 Y122.513 E3.57426
G1 X127.651 Y123.421 E3.59191
G1 X126.962 Y124.223 E3.60957
G1 X126.095 Y124.929 E3.62825
G1 X125.115 Y125.466 E3.64692
G1 X124.053 Y125.816 E3.66560
G1 X122.945 Y125.968 E3.68427
G1 X96.890 Y125.853 E4.11942
G1 X95.379 Y125.645 E4.14490
G1 X94.384 Y125.285 E4.16256
G1 X93.472 Y124.764 E4.18012
G1 X73.048 Y110.327 E4.59784
G1 X72.226 Y109.624 E4.61591
G1 X71.526 Y108.767 E4.63438
G1 X70.995 Y107.804 E4.65275
G1 X70.643 Y106.762 E4.67112
G1 X70.483 Y105.668 E4.68959
G1 X70.517 Y78.219 E5.14801
G1 X70.749 Y77.131 E5.16659
G1 X71.173 Y76.103 E5.18516
G1 X71.775 Y75.169 E5.20373
G1 X72.495 Y74.402 E5.22131
G1 E3.22131 F2400.00000
G92 E0
G1 X76.608 Y78.946 F7800.000
G1 E2.00000 F2400.00000
G1 F1800
G1 X76.608 Y105.332 E2.44069
G1 X77.144 Y105.331 E2.44964
G1 X77.144 Y79.066 E2.88830
G1 X77.679 Y79.066 E2.89724
G1 X77.679 Y105.330 E3.33588
G1 X78.215 Y105.329 E3.34483
G1 X78.215 Y79.066 E3.78345
G1 X78.751 Y79.066 E3.79240
G1 X78.751 Y105.328 E4.23101
G1 X79.286 Y105.327 E4.23995
G1 X79.286 Y79.066 E4.67854
G1 X79.822 Y79.066 E4.68748
G1 X79.822 Y105.326 E5.12606
G1 X80.358 Y105.325 E5.13500
G1 X80.358 Y79.066 E5.57355
G1 X80.893 Y79.066 E5.58250
G1 X80.893 Y105.324 E6.02103
G1 X81.429 Y105.323 E6.02998
G1 X81.429 Y79.066 E6.46850
G1 X81.964 Y79.066 E6.47744
G1 X81.964 Y105.321 E6.91594
G1 X82.500 Y105.320 E6.92489
G1 X82.500 Y102.314 E6.97510
G1 X82.362 Y102.314 E6.97741
G1 X82.166 Y102.118 E6.98203
G1 X82.166 Y99.862 E7.01972
G1 X82.362 Y99.666 E7.02434
G1 X82.500 Y99.666 E7.02665
G1 X82.500 Y79.066 E7.37069
G1 X83.036 Y79.066 E7.37964
G1 X83.036 Y99.666 E7.72369
G1 X83.571 Y99.666 E7.73263
G1 X83.571 Y79.066 E8.07668
G1 X84.107 Y79.066 E8.08562
G1 X84.107 Y99.666 E8.42967
G1 X84.642 Y99.666 E8.43862
G1 X84.642 Y79.066 E8.78266
G1 X85.178 Y79.066 E8.79161
G1 X85.178 Y99.666 E9.13566
G1 X85.714 Y99.666 E9.14460
G1 X85.714 Y79.066 E9.48865
G1 X86.249 Y79.066 E9.49759
G1 X86.249 Y99.666 E9.84164
G1 X86.785 Y99.666 E9.85059
G1 X86.785 Y79.066 E10.19463
G1 X87.321 Y79.066 E10.20358
G1 X87.321 Y99.666 E10.54763
G1 X87.856 Y99.666 E10.55657
G1 X87.856 Y79.066 E10.90062
G1 X88.392 Y79.066 E10.90956
G1 X88.392 Y99.666 E11.25361
G1 X88.434 Y99.666 E11.25431
G1 X88.434 Y90.934 E11.40015
G1 X88.927 Y90.934 E11.40840
G1 X88.927 Y79.066 E11.60660
G1 X89.463 Y79.066 E11.61555
G1 X89.463 Y90.934 E11.81375
G1 X89.999 Y90.934 E11.82270
G1 X89.999 Y79.066 E12.02091
G1 X90.534 Y79.066 E12.02985
G1 X90.534 Y90.934 E12.22806
G1 X91.070 Y90.934 E12.23700
G1 X91.070 Y79.066 E12.43521
G1 X91.606 Y79.066 E12.44415
G1 X91.606 Y90.934 E12.64236
G1 X92.141 Y90.934 E12.65131
G1 X92.141 Y79.066 E12.84951
G1 X92.677 Y79.066 E12.85846
G1 X92.677 Y90.934 E13.05666
G1 X93.212 Y90.934 E13.06561
G1 X93.212 Y79.066 E13.26381
G1 X93.748 Y79.066 E13.27276
G1 X93.748 Y90.934 E13.47097
G1 X94.284 Y90.934 E13.47991
G1 X94.284 Y79.066 E13.67812
G1 X94.819 Y79.066 E13.68706
G1 X94.819 Y90.934 E13.88527
G1 X95.355 Y90.934 E13.89422
G1 X95.355 Y79.066 E14.09242
G1 X95.890 Y79.066 E14.10137
G1 X95.890 Y90.934 E14.29957
G1 X96.426 Y90.934 E14.30852
G1 X96.426 Y79.066 E14.50672
G1 X96.962 Y79.066 E14.51567
G1 X96.962 Y90.934 E14.71388
G1 X97.166 Y90.934 E14.71729
G1 X97.166 Y84.862 E14.81870
G1 X97.362 Y84.666 E14.82332
G1 X97.497 Y84.666 E14.82559
G1 X97.497 Y79.066 E14.91911
G1 X98.033 Y79.066 E14.92806
G1 X98.033 Y84.666 E15.02159
G1 X98.569 Y84.666 E15.03053
G1 X98.569 Y79.066 E15.12406
G1 X99.104 Y79.066 E15.13300
G1 X99.104 Y84.666 E15.22653
G1 X99.640 Y84.666 E15.23548
G1 X99.640 Y79.066 E15.32900
G1 X100.175 Y79.066 E15.33795
G1 X100.175 Y84.666 E15.43147
G1 X100.711 Y84.666 E15.44042
G1 X100.711 Y79.066 E15.53395
G1 X101.247 Y79.066 E15.54289
G1 X101.247 Y84.666 E15.63642
G1 X101.782 Y84.666 E15.64536
G1 X101.782 Y79.066 E15.73889
G1 X102.318 Y79.066 E15.74784
G1 X102.318 Y84.787 E15.84338
G1 E13.84338 F2400.00000
G92 E0
G1 X102.854 Y96.471 F7800.000
G1 E2.00000 F2400.00000
G1 F1800
G1 X102.854 Y93.121 E2.05596
G1 X103.024 Y92.613 E2.06490
G1 X103.389 Y91.891 E2.07842
G1 X103.389 Y97.311 E2.16895
G1 X103.584 Y97.615 E2.17498
G1 X103.925 Y98.046 E2.18415
G1 X103.925 Y91.150 E2.29932
G1 X104.174 Y90.880 E2.30546
G1 X104.460 Y90.624 E2.31187
G1 X104.460 Y98.579 E2.44472
G1 X104.591 Y98.696 E2.44765
G1 X104.996 Y98.991 E2.45601
G1 X104.996 Y90.210 E2.60266
G1 X105.263 Y90.042 E2.60793
G1 X105.532 Y89.906 E2.61296
G1 X105.532 Y99.290 E2.76970
G1 X105.885 Y99.465 E2.77629
G1 X106.067 Y99.526 E2.77949
G1 X106.067 Y89.674 E2.94405
G1 X106.603 Y89.501 E2.95345
G1 X106.603 Y99.700 E3.12379
G1 X107.138 Y99.806 E3.13290
G1 X107.138 Y89.394 E3.30678
G1 X107.674 Y89.349 E3.31576
G1 X107.674 Y99.851 E3.49114
G1 X107.900 Y99.865 E3.49492
G1 X108.210 Y99.845 E3.50011
G1 X108.210 Y89.355 E3.67531
G1 X108.588 Y89.380 E3.68163
G1 X108.745 Y89.411 E3.68432
G1 X108.745 Y99.789 E3.85764
G1 X109.281 Y99.680 E3.86678
G1 X109.281 Y89.520 E4.03645
G1 X109.817 Y89.702 E4.04590
G1 X109.817 Y99.498 E4.20950
G1 X110.352 Y99.249 E4.21937
G1 X110.352 Y89.947 E4.37472
G1 X110.888 Y90.265 E4.38512
G1 X110.888 Y98.930 E4.52984
G1 X111.207 Y98.698 E4.53643
G1 X111.423 Y98.502 E4.54130
G1 X111.423 Y90.698 E4.67164
G1 X111.622 Y90.876 E4.67609
G1 X111.959 Y91.249 E4.68448
G1 X111.959 Y97.953 E4.79646
G1 X112.214 Y97.618 E4.80348
G1 X112.495 Y97.168 E4.81235
G1 X112.495 Y92.038 E4.89803
G1 X112.776 Y92.613 E4.90873
G1 X112.986 Y93.237 E4.91971
G1 X113.030 Y93.439 E4.92318
G1 X113.030 Y96.233 E4.96983
G1 E2.96983 F2400.00000
G92 E0
G1 X96.962 Y112.213 F7800.000
G1 E2.00000 F2400.00000
G1 F1800
G1 X96.962 Y119.719 E2.12536
G1 X97.497 Y119.719 E2.13430
G1 X97.497 Y115.334 E2.20754
G1 X98.033 Y115.334 E2.21649
G1 X98.033 Y119.719 E2.28973
G1 X98.569 Y119.719 E2.29867
G1 X98.569 Y115.334 E2.37191
G1 X99.104 Y115.334 E2.38086
G1 X99.104 Y119.719 E2.45410
G1 X99.640 Y119.719 E2.46304
G1 X99.640 Y115.334 E2.53629
G1 X100.175 Y115.334 E2.54523
G1 X100.175 Y119.719 E2.61847
G1 X100.711 Y119.719 E2.62742
G1 X100.711 Y115.334 E2.70066
G1 X101.247 Y115.334 E2.70960
G1 X101.247 Y119.719 E2.78284
G1 X101.782 Y119.719 E2.79179
G1 X101.782 Y115.334 E2.86503
G1 X102.318 Y115.334 E2.87397
G1 X102.318 Y119.719 E2.94722
G1 X102.854 Y119.719 E2.95616
G1 X102.854 Y107.852 E3.15437
G1 X103.389 Y107.852 E3.16331
G1 X103.389 Y119.719 E3.36152
G1 X103.925 Y119.719 E3.37046
G1 X103.925 Y107.852 E3.56867
G1 X104.460 Y107.852 E3.57762
G1 X104.460 Y119.719 E3.77582
G1 X104.996 Y119.719 E3.78477
G1 X104.996 Y107.852 E3.98297
G1 X105.532 Y107.852 E3.99192
G1 X105.532 Y119.719 E4.19012
G1 X106.067 Y119.719 E4.19907
G1 X106.067 Y107.852 E4.39728
G1 X106.603 Y107.852 E4.40622
G1 X106.603 Y119.719 E4.60443
G1 X107.138 Y119.719 E4.61337
G1 X107.138 Y107.852 E4.81158
G1 X107.674 Y107.852 E4.82052
G1 X107.674 Y119.719 E5.01873
G1 X108.210 Y119.719 E5.02768
G1 X108.210 Y107.852 E5.22588
G1 X108.745 Y107.852 E5.23483
G1 X108.745 Y119.719 E5.43303
G1 X109.281 Y119.719 E5.44198
G1 X109.281 Y107.852 E5.64018
G1 X109.817 Y107.852 E5.64913
G1 X109.817 Y119.719 E5.84734
G1 X110.352 Y119.719 E5.85628
G1 X110.352 Y107.852 E6.05449
G1 X110.888 Y107.852 E6.06343
G1 X110.888 Y119.719 E6.26164
G1 X111.423 Y119.719 E6.27058
G1 X111.423 Y107.852 E6.46879
G1 X111.959 Y107.852 E6.47774
G1 X111.959 Y119.719 E6.67594
G1 X112.495 Y119.719 E6.68489
G1 X112.495 Y107.852 E6.88309
G1 X113.030 Y107.852 E6.89204
G1 X113.030 Y119.719 E7.09025
G1 X113.566 Y119.719 E7.09919
G1 X113.566 Y107.852 E7.29740
G1 X114.102 Y107.852 E7.30634
G1 X114.102 Y119.719 E7.50455
G1 X114.637 Y119.719 E7.51349
G1 X114.637 Y107.852 E7.71170
G1 X115.173 Y107.852 E7.72065
G1 X115.173 Y119.719 E7.91885
G1 X115.708 Y119.719 E7.92780
G1 X115.708 Y107.852 E8.12600
G1 X116.244 Y107.852 E8.13495
G1 X116.244 Y119.719 E8.33315
G1 X116.780 Y119.719 E8.34210
G1 X116.780 Y107.852 E8.54031
G1 X117.315 Y107.852 E8.54925
G1 X117.315 Y119.719 E8.74746
G1 X117.851 Y119.719 E8.75640
G1 X117.851 Y107.852 E8.95461
G1 X118.386 Y107.852 E8.96355
G1 X118.386 Y119.719 E9.16176
G1 X118.922 Y119.719 E9.17071
G1 X118.922 Y107.852 E9.36891
G1 X119.458 Y107.852 E9.37786
G1 X119.458 Y119.719 E9.57606
G1 X119.993 Y119.719 E9.58501
G1 X119.993 Y107.852 E9.78321
G1 X120.529 Y107.852 E9.79216
G1 X120.529 Y119.719 E9.99037
G1 X121.065 Y119.719 E9.99931
G1 X121.065 Y107.852 E10.19752
G1 X121.600 Y107.852 E10.20646
G1 X121.600 Y119.719 E10.40467
G1 X122.136 Y119.719 E10.41362
G1 X122.136 Y107.852 E10.61182
G1 X122.671 Y107.852 E10.62077
G1 X122.671 Y119.840 E10.82099
G1 E8.82099 F2400.00000
G92 E0
G1 X88.392 Y105.429 F7800.000
G1 E2.00000 F2400.00000
G1 F1800
G1 X88.392 Y102.314 E2.05203
G1 X87.856 Y102.314 E2.06097
G1 X87.856 Y105.310 E2.11100
G1 X87.321 Y105.311 E2.11995
G1 X87.321 Y102.314 E2.17000
G1 X86.785 Y102.314 E2.17894
G1 X86.785 Y105.312 E2.22901
G1 X86.249 Y105.313 E2.23796
G1 X86.249 Y102.314 E2.28804
G1 X85.714 Y102.314 E2.29699
G1 X85.714 Y105.314 E2.34709
G1 X85.178 Y105.315 E2.35604
G1 X85.178 Y102.314 E2.40616
G1 X84.642 Y102.314 E2.41510
G1 X84.642 Y105.316 E2.46524
G1 X84.107 Y105.317 E2.47419
G1 X84.107 Y102.314 E2.52435
G1 X83.571 Y102.314 E2.53329
G1 X83.571 Y105.318 E2.58347
G1 X83.036 Y105.319 E2.59241
G1 X83.036 Y102.193 E2.64462
G1 E0.64462 F2400.00000
G92 E0
G1 X110.305 Y100.409 F7800.000
G1 E2.00000 F2400.00000
G1 F1800
G1 X109.527 Y100.673 E2.01373
G1 X108.721 Y100.833 E2.02745
G1 X107.900 Y100.887 E2.04120
G1 X107.079 Y100.833 E2.05494
G1 X106.273 Y100.673 E2.06867
G1 X105.495 Y100.409 E2.08239
G1 X104.766 Y100.049 E2.09596
G1 X104.420 Y99.833 E2.10278
G1 X103.950 Y99.490 E2.11249
G1 X103.456 Y99.046 E2.12359
G1 X103.040 Y98.587 E2.13393
G1 X102.748 Y98.201 E2.14202
G1 X102.456 Y97.744 E2.15107
G1 X102.222 Y97.295 E2.15953
G1 X102.053 Y96.908 E2.16659
G1 X101.828 Y96.229 E2.17852
G1 X101.693 Y95.598 E2.18931
G1 X101.613 Y94.609 E2.20588
G1 X101.652 Y93.908 E2.21760
G1 X101.800 Y93.077 E2.23169
G1 X102.078 Y92.227 E2.24663
G1 X102.452 Y91.462 E2.26086
G1 X102.789 Y90.941 E2.27123
G1 X103.086 Y90.559 E2.27931
G1 X103.458 Y90.152 E2.28852
G1 X103.989 Y89.678 E2.30040
G1 X104.335 Y89.424 E2.30757
G1 X104.764 Y89.152 E2.31605
G1 X105.495 Y88.791 E2.32966
G1 X106.277 Y88.526 E2.34345
G1 X107.157 Y88.362 E2.35840
G1 X107.900 Y88.313 E2.37085
G1 X108.721 Y88.367 E2.38459
G1 X109.527 Y88.527 E2.39832
G1 X110.295 Y88.788 E2.41185
G1 X111.041 Y89.154 E2.42574
G1 X111.465 Y89.424 E2.43412
G1 X111.811 Y89.678 E2.44130
G1 X112.342 Y90.152 E2.45318
G1 X112.714 Y90.559 E2.46239
G1 X113.011 Y90.941 E2.47047
G1 X113.348 Y91.462 E2.48084
G1 X113.721 Y92.225 E2.49502
G1 X113.974 Y92.977 E2.50828
G1 X114.148 Y93.905 E2.52405
G1 X114.186 Y94.592 E2.53554
G1 X114.178 Y94.863 E2.54007
G1 X114.106 Y95.603 E2.55248
G1 X113.972 Y96.229 E2.56318
G1 X113.746 Y96.910 E2.57516
G1 X113.544 Y97.365 E2.58347
G1 X113.343 Y97.745 E2.59066
G1 X113.052 Y98.201 E2.59968
G1 X112.760 Y98.587 E2.60777
G1 X112.344 Y99.046 E2.61811
G1 X111.850 Y99.490 E2.62922
G1 X111.380 Y99.833 E2.63892
G1 X111.034 Y100.049 E2.64574
G1 X110.359 Y100.382 E2.65831
G1 X110.203 Y100.161 F7800.000
G1 F1800
G1 X109.458 Y100.414 E2.67145
G1 X108.686 Y100.567 E2.68459
G1 X107.900 Y100.619 E2.69774
G1 X107.114 Y100.567 E2.71090
G1 X106.342 Y100.414 E2.72404
G1 X105.597 Y100.161 E2.73718
G1 X104.896 Y99.815 E2.75023
G1 X104.570 Y99.611 E2.75667
G1 X104.119 Y99.282 E2.76598
G1 X103.645 Y98.856 E2.77663
G1 X103.247 Y98.416 E2.78654
G1 X102.968 Y98.048 E2.79425
G1 X102.688 Y97.610 E2.80294
G1 X102.464 Y97.179 E2.81105
G1 X102.303 Y96.812 E2.81774
G1 X102.087 Y96.159 E2.82922
G1 X101.958 Y95.559 E2.83948
G1 X101.881 Y94.605 E2.85545
G1 X101.918 Y93.939 E2.86660
G1 X102.060 Y93.143 E2.88011
G1 X102.326 Y92.328 E2.89442
G1 X102.686 Y91.594 E2.90807
G1 X103.008 Y91.096 E2.91798
G1 X103.291 Y90.731 E2.92569
G1 X103.646 Y90.343 E2.93448
G1 X104.158 Y89.887 E2.94593
G1 X104.487 Y89.645 E2.95274
G1 X104.895 Y89.385 E2.96082
G1 X105.597 Y89.039 E2.97390
G1 X106.345 Y88.786 E2.98708
G1 X107.190 Y88.628 E3.00144
G1 X107.900 Y88.581 E3.01333
G1 X108.686 Y88.633 E3.02648
G1 X109.458 Y88.786 E3.03962
G1 X110.196 Y89.037 E3.05265
G1 X110.908 Y89.387 E3.06589
G1 X111.313 Y89.645 E3.07392
G1 X111.642 Y89.887 E3.08073
G1 X112.154 Y90.343 E3.09218
G1 X112.509 Y90.731 E3.10098
G1 X112.792 Y91.096 E3.10868
G1 X113.114 Y91.594 E3.11859
G1 X113.473 Y92.327 E3.13221
G1 X113.714 Y93.045 E3.14487
G1 X113.882 Y93.937 E3.16004
G1 X113.918 Y94.595 E3.17104
G1 X113.841 Y95.562 E3.18723
G1 X113.713 Y96.159 E3.19744
G1 X113.496 Y96.813 E3.20895
G1 X113.303 Y97.247 E3.21688
G1 X113.111 Y97.610 E3.22374
G1 X112.832 Y98.048 E3.23240
G1 X112.553 Y98.416 E3.24012
G1 X112.155 Y98.856 E3.25003
G1 X111.681 Y99.282 E3.26067
G1 X111.230 Y99.611 E3.26999
G1 X110.904 Y99.815 E3.27642
G1 X110.257 Y100.134 E3.28847
G1 X110.100 Y99.913 F7800.000
G1 F1800
G1 X109.388 Y100.154 E3.30103
G1 X108.651 Y100.301 E3.31358
G1 X107.900 Y100.350 E3.32615
G1 X107.149 Y100.301 E3.33872
G1 X106.412 Y100.154 E3.35128
G1 X105.700 Y99.913 E3.36383
G1 X105.027 Y99.581 E3.37637
G1 X104.720 Y99.389 E3.38241
G1 X104.288 Y99.074 E3.39134
G1 X103.834 Y98.666 E3.40153
G1 X103.453 Y98.245 E3.41101
G1 X103.188 Y97.895 E3.41835
G1 X102.920 Y97.475 E3.42666
G1 X102.705 Y97.063 E3.43442
G1 X102.553 Y96.716 E3.44075
G1 X102.346 Y96.089 E3.45179
G1 X102.224 Y95.520 E3.46151
G1 X102.150 Y94.602 E3.47689
G1 X102.185 Y93.970 E3.48745
G1 X102.321 Y93.208 E3.50038
G1 X102.575 Y92.429 E3.51407
G1 X102.919 Y91.726 E3.52714
G1 X103.226 Y91.251 E3.53659
G1 X103.496 Y90.904 E3.54392
G1 X103.835 Y90.533 E3.55231
G1 X104.327 Y90.095 E3.56332
G1 X104.638 Y89.866 E3.56977
G1 X105.026 Y89.619 E3.57746
G1 X105.700 Y89.287 E3.59000
G1 X106.413 Y89.045 E3.60257
G1 X107.223 Y88.894 E3.61635
G1 X107.900 Y88.850 E3.62767
G1 X108.651 Y88.899 E3.64024
G1 X109.388 Y89.046 E3.65279
G1 X110.098 Y89.286 E3.66531
G1 X110.775 Y89.620 E3.67791
G1 X111.162 Y89.866 E3.68557
G1 X111.473 Y90.095 E3.69202
G1 X111.965 Y90.533 E3.70303
G1 X112.304 Y90.904 E3.71142
G1 X112.574 Y91.251 E3.71875
G1 X112.881 Y91.726 E3.72820
G1 X113.225 Y92.429 E3.74127
G1 X113.455 Y93.113 E3.75332
G1 X113.615 Y93.970 E3.76788
G1 X113.650 Y94.598 E3.77840
G1 X113.576 Y95.521 E3.79386
G1 X113.454 Y96.089 E3.80356
G1 X113.246 Y96.717 E3.81460
G1 X113.062 Y97.130 E3.82217
G1 X112.879 Y97.476 E3.82869
G1 X112.612 Y97.895 E3.83699
G1 X112.347 Y98.245 E3.84433
G1 X111.966 Y98.666 E3.85382
G1 X111.512 Y99.074 E3.86400
