; generated by Slic3r Prusa Edition 1.42.0-beta2+linux64 on 2019-05-09 at 12:41:58

; 

; external perimeters extrusion width = 0.45mm
; perimeters extrusion width = 0.45mm
; infill extrusion width = 0.45mm
; solid infill extrusion width = 0.45mm
; top infill extrusion width = 0.40mm
; first layer extrusion width = 0.50mm

M201 X9000 Y9000 Z500 E10000 ; sets maximum accelerations, mm/sec^2
M203 X500 Y500 Z12 E120 ; sets maximum feedrates, mm/sec
M204 P1500 R1500 T1500 ; sets acceleration (P, T) and retract acceleration (R), mm/sec^2
M205 X10.00 Y10.00 Z0.20 E2.50 ; sets the jerk limits, mm/sec
M205 S0 T0 ; sets the minimum extruding and travel feed rate, mm/sec
M107
M190 S60 ; set bed temperature and wait for it to be reached
M104 S200 ; set temperature
G28 ; home all axes
G1 Z5 F5000 ; lift nozzle
; Filament gcode
M109 S200 ; set temperature and wait for it to be reached
G21 ; set units to millimeters
G90 ; use absolute coordinates
M82 ; use absolute distances for extrusion
G92 E0
G1 Z0.250 F7800.000
G1 E-2.00000 F2400.00000
G92 E0
G1 X96.849 Y96.850 F7800.000
G1 E2.00000 F2400.00000
G1 F1800
G1 X103.121 Y90.578 E2.41151
G1 X104.057 Y89.816 E2.46746
G1 X104.789 Y89.398 E2.50660
G1 X105.572 Y89.083 E2.54574
G1 X106.384 Y88.878 E2.58460
G1 X107.222 Y88.783 E2.62374
G1 X127.506 Y88.777 E3.56476
G1 X128.549 Y88.866 E3.61331
G1 X129.556 Y89.126 E3.66157
G1 X130.511 Y89.554 E3.71012
G1 X131.376 Y90.132 E3.75839
G1 X132.137 Y90.850 E3.80693
G1 X132.764 Y91.680 E3.85520
G1 X133.243 Y92.604 E3.90346
G1 X133.564 Y93.600 E3.95201
G1 X133.723 Y94.950 E4.01507
G1 X133.723 Y113.075 E4.85593
G1 X133.664 Y113.910 E4.89478
G1 X133.494 Y114.730 E4.93364
G1 X133.193 Y115.571 E4.97506
G1 X132.771 Y116.365 E5.01677
G1 X132.243 Y117.085 E5.05819
G1 X131.613 Y117.726 E5.09990
G1 X115.943 Y130.184 E6.02861
G1 X115.194 Y130.610 E6.06861
G1 X114.392 Y130.928 E6.10861
G1 X113.555 Y131.133 E6.14861
G1 X112.697 Y131.220 E6.18860
G1 X106.971 Y131.201 E6.45428
G1 X105.785 Y130.982 E6.51023
G1 X104.657 Y130.536 E6.56647
G1 X103.471 Y129.743 E6.63265
G1 X88.422 Y116.741 E7.55533
G1 X87.828 Y116.150 E7.59418
G1 X87.318 Y115.486 E7.63304
G1 X86.873 Y114.698 E7.67503
G1 X86.547 Y113.853 E7.71703
G1 X86.347 Y112.970 E7.75902
G1 X86.277 Y112.062 E7.80130
G1 X86.280 Y109.797 E7.90638
G1 X86.381 Y108.866 E7.94980
G1 X86.724 Y107.684 E8.00689
G1 X87.289 Y106.598 E8.06370
G1 X88.100 Y105.600 E8.12337
G1 X96.807 Y96.892 E8.69464
G1 E6.69464 F2400.00000
G92 E0
G1 X122.129 Y109.853 F7800.000
G1 E2.00000 F2400.00000
G1 F1800
G1 X121.662 Y110.194 E2.02684
G1 X121.259 Y110.448 E2.04893
G1 X120.481 Y110.832 E2.08920
G1 X119.646 Y111.115 E2.13011
G1 X118.781 Y111.287 E2.17102
G1 X117.900 Y111.345 E2.21198
G1 X117.019 Y111.287 E2.25293
G1 X116.154 Y111.115 E2.29384
G1 X115.319 Y110.832 E2.33475
G1 X114.541 Y110.448 E2.37502
G1 X114.138 Y110.194 E2.39711
G1 X113.671 Y109.853 E2.42395
G1 X113.132 Y109.370 E2.45749
G1 X112.679 Y108.868 E2.48889
G1 X112.384 Y108.478 E2.51156
G1 X112.060 Y107.973 E2.53940
G1 X111.800 Y107.472 E2.56558
G1 X111.628 Y107.078 E2.58554
G1 X111.386 Y106.349 E2.62116
G1 X111.238 Y105.651 E2.65429
G1 X111.155 Y104.614 E2.70254
G1 X111.198 Y103.845 E2.73826
G1 X111.358 Y102.957 E2.78010
G1 X111.654 Y102.052 E2.82428
G1 X112.054 Y101.236 E2.86646
G1 X112.425 Y100.664 E2.89806
G1 X112.724 Y100.279 E2.92071
G1 X113.136 Y99.827 E2.94908
G1 X113.707 Y99.319 E2.98453
G1 X114.058 Y99.060 E3.00480
G1 X114.538 Y98.753 E3.03120
G1 X115.319 Y98.368 E3.07160
G1 X116.154 Y98.085 E3.11251
G1 X117.019 Y97.913 E3.15342
G1 X117.900 Y97.855 E3.19438
G1 X118.781 Y97.913 E3.23533
G1 X119.646 Y98.085 E3.27624
G1 X120.466 Y98.363 E3.31644
G1 X121.269 Y98.758 E3.35796
G1 X121.742 Y99.060 E3.38395
G1 X122.093 Y99.319 E3.40422
G1 X122.664 Y99.827 E3.43967
G1 X123.076 Y100.279 E3.46804
G1 X123.375 Y100.664 E3.49068
G1 X123.746 Y101.236 E3.52229
G1 X124.144 Y102.048 E3.56425
G1 X124.417 Y102.861 E3.60405
G1 X124.602 Y103.840 E3.65027
G1 X124.644 Y104.590 E3.68512
G1 X124.630 Y104.935 E3.70112
G1 X124.560 Y105.660 E3.73490
G1 X124.414 Y106.349 E3.76759
G1 X124.170 Y107.084 E3.80354
G1 X123.941 Y107.592 E3.82938
G1 X123.738 Y107.976 E3.84954
G1 X123.416 Y108.478 E3.87719
G1 X123.121 Y108.868 E3.89985
G1 X122.668 Y109.370 E3.93125
G1 X122.174 Y109.813 E3.96201
G1 X121.848 Y109.505 F7800.000
G1 F1800
G1 X121.411 Y109.824 E3.98712
G1 X121.041 Y110.058 E4.00742
G1 X120.310 Y110.419 E4.04525
G1 X119.530 Y110.683 E4.08344
G1 X118.722 Y110.844 E4.12164
G1 X117.900 Y110.898 E4.15988
G1 X117.078 Y110.844 E4.19812
G1 X116.270 Y110.683 E4.23631
G1 X115.490 Y110.419 E4.27451
G1 X114.759 Y110.058 E4.31233
G1 X114.389 Y109.824 E4.33264
G1 X113.952 Y109.505 E4.35775
G1 X113.448 Y109.054 E4.38915
G1 X113.023 Y108.583 E4.41855
G1 X112.751 Y108.222 E4.43952
G1 X112.447 Y107.749 E4.46561
G1 X112.203 Y107.280 E4.49015
G1 X112.045 Y106.918 E4.50847
G1 X111.818 Y106.232 E4.54199
G1 X111.680 Y105.586 E4.57263
G1 X111.602 Y104.608 E4.61813
G1 X111.642 Y103.897 E4.65117
G1 X111.792 Y103.067 E4.69031
G1 X112.069 Y102.221 E4.73162
G1 X112.443 Y101.456 E4.77112
G1 X112.789 Y100.923 E4.80059
G1 X113.066 Y100.566 E4.82154
G1 X113.450 Y100.144 E4.84802
G1 X113.988 Y99.666 E4.88142
G1 X114.311 Y99.428 E4.90004
G1 X114.758 Y99.143 E4.92462
G1 X115.490 Y98.781 E4.96252
G1 X116.270 Y98.517 E5.00072
G1 X117.078 Y98.356 E5.03892
G1 X117.900 Y98.302 E5.07715
G1 X118.722 Y98.356 E5.11539
G1 X119.530 Y98.517 E5.15359
G1 X120.301 Y98.778 E5.19135
G1 X121.047 Y99.146 E5.22993
G1 X121.489 Y99.428 E5.25426
G1 X121.812 Y99.666 E5.27288
G1 X122.350 Y100.144 E5.30628
G1 X122.734 Y100.566 E5.33276
G1 X123.011 Y100.923 E5.35371
G1 X123.357 Y101.456 E5.38318
G1 X123.730 Y102.218 E5.42255
G1 X123.984 Y102.974 E5.45956
G1 X124.158 Y103.894 E5.50300
G1 X124.197 Y104.594 E5.53551
G1 X124.185 Y104.905 E5.54993
G1 X124.118 Y105.592 E5.58195
G1 X123.982 Y106.232 E5.61232
G1 X123.753 Y106.922 E5.64604
G1 X123.539 Y107.396 E5.67016
G1 X123.352 Y107.751 E5.68881
G1 X123.049 Y108.222 E5.71478
G1 X122.777 Y108.583 E5.73575
G1 X122.352 Y109.054 E5.76516
G1 X121.893 Y109.465 E5.79377
G1 X121.567 Y109.158 F7800.000
G1 F1800
G1 X121.160 Y109.455 E5.81715
G1 X120.822 Y109.668 E5.83567
G1 X120.138 Y110.005 E5.87104
G1 X119.414 Y110.251 E5.90653
G1 X118.664 Y110.400 E5.94201
G1 X117.900 Y110.451 E5.97753
G1 X117.136 Y110.400 E6.01306
G1 X116.386 Y110.251 E6.04854
G1 X115.662 Y110.005 E6.08402
G1 X114.978 Y109.668 E6.11940
G1 X114.640 Y109.455 E6.13792
G1 X114.233 Y109.158 E6.16129
G1 X113.764 Y108.737 E6.19055
G1 X113.368 Y108.298 E6.21796
G1 X113.117 Y107.967 E6.23724
G1 X112.834 Y107.525 E6.26158
G1 X112.606 Y107.087 E6.28448
G1 X112.462 Y106.758 E6.30115
G1 X112.249 Y106.115 E6.33258
G1 X112.123 Y105.521 E6.36073
G1 X112.049 Y104.603 E6.40347
G1 X112.086 Y103.950 E6.43384
G1 X112.225 Y103.177 E6.47027
G1 X112.483 Y102.389 E6.50871
G1 X112.832 Y101.677 E6.54552
G1 X113.153 Y101.182 E6.57288
G1 X113.408 Y100.854 E6.59214
G1 X113.764 Y100.462 E6.61671
G1 X114.269 Y100.013 E6.64806
G1 X114.564 Y99.796 E6.66504
G1 X114.977 Y99.532 E6.68779
G1 X115.662 Y99.195 E6.72319
G1 X116.386 Y98.949 E6.75868
G1 X117.136 Y98.800 E6.79416
G1 X117.900 Y98.749 E6.82968
G1 X118.664 Y98.800 E6.86520
G1 X119.414 Y98.949 E6.90069
G1 X120.135 Y99.194 E6.93602
G1 X120.825 Y99.533 E6.97166
G1 X121.236 Y99.796 E6.99432
G1 X121.531 Y100.013 E7.01130
G1 X122.036 Y100.462 E7.04265
G1 X122.392 Y100.854 E7.06723
G1 X122.647 Y101.182 E7.08648
G1 X122.968 Y101.677 E7.11384
G1 X123.316 Y102.388 E7.15061
G1 X123.552 Y103.087 E7.18482
G1 X123.714 Y103.949 E7.22548
G1 X123.750 Y104.598 E7.25565
G1 X123.739 Y104.874 E7.26849
G1 X123.677 Y105.523 E7.29874
G1 X123.551 Y106.115 E7.32679
G1 X123.337 Y106.759 E7.35829
G1 X123.138 Y107.200 E7.38070
G1 X122.966 Y107.526 E7.39783
G1 X122.683 Y107.967 E7.42213
G1 X122.432 Y108.298 E7.44141
G1 X122.036 Y108.737 E7.46882
G1 X121.612 Y109.118 E7.49529
G1 X121.630 Y109.553 F7800.000
G1 E5.49529 F2400.00000
G92 E0
G1 X111.357 Y111.912 F7800.000
G1 E2.00000 F2400.00000
G1 F1800
G1 X111.357 Y123.857 E2.55417
G1 X108.643 Y123.857 E2.68011
G1 X108.643 Y96.143 E3.96586
G1 X126.357 Y96.143 E4.78769
G1 X126.357 Y111.913 E5.51934
G1 X111.417 Y111.912 E6.21244
G1 X111.804 Y112.358 F7800.000
G1 F1800
G1 X111.804 Y124.304 E6.76661
G1 X108.196 Y124.304 E6.93396
G1 X108.196 Y111.343 E7.53523
G1 X93.196 Y111.343 E8.23112
G1 X93.196 Y110.696 E8.26113
G1 X108.196 Y110.696 E8.95702
G1 X108.196 Y95.696 E9.65291
G1 X126.804 Y95.696 E10.51615
G1 X126.804 Y112.360 E11.28922
G1 X111.864 Y112.358 E11.98232
G1 X112.250 Y112.805 F7800.000
G1 F1800
G1 X112.250 Y124.750 E12.53649
G1 X107.750 Y124.750 E12.74526
G1 X107.750 Y111.790 E13.34652
G1 X92.750 Y111.790 E14.04241
G1 X92.750 Y110.250 E14.11384
G1 X107.750 Y110.250 E14.80973
G1 X107.750 Y95.250 E15.50562
G1 X127.250 Y95.250 E16.41028
G1 X127.250 Y112.806 E17.22475
G1 X112.310 Y112.805 E17.91786
G1 X111.866 Y112.918 F7800.000
G1 E15.91786 F2400.00000
G92 E0
G1 X115.374 Y111.396 F7800.000
G1 E2.00000 F2400.00000
G1 F1800
G1 X115.595 Y111.432 E2.01176
G1 X116.289 Y111.531 E2.03810
G1 X116.972 Y111.598 E2.05429
G1 X117.904 Y111.629 E2.06600
G1 X118.360 Y111.614 E2.07315
G1 X118.816 Y111.599 E2.08172
G1 X118.828 Y111.598 E2.08194
G1 X119.056 Y111.576 E2.08735
G1 X119.283 Y111.554 E2.09382
G1 X119.511 Y111.531 E2.10136
G1 X119.739 Y111.509 E2.10996
G1 X119.763 Y111.506 E2.11088
G1 X119.984 Y111.469 E2.12051
G1 X120.204 Y111.433 E2.13119
G1 X120.425 Y111.396 E2.14293
G1 E0.14293 F2400.00000
G92 E0
G1 X123.995 Y108.196 F7800.000
G1 E2.00000 F2400.00000
G1 F1800
G1 X123.690 Y108.670 E2.02625
G1 X123.379 Y109.081 E2.05030
G1 X122.904 Y109.607 E2.08336
G1 X122.340 Y110.113 E2.11868
G1 X121.850 Y110.471 E2.14697
G1 X121.423 Y110.740 E2.17050
G1 X120.714 Y111.090 E2.20737
G1 X120.795 Y111.578 E2.23043
G1 X126.023 Y111.579 E2.47417
G1 X126.023 Y96.477 E3.17821
G1 X108.977 Y96.477 E3.97289
G1 X108.977 Y123.523 E5.23378
G1 X111.023 Y123.523 E5.32913
G1 X111.023 Y111.577 E5.88604
G1 X115.004 Y111.578 E6.07168
G1 X115.085 Y111.090 E6.09474
G1 X114.377 Y110.740 E6.13155
G1 X113.950 Y110.471 E6.15509
G1 X113.460 Y110.113 E6.18337
G1 X112.896 Y109.607 E6.21869
G1 X112.421 Y109.081 E6.25175
G1 X112.110 Y108.670 E6.27580
G1 X111.770 Y108.141 E6.30510
G1 X111.498 Y107.616 E6.33265
G1 X111.315 Y107.198 E6.35394
G1 X111.063 Y106.437 E6.39132
G1 X110.906 Y105.699 E6.42649
G1 X110.819 Y104.618 E6.47706
G1 X110.865 Y103.806 E6.51497
G1 X111.033 Y102.875 E6.55905
G1 X111.343 Y101.926 E6.60561
G1 X111.762 Y101.071 E6.65003
G1 X112.152 Y100.470 E6.68338
G1 X112.468 Y100.063 E6.70742
G1 X112.900 Y99.588 E6.73736
G1 X113.496 Y99.058 E6.77453
G1 X113.869 Y98.783 E6.79614
G1 X114.374 Y98.461 E6.82405
G1 X115.191 Y98.058 E6.86654
G1 X116.067 Y97.761 E6.90969
G1 X116.975 Y97.580 E6.95285
G1 X117.900 Y97.519 E6.99605
G1 X118.825 Y97.580 E7.03926
G1 X119.733 Y97.761 E7.08241
G1 X120.590 Y98.052 E7.12464
G1 X121.436 Y98.467 E7.16858
G1 X121.931 Y98.783 E7.19596
G1 X122.304 Y99.058 E7.21757
G1 X122.900 Y99.588 E7.25474
G1 X123.332 Y100.063 E7.28468
G1 X123.648 Y100.470 E7.30871
G1 X124.038 Y101.071 E7.34207
G1 X124.454 Y101.921 E7.38620
G1 X124.742 Y102.776 E7.42829
G1 X124.935 Y103.800 E7.47685
G1 X124.979 Y104.588 E7.51363
G1 X124.965 Y104.958 E7.53090
G1 X124.892 Y105.711 E7.56618
G1 X124.737 Y106.437 E7.60078
G1 X124.482 Y107.206 E7.63858
G1 X124.241 Y107.739 E7.66584
G1 X124.027 Y108.145 E7.68724
G1 X124.415 Y108.371 F7800.000
G1 F1800
G1 X124.644 Y107.936 E7.71018
G1 X124.900 Y107.370 E7.73917
G1 X125.199 Y106.470 E7.78337
G1 X125.574 Y106.530 E7.80109
G1 X125.574 Y111.130 E8.01554
G1 X122.230 Y111.130 E8.17142
G1 X122.130 Y110.822 E8.18653
G1 X122.623 Y110.462 E8.21496
G1 X123.221 Y109.926 E8.25245
G1 X123.725 Y109.367 E8.28752
G1 X124.059 Y108.926 E8.31328
G1 X124.382 Y108.422 E8.34122
G1 X124.772 Y108.645 F7800.000
G1 F1800
G1 X124.427 Y109.183 E8.37105
G1 X124.071 Y109.653 E8.39852
G1 X123.539 Y110.244 E8.43560
G1 X123.051 Y110.681 E8.46615
G1 X125.125 Y110.681 E8.56288
G1 X125.125 Y108.688 E8.65580
G1 X124.805 Y108.594 E8.67138
G1 E6.67138 F2400.00000
G92 E0
G1 X122.632 Y98.749 F7800.000
G1 E2.00000 F2400.00000
G1 F1800
G1 X123.216 Y99.269 E2.03644
G1 X123.676 Y99.774 E2.06830
G1 X124.014 Y100.210 E2.09404
G1 X124.429 Y100.849 E2.12954
G1 X124.870 Y101.750 E2.17629
G1 X125.200 Y102.730 E2.22453
G1 X125.574 Y102.669 E2.24221
G1 X125.574 Y96.926 E2.50997
G1 X119.831 Y96.926 E2.77770
G1 X119.770 Y97.300 E2.79536
G1 X120.757 Y97.635 E2.84395
G1 X121.129 Y97.806 E2.86307
G1 X121.660 Y98.078 E2.89086
G1 X122.185 Y98.413 E2.91993
G1 X122.587 Y98.709 E2.94320
G1 X122.870 Y98.360 F7800.000
G1 F1800
G1 X122.439 Y98.043 E2.96813
G1 X121.895 Y97.696 E2.99824
G1 X121.989 Y97.375 E3.01385
G1 X125.125 Y97.375 E3.16010
G1 X125.125 Y100.512 E3.30635
G1 X124.806 Y100.606 E3.32190
G1 X124.380 Y99.950 E3.35835
G1 X124.019 Y99.485 E3.38580
G1 X123.532 Y98.949 E3.41958
G1 X122.915 Y98.400 E3.45808
G1 X122.985 Y97.863 F7800.000
G1 F1800
G1 X123.847 Y98.630 E3.51187
G1 X124.677 Y99.541 E3.56932
G1 X124.677 Y97.823 E3.64942
G1 X122.941 Y97.823 E3.73037
G1 E1.73037 F2400.00000
G92 E0
G1 X111.822 Y100.163 F7800.000
G1 E2.00000 F2400.00000
G1 F1800
G1 X112.124 Y99.774 E2.02295
G1 X112.584 Y99.269 E2.05481
G1 X113.213 Y98.709 E2.09404
G1 X113.615 Y98.413 E2.11731
G1 X114.153 Y98.070 E2.14708
G1 X115.019 Y97.643 E2.19209
G1 X116.030 Y97.300 E2.24189
G1 X115.969 Y96.926 E2.25954
G1 X109.426 Y96.926 E2.56458
G1 X109.426 Y123.074 E3.78365
G1 X110.574 Y123.074 E3.83717
G1 X110.574 Y111.129 E4.39408
G1 X113.568 Y111.129 E4.53369
G1 X113.669 Y110.821 E4.54879
G1 X113.177 Y110.462 E4.57716
G1 X112.579 Y109.926 E4.61465
G1 X112.075 Y109.367 E4.64972
G1 X111.741 Y108.926 E4.67548
G1 X111.381 Y108.366 E4.70654
G1 X111.093 Y107.809 E4.73575
G1 X110.896 Y107.358 E4.75870
G1 X110.629 Y106.554 E4.79819
G1 X110.461 Y105.764 E4.83588
G1 X110.370 Y104.623 E4.88923
G1 X110.418 Y103.753 E4.92985
G1 X110.597 Y102.765 E4.97665
G1 X110.927 Y101.757 E5.02612
G1 X111.371 Y100.849 E5.07324
G1 X111.786 Y100.210 E5.10874
G1 X111.420 Y99.950 F7800.000
G1 F1800
G1 X110.980 Y100.628 E5.14639
G1 X110.510 Y101.588 E5.19622
G1 X110.251 Y102.380 E5.23511
G1 X109.875 Y102.320 E5.25287
G1 X109.875 Y97.375 E5.48346
G1 X113.811 Y97.375 E5.66700
G1 X113.905 Y97.696 E5.68260
G1 X113.361 Y98.043 E5.71272
G1 X112.930 Y98.360 E5.73765
G1 X112.268 Y98.949 E5.77895
G1 X111.781 Y99.485 E5.81273
G1 X111.456 Y99.903 E5.83739
G1 X111.090 Y99.643 F7800.000
G1 F1800
G1 X111.437 Y99.196 E5.86375
G1 X111.953 Y98.630 E5.89945
G1 X112.859 Y97.823 E5.95604
G1 X110.323 Y97.823 E6.07428
G1 X110.323 Y100.229 E6.18646
G1 X110.643 Y100.324 E6.20200
G1 X111.054 Y99.690 E6.23721
G1 X110.772 Y99.261 F7800.000
G1 F1800
G1 X110.772 Y98.272 E6.28333
G1 X111.672 Y98.272 E6.32531
G1 X110.812 Y99.217 E6.38489
G1 E4.38489 F2400.00000
G92 E0
G1 X110.965 Y108.537 F7800.000
G1 E2.00000 F2400.00000
G1 F1800
G1 X110.688 Y108.003 E2.02807
G1 X110.477 Y107.519 E2.05268
G1 X110.250 Y106.835 E2.08628
G1 X109.875 Y106.896 E2.10400
G1 X109.875 Y110.680 E2.28044
G1 X112.748 Y110.680 E2.41442
G1 X112.261 Y110.244 E2.44491
G1 X111.729 Y109.653 E2.48199
G1 X111.373 Y109.183 E2.50946
G1 X110.993 Y108.591 E2.54229
G1 X110.323 Y108.971 F7800.000
G1 F1800
G1 X110.644 Y108.877 E2.55787
G1 X111.005 Y109.440 E2.58905
G1 X111.604 Y110.232 E2.63532
G1 X110.323 Y110.232 E2.69503
G1 X110.323 Y109.031 E2.75098
G1 E0.75098 F2400.00000
G92 E0
G1 X108.420 Y111.020 F7800.000
G1 E2.00000 F2400.00000
G1 F1800
G1 X93.420 Y111.020 E2.31280
G1 Z0.450 F7800.000
G1 X114.576 Y110.350
G1 F3600
G1 X113.787 Y109.814 E2.34507
G1 X113.205 Y109.296 E2.37144
G1 X112.703 Y108.733 E2.39697
G1 X112.149 Y107.924 E2.43017
G1 X111.743 Y107.089 E2.46158
G1 X111.486 Y106.321 E2.48902
G1 X111.331 Y105.574 E2.51482
G1 X111.258 Y104.608 E2.54762
G1 X111.306 Y103.810 E2.57469
G1 X111.484 Y102.885 E2.60655
G1 X111.757 Y102.077 E2.63542
G1 X112.146 Y101.284 E2.66534
G1 X112.547 Y100.673 E2.69008
G1 X112.749 Y100.413 E2.70122
G1 X113.206 Y99.902 E2.72442
